{
 "compressionlevel": -1,
 "width": 96,
 "height": 60,
 "tilewidth": 16,
 "tileheight": 16,
 "infinite": false,
 "orientation": "orthogonal",
 "renderorder": "right-down",
 "tiledversion": "1.11.0",
 "type": "map",
 "version": "1.10",
 "nextlayerid": 3,
 "nextobjectid": 386,
 "layers": [
  {
   "id": 1,
   "name": "suelo",
   "type": "tilelayer",
   "width": 96,
   "height": 60,
   "x": 0,
   "y": 0,
   "opacity": 1,
   "visible": true,
   "data": [
    1,
    1,
    1,
    1,
    1,
    1,
    1,
    1,
    1,
    1,
    1,
    1,
    1,
    1,
    1,
    1,
    1,
    1,
    1,
    1,
    1,
    1,
    1,
    1,
    1,
    1,
    1,
    1,
    1,
    1,
    1,
    1,
    1,
    1,
    1,
    1,
    1,
    1,
    1,
    1,
    1,
    1,
    1,
    1,
    1,
    1,
    1,
    1,
    1,
    1,
    1,
    1,
    1,
    1,
    1,
    1,
    1,
    1,
    1,
    1,
    1,
    1,
    1,
    1,
    1,
    1,
    1,
    1,
    1,
    1,
    1,
    1,
    1,
    1,
    1,
    1,
    1,
    1,
    1,
    1,
    1,
    1,
    1,
    1,
    1,
    1,
    1,
    1,
    1,
    1,
    1,
    1,
    1,
    1,
    1,
    1,
    1,
    1,
    1,
    1,
    1,
    1,
    1,
    1,
    1,
    1,
    1,
    1,
    1,
    1,
    1,
    1,
    1,
    1,
    1,
    1,
    1,
    1,
    1,
    1,
    1,
    1,
    1,
    1,
    1,
    1,
    1,
    1,
    1,
    1,
    1,
    1,
    1,
    1,
    1,
    1,
    1,
    1,
    1,
    1,
    1,
    1,
    1,
    1,
    1,
    1,
    1,
    1,
    1,
    1,
    1,
    1,
    1,
    1,
    1,
    1,
    1,
    1,
    1,
    1,
    1,
    1,
    1,
    1,
    1,
    1,
    1,
    1,
    1,
    1,
    1,
    1,
    1,
    1,
    1,
    1,
    1,
    1,
    1,
    1,
    1,
    1,
    1,
    1,
    1,
    1,
    1,
    1,
    1,
    1,
    1,
    1,
    1,
    1,
    1,
    1,
    1,
    1,
    1,
    1,
    1,
    1,
    1,
    1,
    1,
    1,
    1,
    1,
    1,
    1,
    1,
    1,
    1,
    1,
    1,
    1,
    1,
    1,
    1,
    1,
    1,
    1,
    1,
    1,
    1,
    1,
    1,
    1,
    1,
    1,
    1,
    1,
    1,
    1,
    1,
    1,
    1,
    1,
    1,
    1,
    1,
    1,
    1,
    1,
    1,
    1,
    1,
    1,
    1,
    1,
    1,
    1,
    1,
    1,
    1,
    1,
    1,
    1,
    1,
    1,
    1,
    1,
    1,
    1,
    1,
    1,
    1,
    1,
    1,
    1,
    1,
    1,
    1,
    1,
    1,
    1,
    1,
    1,
    1,
    1,
    1,
    1,
    1,
    1,
    1,
    1,
    1,
    1,
    1,
    1,
    1,
    1,
    1,
    1,
    1,
    1,
    1,
    1,
    1,
    1,
    1,
    1,
    3,
    3,
    3,
    3,
    3,
    3,
    3,
    3,
    3,
    3,
    3,
    3,
    3,
    3,
    3,
    3,
    3,
    3,
    3,
    3,
    3,
    3,
    1,
    1,
    1,
    1,
    1,
    1,
    1,
    1,
    1,
    1,
    1,
    1,
    1,
    1,
    1,
    1,
    1,
    1,
    1,
    1,
    1,
    1,
    1,
    1,
    1,
    1,
    1,
    1,
    1,
    1,
    1,
    1,
    1,
    1,
    1,
    1,
    1,
    1,
    1,
    1,
    1,
    1,
    1,
    1,
    1,
    1,
    1,
    1,
    1,
    1,
    1,
    1,
    1,
    1,
    1,
    1,
    1,
    1,
    1,
    1,
    1,
    1,
    1,
    1,
    1,
    1,
    1,
    1,
    1,
    1,
    1,
    1,
    1,
    1,
    3,
    1,
    1,
    1,
    1,
    1,
    1,
    1,
    1,
    1,
    1,
    1,
    1,
    1,
    1,
    1,
    1,
    1,
    1,
    1,
    1,
    3,
    1,
    1,
    1,
    1,
    1,
    1,
    1,
    1,
    1,
    1,
    1,
    1,
    1,
    1,
    1,
    1,
    1,
    1,
    1,
    1,
    1,
    1,
    1,
    1,
    1,
    1,
    1,
    1,
    1,
    1,
    1,
    1,
    1,
    1,
    1,
    1,
    1,
    1,
    1,
    1,
    1,
    1,
    1,
    1,
    1,
    1,
    1,
    1,
    1,
    1,
    1,
    1,
    1,
    1,
    1,
    1,
    1,
    1,
    1,
    1,
    1,
    1,
    1,
    1,
    1,
    1,
    1,
    1,
    1,
    1,
    1,
    1,
    1,
    1,
    3,
    1,
    1,
    1,
    1,
    1,
    1,
    1,
    1,
    1,
    1,
    1,
    1,
    1,
    1,
    1,
    1,
    1,
    1,
    1,
    1,
    3,
    1,
    1,
    1,
    1,
    1,
    1,
    1,
    1,
    1,
    1,
    1,
    1,
    1,
    1,
    1,
    1,
    3,
    3,
    3,
    3,
    3,
    3,
    3,
    3,
    3,
    3,
    3,
    3,
    1,
    1,
    3,
    3,
    3,
    3,
    3,
    3,
    3,
    3,
    3,
    3,
    3,
    3,
    1,
    1,
    1,
    1,
    1,
    1,
    1,
    1,
    1,
    1,
    1,
    1,
    1,
    1,
    1,
    1,
    1,
    1,
    1,
    1,
    1,
    1,
    1,
    1,
    1,
    1,
    1,
    1,
    1,
    1,
    1,
    1,
    3,
    1,
    1,
    1,
    1,
    1,
    1,
    1,
    1,
    1,
    1,
    1,
    1,
    1,
    1,
    1,
    1,
    1,
    1,
    1,
    1,
    3,
    1,
    1,
    1,
    1,
    1,
    1,
    1,
    1,
    1,
    1,
    1,
    1,
    1,
    1,
    1,
    1,
    3,
    1,
    1,
    1,
    1,
    1,
    1,
    1,
    1,
    1,
    1,
    3,
    1,
    1,
    3,
    1,
    1,
    1,
    1,
    1,
    1,
    1,
    1,
    1,
    1,
    3,
    1,
    1,
    1,
    1,
    1,
    1,
    1,
    1,
    1,
    1,
    1,
    1,
    1,
    1,
    1,
    1,
    1,
    1,
    1,
    1,
    1,
    1,
    1,
    1,
    1,
    1,
    1,
    1,
    1,
    1,
    1,
    1,
    3,
    1,
    1,
    1,
    1,
    1,
    1,
    1,
    1,
    1,
    1,
    1,
    1,
    1,
    1,
    1,
    1,
    1,
    1,
    1,
    1,
    3,
    1,
    1,
    1,
    1,
    1,
    1,
    1,
    1,
    1,
    1,
    1,
    1,
    1,
    1,
    1,
    1,
    3,
    1,
    1,
    1,
    1,
    1,
    1,
    1,
    1,
    1,
    1,
    3,
    1,
    1,
    3,
    1,
    1,
    1,
    1,
    1,
    1,
    1,
    1,
    1,
    1,
    3,
    1,
    1,
    1,
    1,
    1,
    1,
    1,
    1,
    1,
    1,
    1,
    1,
    1,
    1,
    1,
    1,
    1,
    1,
    1,
    1,
    1,
    1,
    1,
    1,
    1,
    1,
    1,
    1,
    1,
    1,
    1,
    1,
    3,
    1,
    1,
    1,
    1,
    1,
    1,
    1,
    1,
    1,
    1,
    1,
    1,
    1,
    1,
    1,
    1,
    1,
    1,
    1,
    1,
    3,
    1,
    1,
    1,
    1,
    1,
    1,
    1,
    1,
    1,
    1,
    1,
    1,
    1,
    1,
    1,
    1,
    3,
    1,
    1,
    1,
    1,
    1,
    1,
    1,
    1,
    1,
    1,
    3,
    1,
    1,
    3,
    1,
    1,
    1,
    1,
    1,
    1,
    1,
    1,
    1,
    1,
    3,
    1,
    1,
    1,
    1,
    1,
    1,
    1,
    1,
    1,
    1,
    1,
    1,
    1,
    1,
    1,
    1,
    1,
    1,
    1,
    1,
    1,
    1,
    1,
    1,
    1,
    1,
    1,
    1,
    1,
    1,
    1,
    1,
    3,
    1,
    1,
    1,
    1,
    1,
    1,
    1,
    1,
    1,
    1,
    1,
    1,
    1,
    1,
    1,
    1,
    1,
    1,
    1,
    1,
    3,
    1,
    1,
    1,
    1,
    1,
    1,
    1,
    1,
    1,
    1,
    1,
    1,
    1,
    1,
    1,
    1,
    3,
    1,
    1,
    1,
    1,
    1,
    1,
    1,
    1,
    1,
    1,
    3,
    1,
    1,
    3,
    1,
    1,
    1,
    1,
    1,
    1,
    1,
    1,
    1,
    1,
    3,
    1,
    1,
    1,
    1,
    1,
    1,
    1,
    1,
    1,
    1,
    1,
    1,
    1,
    1,
    1,
    1,
    1,
    1,
    1,
    1,
    1,
    1,
    1,
    1,
    1,
    1,
    1,
    1,
    1,
    1,
    1,
    1,
    3,
    1,
    1,
    1,
    1,
    1,
    1,
    1,
    1,
    1,
    1,
    1,
    1,
    1,
    1,
    1,
    1,
    1,
    1,
    1,
    1,
    3,
    1,
    1,
    1,
    1,
    1,
    1,
    1,
    1,
    1,
    1,
    1,
    1,
    1,
    1,
    1,
    1,
    3,
    1,
    1,
    1,
    1,
    1,
    1,
    1,
    1,
    1,
    1,
    3,
    1,
    1,
    3,
    1,
    1,
    1,
    1,
    1,
    1,
    1,
    1,
    1,
    1,
    3,
    1,
    1,
    1,
    1,
    1,
    1,
    1,
    1,
    1,
    1,
    1,
    1,
    1,
    1,
    1,
    1,
    1,
    1,
    1,
    1,
    1,
    1,
    1,
    1,
    1,
    1,
    1,
    1,
    1,
    1,
    1,
    1,
    3,
    1,
    1,
    1,
    1,
    1,
    1,
    1,
    1,
    1,
    1,
    1,
    1,
    1,
    1,
    1,
    1,
    1,
    1,
    1,
    1,
    3,
    1,
    1,
    1,
    1,
    1,
    1,
    1,
    1,
    1,
    1,
    1,
    1,
    1,
    1,
    1,
    1,
    3,
    1,
    1,
    1,
    1,
    1,
    1,
    1,
    1,
    1,
    1,
    3,
    1,
    1,
    3,
    1,
    1,
    1,
    1,
    1,
    1,
    1,
    1,
    1,
    1,
    3,
    1,
    1,
    1,
    1,
    1,
    1,
    1,
    1,
    1,
    1,
    1,
    1,
    1,
    1,
    1,
    1,
    1,
    1,
    1,
    1,
    1,
    1,
    1,
    1,
    1,
    1,
    1,
    1,
    1,
    1,
    1,
    1,
    3,
    1,
    1,
    1,
    1,
    1,
    1,
    1,
    1,
    1,
    1,
    1,
    1,
    1,
    1,
    1,
    1,
    1,
    1,
    1,
    1,
    3,
    1,
    1,
    1,
    1,
    1,
    1,
    1,
    1,
    1,
    1,
    1,
    1,
    1,
    1,
    1,
    1,
    3,
    1,
    1,
    1,
    1,
    1,
    1,
    1,
    1,
    1,
    1,
    3,
    1,
    1,
    3,
    1,
    1,
    1,
    1,
    1,
    1,
    1,
    1,
    1,
    1,
    3,
    1,
    1,
    1,
    1,
    1,
    1,
    1,
    1,
    1,
    1,
    1,
    1,
    1,
    1,
    1,
    1,
    1,
    1,
    1,
    1,
    1,
    1,
    1,
    1,
    1,
    1,
    1,
    1,
    1,
    1,
    1,
    1,
    3,
    1,
    1,
    1,
    1,
    1,
    1,
    1,
    1,
    1,
    1,
    1,
    1,
    1,
    1,
    1,
    1,
    1,
    1,
    1,
    1,
    3,
    1,
    1,
    1,
    1,
    1,
    1,
    1,
    1,
    1,
    1,
    1,
    1,
    1,
    1,
    1,
    1,
    3,
    1,
    1,
    1,
    1,
    1,
    1,
    1,
    1,
    1,
    1,
    3,
    1,
    1,
    3,
    1,
    1,
    1,
    1,
    1,
    1,
    1,
    1,
    1,
    1,
    3,
    1,
    1,
    1,
    1,
    1,
    1,
    1,
    1,
    1,
    1,
    1,
    1,
    1,
    1,
    1,
    1,
    1,
    1,
    1,
    1,
    1,
    1,
    1,
    1,
    1,
    1,
    1,
    1,
    1,
    1,
    1,
    1,
    3,
    3,
    3,
    3,
    3,
    3,
    3,
    3,
    3,
    3,
    4,
    4,
    3,
    3,
    3,
    3,
    3,
    3,
    3,
    3,
    3,
    3,
    1,
    1,
    1,
    1,
    1,
    1,
    1,
    1,
    1,
    1,
    1,
    1,
    1,
    1,
    1,
    1,
    3,
    3,
    3,
    3,
    3,
    4,
    4,
    3,
    3,
    3,
    3,
    3,
    1,
    1,
    3,
    3,
    3,
    3,
    3,
    4,
    4,
    3,
    3,
    3,
    3,
    3,
    1,
    1,
    1,
    1,
    1,
    1,
    1,
    1,
    1,
    1,
    1,
    1,
    1,
    1,
    1,
    1,
    1,
    1,
    1,
    1,
    1,
    1,
    1,
    1,
    1,
    1,
    1,
    1,
    1,
    1,
    1,
    1,
    1,
    1,
    1,
    1,
    1,
    1,
    1,
    1,
    1,
    1,
    2,
    2,
    1,
    1,
    1,
    1,
    1,
    1,
    1,
    1,
    1,
    1,
    1,
    1,
    1,
    1,
    1,
    1,
    1,
    1,
    1,
    1,
    1,
    1,
    1,
    1,
    1,
    1,
    1,
    1,
    1,
    1,
    1,
    2,
    2,
    1,
    1,
    1,
    1,
    1,
    1,
    1,
    1,
    1,
    1,
    1,
    1,
    2,
    2,
    1,
    1,
    1,
    1,
    1,
    1,
    1,
    1,
    1,
    1,
    1,
    1,
    1,
    1,
    1,
    1,
    1,
    1,
    1,
    1,
    1,
    1,
    1,
    1,
    1,
    1,
    1,
    1,
    1,
    1,
    1,
    1,
    1,
    1,
    1,
    1,
    1,
    1,
    1,
    1,
    1,
    1,
    1,
    1,
    1,
    1,
    1,
    2,
    2,
    1,
    1,
    1,
    1,
    1,
    1,
    1,
    1,
    1,
    1,
    1,
    1,
    1,
    1,
    1,
    1,
    1,
    1,
    1,
    1,
    1,
    1,
    1,
    1,
    1,
    1,
    1,
    1,
    1,
    1,
    1,
    2,
    2,
    1,
    1,
    1,
    1,
    1,
    1,
    1,
    1,
    1,
    1,
    1,
    1,
    2,
    2,
    1,
    1,
    1,
    1,
    1,
    1,
    1,
    1,
    1,
    1,
    1,
    1,
    1,
    1,
    1,
    1,
    1,
    1,
    1,
    1,
    1,
    1,
    1,
    1,
    1,
    1,
    1,
    1,
    1,
    1,
    1,
    1,
    1,
    1,
    1,
    2,
    2,
    2,
    2,
    2,
    2,
    2,
    2,
    2,
    2,
    2,
    2,
    2,
    2,
    2,
    2,
    2,
    2,
    2,
    2,
    2,
    2,
    2,
    2,
    2,
    2,
    2,
    2,
    2,
    2,
    2,
    2,
    2,
    2,
    2,
    2,
    2,
    2,
    2,
    2,
    2,
    2,
    2,
    2,
    2,
    2,
    2,
    2,
    2,
    2,
    2,
    2,
    2,
    2,
    2,
    2,
    2,
    2,
    2,
    2,
    2,
    2,
    2,
    2,
    2,
    2,
    2,
    2,
    1,
    1,
    1,
    1,
    1,
    1,
    1,
    1,
    1,
    1,
    1,
    1,
    1,
    1,
    1,
    1,
    1,
    1,
    1,
    1,
    1,
    1,
    1,
    1,
    1,
    1,
    1,
    1,
    2,
    2,
    2,
    2,
    2,
    2,
    2,
    2,
    2,
    2,
    2,
    2,
    2,
    2,
    2,
    2,
    2,
    2,
    2,
    2,
    2,
    2,
    2,
    2,
    2,
    2,
    2,
    2,
    2,
    2,
    2,
    2,
    2,
    2,
    2,
    2,
    2,
    2,
    2,
    2,
    2,
    2,
    2,
    2,
    2,
    2,
    2,
    2,
    2,
    2,
    2,
    2,
    2,
    2,
    2,
    2,
    2,
    2,
    2,
    2,
    2,
    2,
    2,
    2,
    2,
    2,
    2,
    2,
    1,
    1,
    1,
    1,
    1,
    1,
    1,
    1,
    1,
    1,
    1,
    1,
    1,
    1,
    1,
    1,
    1,
    1,
    1,
    1,
    1,
    1,
    1,
    1,
    1,
    1,
    1,
    1,
    1,
    1,
    1,
    1,
    1,
    1,
    1,
    1,
    1,
    1,
    1,
    1,
    1,
    1,
    1,
    1,
    1,
    1,
    1,
    1,
    1,
    1,
    1,
    1,
    1,
    1,
    1,
    1,
    1,
    1,
    1,
    1,
    1,
    1,
    1,
    2,
    2,
    1,
    1,
    1,
    1,
    1,
    1,
    1,
    1,
    1,
    1,
    1,
    1,
    1,
    1,
    1,
    1,
    1,
    1,
    1,
    1,
    1,
    1,
    1,
    1,
    1,
    1,
    1,
    1,
    1,
    1,
    1,
    1,
    1,
    1,
    1,
    1,
    1,
    1,
    1,
    1,
    1,
    1,
    1,
    1,
    1,
    1,
    1,
    1,
    1,
    1,
    1,
    1,
    1,
    1,
    1,
    1,
    1,
    1,
    1,
    1,
    1,
    1,
    1,
    1,
    1,
    1,
    1,
    1,
    1,
    1,
    1,
    1,
    1,
    1,
    1,
    1,
    1,
    1,
    1,
    1,
    1,
    1,
    1,
    1,
    1,
    1,
    1,
    1,
    1,
    1,
    1,
    1,
    1,
    1,
    2,
    2,
    1,
    1,
    1,
    1,
    1,
    1,
    1,
    1,
    1,
    1,
    1,
    1,
    1,
    1,
    1,
    1,
    1,
    1,
    1,
    1,
    1,
    1,
    1,
    1,
    1,
    1,
    1,
    1,
    1,
    1,
    1,
    1,
    1,
    1,
    1,
    1,
    1,
    1,
    1,
    1,
    1,
    1,
    1,
    1,
    1,
    1,
    1,
    1,
    1,
    1,
    1,
    1,
    1,
    1,
    1,
    1,
    1,
    1,
    1,
    1,
    1,
    1,
    1,
    1,
    1,
    1,
    1,
    1,
    1,
    1,
    1,
    1,
    1,
    1,
    1,
    1,
    1,
    1,
    1,
    1,
    1,
    1,
    1,
    1,
    1,
    1,
    1,
    1,
    1,
    1,
    1,
    1,
    1,
    1,
    2,
    2,
    1,
    1,
    1,
    1,
    1,
    1,
    1,
    1,
    1,
    1,
    1,
    1,
    1,
    1,
    1,
    1,
    1,
    1,
    1,
    1,
    1,
    1,
    1,
    1,
    1,
    1,
    1,
    1,
    1,
    1,
    1,
    1,
    1,
    1,
    1,
    1,
    1,
    1,
    1,
    1,
    1,
    1,
    1,
    1,
    1,
    1,
    1,
    1,
    1,
    1,
    1,
    1,
    1,
    1,
    1,
    1,
    1,
    1,
    1,
    1,
    1,
    1,
    1,
    1,
    1,
    1,
    1,
    1,
    1,
    1,
    1,
    1,
    1,
    2,
    2,
    2,
    2,
    2,
    2,
    2,
    2,
    2,
    2,
    2,
    2,
    2,
    2,
    2,
    2,
    2,
    2,
    2,
    2,
    2,
    2,
    2,
    2,
    2,
    2,
    2,
    2,
    2,
    2,
    2,
    2,
    2,
    2,
    2,
    2,
    2,
    2,
    2,
    2,
    2,
    2,
    2,
    2,
    1,
    1,
    1,
    1,
    1,
    1,
    1,
    1,
    1,
    1,
    1,
    1,
    1,
    1,
    1,
    1,
    1,
    1,
    1,
    1,
    1,
    1,
    1,
    1,
    1,
    1,
    1,
    1,
    1,
    1,
    1,
    1,
    1,
    1,
    1,
    1,
    1,
    1,
    1,
    1,
    1,
    1,
    1,
    1,
    1,
    1,
    1,
    1,
    1,
    1,
    1,
    1,
    2,
    2,
    2,
    2,
    2,
    2,
    2,
    2,
    2,
    2,
    2,
    2,
    2,
    2,
    2,
    2,
    2,
    2,
    2,
    2,
    2,
    2,
    2,
    2,
    2,
    2,
    2,
    2,
    2,
    2,
    2,
    2,
    2,
    2,
    2,
    2,
    2,
    2,
    2,
    2,
    2,
    2,
    2,
    2,
    1,
    1,
    1,
    1,
    1,
    1,
    1,
    1,
    1,
    1,
    1,
    1,
    1,
    1,
    1,
    1,
    1,
    1,
    1,
    1,
    1,
    1,
    1,
    1,
    1,
    1,
    1,
    1,
    1,
    1,
    1,
    1,
    1,
    1,
    1,
    1,
    1,
    1,
    1,
    1,
    1,
    1,
    1,
    1,
    1,
    1,
    1,
    1,
    1,
    1,
    1,
    1,
    2,
    2,
    1,
    1,
    1,
    1,
    1,
    1,
    1,
    1,
    1,
    1,
    1,
    1,
    1,
    1,
    1,
    1,
    1,
    1,
    1,
    2,
    2,
    5,
    5,
    5,
    5,
    5,
    1,
    1,
    1,
    1,
    1,
    1,
    1,
    1,
    1,
    1,
    1,
    1,
    1,
    1,
    2,
    2,
    1,
    1,
    1,
    1,
    1,
    1,
    1,
    1,
    1,
    1,
    1,
    1,
    1,
    1,
    1,
    1,
    1,
    1,
    1,
    1,
    1,
    1,
    1,
    1,
    1,
    1,
    1,
    1,
    1,
    1,
    1,
    3,
    3,
    3,
    3,
    3,
    3,
    3,
    3,
    3,
    3,
    3,
    3,
    3,
    3,
    3,
    3,
    1,
    1,
    1,
    1,
    1,
    2,
    2,
    1,
    1,
    1,
    1,
    1,
    3,
    3,
    3,
    3,
    3,
    3,
    3,
    3,
    3,
    3,
    3,
    3,
    1,
    1,
    2,
    2,
    5,
    5,
    5,
    5,
    5,
    3,
    3,
    3,
    3,
    3,
    3,
    3,
    3,
    3,
    3,
    3,
    3,
    1,
    1,
    2,
    2,
    1,
    1,
    3,
    3,
    3,
    3,
    3,
    3,
    3,
    3,
    3,
    3,
    3,
    1,
    3,
    3,
    3,
    3,
    3,
    3,
    3,
    3,
    3,
    3,
    1,
    1,
    1,
    1,
    1,
    1,
    1,
    3,
    1,
    1,
    1,
    1,
    1,
    1,
    1,
    1,
    1,
    1,
    1,
    1,
    1,
    1,
    3,
    1,
    1,
    1,
    1,
    1,
    2,
    2,
    1,
    1,
    1,
    1,
    1,
    3,
    1,
    1,
    1,
    1,
    1,
    1,
    1,
    1,
    1,
    1,
    3,
    1,
    1,
    2,
    2,
    5,
    5,
    5,
    5,
    5,
    3,
    1,
    1,
    1,
    1,
    1,
    1,
    1,
    1,
    1,
    1,
    3,
    1,
    1,
    2,
    2,
    1,
    1,
    3,
    1,
    1,
    1,
    1,
    1,
    1,
    1,
    1,
    1,
    3,
    1,
    3,
    1,
    1,
    1,
    1,
    1,
    1,
    1,
    1,
    3,
    1,
    1,
    1,
    1,
    1,
    1,
    1,
    3,
    1,
    1,
    1,
    1,
    1,
    1,
    1,
    1,
    1,
    1,
    1,
    1,
    1,
    1,
    3,
    1,
    1,
    1,
    1,
    1,
    2,
    2,
    1,
    1,
    1,
    1,
    1,
    3,
    1,
    1,
    1,
    1,
    1,
    1,
    1,
    1,
    1,
    1,
    3,
    1,
    1,
    2,
    2,
    5,
    5,
    5,
    5,
    5,
    3,
    1,
    1,
    1,
    1,
    1,
    1,
    1,
    1,
    1,
    1,
    3,
    1,
    1,
    2,
    2,
    1,
    1,
    3,
    1,
    1,
    1,
    1,
    1,
    1,
    1,
    1,
    1,
    3,
    1,
    3,
    1,
    1,
    1,
    1,
    1,
    1,
    1,
    1,
    3,
    1,
    1,
    1,
    1,
    1,
    1,
    1,
    3,
    1,
    1,
    1,
    1,
    1,
    1,
    1,
    1,
    1,
    1,
    1,
    1,
    1,
    1,
    3,
    1,
    1,
    1,
    1,
    1,
    2,
    2,
    1,
    1,
    1,
    1,
    1,
    3,
    1,
    1,
    1,
    1,
    1,
    1,
    1,
    1,
    1,
    1,
    3,
    1,
    1,
    2,
    2,
    5,
    5,
    5,
    5,
    5,
    3,
    1,
    1,
    1,
    1,
    1,
    1,
    1,
    1,
    1,
    1,
    3,
    1,
    1,
    2,
    2,
    1,
    1,
    3,
    1,
    1,
    1,
    1,
    1,
    1,
    1,
    1,
    1,
    3,
    1,
    3,
    1,
    1,
    1,
    1,
    1,
    1,
    1,
    1,
    3,
    1,
    1,
    1,
    1,
    1,
    1,
    1,
    3,
    1,
    1,
    1,
    1,
    1,
    1,
    1,
    1,
    1,
    1,
    1,
    1,
    1,
    1,
    3,
    1,
    1,
    1,
    1,
    1,
    2,
    2,
    1,
    1,
    1,
    1,
    1,
    3,
    1,
    1,
    1,
    1,
    1,
    1,
    1,
    1,
    1,
    1,
    3,
    1,
    1,
    2,
    2,
    1,
    1,
    4,
    4,
    1,
    3,
    1,
    1,
    1,
    1,
    1,
    1,
    1,
    1,
    1,
    1,
    3,
    1,
    1,
    2,
    2,
    1,
    1,
    3,
    1,
    1,
    1,
    1,
    1,
    1,
    1,
    1,
    1,
    3,
    1,
    3,
    1,
    1,
    1,
    1,
    1,
    1,
    1,
    1,
    3,
    1,
    1,
    1,
    1,
    1,
    1,
    1,
    3,
    1,
    1,
    1,
    1,
    1,
    1,
    1,
    1,
    1,
    1,
    1,
    1,
    1,
    1,
    3,
    1,
    1,
    1,
    1,
    1,
    2,
    2,
    1,
    1,
    1,
    1,
    1,
    3,
    1,
    1,
    1,
    1,
    1,
    1,
    1,
    1,
    1,
    1,
    3,
    1,
    1,
    2,
    2,
    1,
    1,
    2,
    2,
    1,
    3,
    1,
    1,
    1,
    1,
    1,
    1,
    1,
    1,
    1,
    1,
    3,
    1,
    1,
    2,
    2,
    1,
    1,
    3,
    1,
    1,
    1,
    1,
    1,
    1,
    1,
    1,
    1,
    3,
    1,
    3,
    1,
    1,
    1,
    1,
    1,
    1,
    1,
    1,
    3,
    1,
    1,
    1,
    1,
    1,
    1,
    1,
    3,
    1,
    1,
    1,
    1,
    1,
    1,
    1,
    1,
    1,
    1,
    1,
    1,
    1,
    1,
    3,
    1,
    1,
    1,
    1,
    1,
    2,
    2,
    1,
    1,
    1,
    1,
    1,
    3,
    1,
    1,
    1,
    1,
    1,
    1,
    1,
    1,
    1,
    1,
    3,
    1,
    1,
    2,
    2,
    1,
    1,
    2,
    2,
    1,
    3,
    1,
    1,
    1,
    1,
    1,
    1,
    1,
    1,
    1,
    1,
    3,
    1,
    1,
    2,
    2,
    1,
    1,
    3,
    1,
    1,
    1,
    1,
    1,
    1,
    1,
    1,
    1,
    3,
    1,
    3,
    1,
    1,
    1,
    1,
    1,
    1,
    1,
    1,
    3,
    1,
    1,
    1,
    1,
    1,
    1,
    1,
    3,
    1,
    1,
    1,
    1,
    1,
    1,
    1,
    1,
    1,
    1,
    1,
    1,
    1,
    1,
    3,
    1,
    1,
    1,
    1,
    1,
    2,
    2,
    1,
    1,
    1,
    1,
    1,
    3,
    3,
    3,
    3,
    3,
    4,
    4,
    3,
    3,
    3,
    3,
    3,
    1,
    1,
    2,
    2,
    1,
    1,
    2,
    2,
    1,
    3,
    3,
    3,
    3,
    3,
    4,
    4,
    3,
    3,
    3,
    3,
    3,
    1,
    1,
    2,
    2,
    1,
    1,
    3,
    1,
    1,
    1,
    1,
    1,
    1,
    1,
    1,
    1,
    3,
    1,
    3,
    1,
    1,
    1,
    1,
    1,
    1,
    1,
    1,
    3,
    1,
    1,
    1,
    1,
    1,
    1,
    1,
    3,
    1,
    1,
    1,
    1,
    1,
    1,
    1,
    1,
    1,
    1,
    1,
    1,
    1,
    1,
    3,
    1,
    1,
    1,
    1,
    1,
    2,
    2,
    1,
    1,
    1,
    1,
    1,
    1,
    1,
    1,
    1,
    1,
    2,
    2,
    1,
    1,
    1,
    1,
    2,
    2,
    2,
    2,
    2,
    2,
    2,
    2,
    2,
    1,
    1,
    1,
    1,
    1,
    1,
    2,
    2,
    1,
    1,
    1,
    1,
    1,
    1,
    1,
    2,
    2,
    1,
    1,
    3,
    1,
    1,
    1,
    1,
    1,
    1,
    1,
    1,
    1,
    3,
    1,
    3,
    1,
    1,
    1,
    1,
    1,
    1,
    1,
    1,
    3,
    1,
    1,
    1,
    1,
    1,
    1,
    1,
    3,
    3,
    3,
    3,
    3,
    3,
    3,
    4,
    4,
    3,
    3,
    3,
    3,
    3,
    3,
    3,
    1,
    1,
    1,
    1,
    1,
    2,
    2,
    1,
    1,
    1,
    1,
    1,
    1,
    1,
    1,
    1,
    1,
    2,
    2,
    1,
    1,
    1,
    1,
    2,
    2,
    2,
    2,
    2,
    2,
    2,
    2,
    1,
    1,
    1,
    1,
    1,
    1,
    1,
    2,
    2,
    1,
    1,
    1,
    1,
    1,
    1,
    1,
    2,
    2,
    1,
    1,
    3,
    3,
    3,
    3,
    3,
    4,
    4,
    3,
    3,
    3,
    3,
    1,
    3,
    3,
    3,
    3,
    4,
    4,
    3,
    3,
    3,
    3,
    1,
    1,
    1,
    1,
    1,
    1,
    1,
    1,
    1,
    1,
    1,
    1,
    1,
    1,
    2,
    2,
    1,
    1,
    1,
    1,
    1,
    1,
    1,
    1,
    1,
    1,
    1,
    1,
    2,
    2,
    1,
    1,
    1,
    1,
    1,
    1,
    1,
    1,
    1,
    1,
    2,
    2,
    1,
    1,
    1,
    1,
    2,
    2,
    1,
    1,
    1,
    1,
    2,
    2,
    1,
    1,
    1,
    1,
    1,
    1,
    1,
    2,
    2,
    1,
    1,
    1,
    1,
    1,
    1,
    1,
    2,
    2,
    1,
    1,
    1,
    1,
    1,
    1,
    1,
    2,
    2,
    1,
    1,
    1,
    1,
    1,
    1,
    1,
    1,
    1,
    2,
    2,
    1,
    1,
    1,
    1,
    1,
    1,
    1,
    1,
    1,
    1,
    1,
    2,
    2,
    2,
    2,
    2,
    2,
    2,
    2,
    2,
    2,
    2,
    2,
    2,
    2,
    2,
    2,
    2,
    2,
    2,
    2,
    2,
    2,
    2,
    2,
    2,
    2,
    2,
    2,
    2,
    2,
    2,
    2,
    2,
    2,
    2,
    2,
    2,
    2,
    2,
    2,
    2,
    1,
    1,
    1,
    1,
    2,
    2,
    2,
    2,
    2,
    2,
    2,
    2,
    2,
    2,
    2,
    2,
    2,
    2,
    2,
    2,
    2,
    2,
    2,
    2,
    2,
    2,
    2,
    2,
    2,
    2,
    2,
    2,
    2,
    2,
    2,
    2,
    2,
    2,
    2,
    2,
    2,
    2,
    2,
    2,
    2,
    2,
    2,
    2,
    1,
    1,
    1,
    1,
    1,
    1,
    1,
    2,
    2,
    2,
    2,
    2,
    2,
    2,
    2,
    2,
    2,
    2,
    2,
    2,
    2,
    2,
    2,
    2,
    2,
    2,
    2,
    2,
    2,
    2,
    2,
    2,
    2,
    2,
    2,
    2,
    2,
    2,
    2,
    2,
    2,
    2,
    2,
    2,
    2,
    2,
    2,
    2,
    1,
    1,
    1,
    1,
    2,
    2,
    2,
    2,
    2,
    2,
    2,
    2,
    2,
    2,
    2,
    2,
    2,
    2,
    2,
    2,
    2,
    2,
    2,
    2,
    2,
    2,
    2,
    2,
    2,
    2,
    2,
    2,
    2,
    2,
    2,
    2,
    2,
    2,
    2,
    2,
    2,
    2,
    2,
    2,
    2,
    2,
    2,
    2,
    1,
    1,
    1,
    1,
    1,
    1,
    1,
    1,
    1,
    1,
    1,
    1,
    1,
    1,
    1,
    1,
    1,
    1,
    1,
    1,
    1,
    1,
    1,
    1,
    1,
    1,
    1,
    1,
    2,
    2,
    1,
    1,
    1,
    1,
    1,
    1,
    1,
    1,
    2,
    2,
    1,
    1,
    1,
    1,
    1,
    1,
    2,
    2,
    1,
    1,
    1,
    1,
    2,
    2,
    1,
    1,
    1,
    1,
    1,
    2,
    2,
    1,
    1,
    1,
    1,
    1,
    1,
    1,
    1,
    1,
    2,
    2,
    1,
    1,
    1,
    1,
    1,
    1,
    1,
    1,
    1,
    1,
    1,
    2,
    2,
    1,
    1,
    1,
    1,
    1,
    1,
    1,
    1,
    1,
    1,
    1,
    1,
    1,
    1,
    1,
    1,
    1,
    1,
    1,
    1,
    1,
    1,
    1,
    1,
    1,
    1,
    1,
    1,
    1,
    1,
    1,
    1,
    1,
    1,
    1,
    1,
    1,
    1,
    1,
    2,
    2,
    1,
    1,
    3,
    3,
    3,
    3,
    3,
    3,
    4,
    4,
    3,
    3,
    3,
    3,
    3,
    3,
    3,
    2,
    2,
    2,
    2,
    2,
    2,
    2,
    1,
    1,
    1,
    1,
    1,
    2,
    2,
    1,
    1,
    1,
    1,
    1,
    1,
    1,
    1,
    1,
    2,
    2,
    1,
    1,
    1,
    1,
    3,
    3,
    3,
    3,
    3,
    3,
    3,
    4,
    4,
    3,
    3,
    3,
    3,
    3,
    3,
    3,
    1,
    1,
    1,
    1,
    1,
    1,
    1,
    1,
    1,
    1,
    1,
    1,
    1,
    1,
    1,
    1,
    1,
    1,
    1,
    1,
    1,
    1,
    1,
    1,
    1,
    1,
    1,
    1,
    1,
    1,
    1,
    1,
    2,
    2,
    1,
    1,
    3,
    1,
    1,
    1,
    1,
    1,
    1,
    1,
    1,
    1,
    1,
    1,
    1,
    1,
    3,
    2,
    2,
    2,
    2,
    2,
    2,
    2,
    1,
    1,
    1,
    1,
    1,
    2,
    2,
    1,
    1,
    1,
    1,
    1,
    1,
    1,
    1,
    1,
    2,
    2,
    1,
    1,
    1,
    1,
    3,
    1,
    1,
    1,
    1,
    1,
    1,
    1,
    1,
    1,
    1,
    1,
    1,
    1,
    1,
    3,
    1,
    1,
    1,
    1,
    1,
    1,
    1,
    1,
    1,
    1,
    1,
    1,
    1,
    1,
    1,
    1,
    1,
    1,
    1,
    1,
    1,
    1,
    1,
    1,
    1,
    1,
    1,
    1,
    1,
    1,
    1,
    1,
    2,
    2,
    1,
    1,
    3,
    1,
    1,
    1,
    1,
    1,
    1,
    1,
    1,
    1,
    1,
    1,
    1,
    1,
    3,
    1,
    1,
    2,
    2,
    1,
    1,
    3,
    3,
    3,
    3,
    3,
    3,
    4,
    4,
    3,
    3,
    3,
    3,
    3,
    3,
    3,
    1,
    1,
    2,
    2,
    1,
    1,
    1,
    1,
    3,
    1,
    1,
    1,
    1,
    1,
    1,
    1,
    1,
    1,
    1,
    1,
    1,
    1,
    1,
    3,
    1,
    1,
    1,
    1,
    1,
    1,
    1,
    1,
    1,
    1,
    1,
    1,
    1,
    1,
    1,
    1,
    1,
    1,
    1,
    1,
    1,
    1,
    1,
    1,
    1,
    1,
    1,
    1,
    1,
    1,
    1,
    1,
    2,
    2,
    1,
    1,
    3,
    1,
    1,
    1,
    1,
    1,
    1,
    1,
    1,
    1,
    1,
    1,
    1,
    1,
    3,
    1,
    1,
    2,
    2,
    1,
    1,
    3,
    1,
    1,
    1,
    1,
    1,
    1,
    1,
    1,
    1,
    1,
    1,
    1,
    1,
    3,
    1,
    1,
    2,
    2,
    1,
    1,
    1,
    1,
    3,
    1,
    1,
    1,
    1,
    1,
    1,
    1,
    1,
    1,
    1,
    1,
    1,
    1,
    1,
    3,
    1,
    1,
    1,
    1,
    1,
    1,
    1,
    1,
    1,
    1,
    1,
    1,
    1,
    1,
    1,
    1,
    1,
    1,
    1,
    1,
    1,
    1,
    1,
    1,
    1,
    1,
    1,
    1,
    1,
    1,
    1,
    1,
    2,
    2,
    1,
    1,
    3,
    1,
    1,
    1,
    1,
    1,
    1,
    1,
    1,
    1,
    1,
    1,
    1,
    1,
    3,
    1,
    1,
    2,
    2,
    1,
    1,
    3,
    1,
    1,
    1,
    1,
    1,
    1,
    1,
    1,
    1,
    1,
    1,
    1,
    1,
    3,
    1,
    1,
    2,
    2,
    1,
    1,
    1,
    1,
    3,
    1,
    1,
    1,
    1,
    1,
    1,
    1,
    1,
    1,
    1,
    1,
    1,
    1,
    1,
    3,
    1,
    1,
    1,
    1,
    1,
    1,
    1,
    1,
    1,
    1,
    1,
    1,
    1,
    1,
    1,
    1,
    1,
    1,
    1,
    1,
    1,
    1,
    1,
    1,
    1,
    1,
    1,
    1,
    1,
    1,
    1,
    1,
    2,
    2,
    1,
    1,
    3,
    1,
    1,
    1,
    1,
    1,
    1,
    1,
    1,
    1,
    1,
    1,
    1,
    1,
    3,
    1,
    1,
    2,
    2,
    1,
    1,
    3,
    1,
    1,
    1,
    1,
    1,
    1,
    1,
    1,
    1,
    1,
    1,
    1,
    1,
    3,
    1,
    1,
    2,
    2,
    1,
    1,
    1,
    1,
    3,
    1,
    1,
    1,
    1,
    1,
    1,
    1,
    1,
    1,
    1,
    1,
    1,
    1,
    1,
    3,
    1,
    1,
    1,
    1,
    1,
    1,
    1,
    1,
    1,
    1,
    1,
    1,
    1,
    1,
    1,
    1,
    1,
    1,
    1,
    1,
    1,
    1,
    1,
    1,
    1,
    1,
    1,
    1,
    1,
    1,
    1,
    1,
    2,
    2,
    1,
    1,
    3,
    1,
    1,
    1,
    1,
    1,
    1,
    1,
    1,
    1,
    1,
    1,
    1,
    1,
    3,
    1,
    1,
    2,
    2,
    1,
    1,
    3,
    1,
    1,
    1,
    1,
    1,
    1,
    1,
    1,
    1,
    1,
    1,
    1,
    1,
    3,
    1,
    1,
    2,
    2,
    1,
    1,
    1,
    1,
    3,
    1,
    1,
    1,
    1,
    1,
    1,
    1,
    1,
    1,
    1,
    1,
    1,
    1,
    1,
    3,
    1,
    1,
    1,
    1,
    1,
    1,
    1,
    1,
    1,
    1,
    1,
    1,
    1,
    1,
    1,
    1,
    1,
    1,
    1,
    1,
    1,
    1,
    1,
    1,
    1,
    1,
    1,
    1,
    1,
    1,
    1,
    1,
    2,
    2,
    1,
    1,
    3,
    1,
    1,
    1,
    1,
    1,
    1,
    1,
    1,
    1,
    1,
    1,
    1,
    1,
    3,
    1,
    1,
    2,
    2,
    1,
    1,
    3,
    1,
    1,
    1,
    1,
    1,
    1,
    1,
    1,
    1,
    1,
    1,
    1,
    1,
    3,
    1,
    1,
    2,
    2,
    1,
    1,
    1,
    1,
    3,
    1,
    1,
    1,
    1,
    1,
    1,
    1,
    1,
    1,
    1,
    1,
    1,
    1,
    1,
    3,
    1,
    1,
    1,
    1,
    1,
    1,
    1,
    1,
    1,
    1,
    1,
    1,
    1,
    1,
    1,
    1,
    1,
    1,
    1,
    1,
    1,
    1,
    1,
    1,
    1,
    1,
    1,
    1,
    1,
    1,
    1,
    1,
    2,
    2,
    1,
    1,
    3,
    1,
    1,
    1,
    1,
    1,
    1,
    1,
    1,
    1,
    1,
    1,
    1,
    1,
    3,
    1,
    1,
    2,
    2,
    1,
    1,
    3,
    1,
    1,
    1,
    1,
    1,
    1,
    1,
    1,
    1,
    1,
    1,
    1,
    1,
    3,
    1,
    1,
    2,
    2,
    1,
    1,
    1,
    1,
    3,
    1,
    1,
    1,
    1,
    1,
    1,
    1,
    1,
    1,
    1,
    1,
    1,
    1,
    1,
    3,
    1,
    1,
    1,
    1,
    1,
    1,
    1,
    1,
    1,
    1,
    1,
    1,
    1,
    1,
    1,
    1,
    1,
    1,
    1,
    1,
    1,
    1,
    1,
    1,
    1,
    1,
    1,
    1,
    1,
    1,
    1,
    1,
    2,
    2,
    1,
    1,
    3,
    3,
    3,
    3,
    3,
    3,
    3,
    3,
    3,
    3,
    3,
    3,
    3,
    3,
    3,
    1,
    1,
    2,
    2,
    1,
    1,
    3,
    3,
    3,
    3,
    3,
    3,
    3,
    3,
    3,
    3,
    3,
    3,
    3,
    3,
    3,
    1,
    1,
    2,
    2,
    1,
    1,
    1,
    1,
    3,
    3,
    3,
    3,
    3,
    3,
    3,
    3,
    3,
    3,
    3,
    3,
    3,
    3,
    3,
    3,
    1,
    1,
    1,
    1,
    1,
    1,
    1,
    1,
    1,
    1,
    1,
    1,
    1,
    1,
    1,
    1,
    1,
    1,
    1,
    1,
    1,
    1,
    1,
    1,
    1,
    1,
    1,
    1,
    1,
    1,
    1,
    1,
    2,
    2,
    1,
    1,
    1,
    1,
    1,
    1,
    1,
    1,
    1,
    1,
    1,
    1,
    1,
    1,
    1,
    1,
    1,
    1,
    1,
    2,
    2,
    1,
    1,
    1,
    1,
    1,
    1,
    1,
    1,
    1,
    1,
    1,
    1,
    1,
    1,
    1,
    1,
    1,
    1,
    1,
    2,
    2,
    1,
    1,
    1,
    1,
    1,
    1,
    1,
    1,
    1,
    1,
    1,
    1,
    1,
    1,
    1,
    1,
    1,
    1,
    1,
    1,
    1,
    1,
    1,
    1,
    1,
    1,
    1,
    1,
    1,
    1,
    1,
    1,
    1,
    1,
    1,
    1,
    1,
    1,
    1,
    1,
    1,
    1,
    1,
    1,
    1,
    1,
    1,
    1,
    1,
    1,
    1,
    1,
    2,
    2,
    2,
    2,
    2,
    2,
    2,
    2,
    2,
    2,
    2,
    2,
    2,
    2,
    2,
    2,
    2,
    2,
    2,
    2,
    2,
    2,
    2,
    2,
    2,
    2,
    2,
    2,
    2,
    2,
    2,
    2,
    2,
    2,
    2,
    2,
    2,
    2,
    2,
    2,
    2,
    2,
    2,
    2,
    1,
    1,
    1,
    1,
    1,
    1,
    1,
    1,
    1,
    1,
    1,
    1,
    1,
    1,
    1,
    1,
    1,
    1,
    1,
    1,
    1,
    1,
    1,
    1,
    1,
    1,
    1,
    1,
    1,
    1,
    1,
    1,
    1,
    1,
    1,
    1,
    1,
    1,
    1,
    1,
    1,
    1,
    1,
    1,
    1,
    1,
    1,
    1,
    1,
    1,
    1,
    1,
    2,
    2,
    2,
    2,
    2,
    2,
    2,
    2,
    2,
    2,
    2,
    2,
    2,
    2,
    2,
    2,
    2,
    2,
    2,
    2,
    2,
    2,
    2,
    2,
    2,
    2,
    2,
    2,
    2,
    2,
    2,
    2,
    2,
    2,
    2,
    2,
    2,
    2,
    2,
    2,
    2,
    2,
    2,
    2,
    1,
    1,
    1,
    1,
    1,
    1,
    1,
    1,
    1,
    1,
    1,
    1,
    1,
    1,
    1,
    1,
    1,
    1,
    1,
    1,
    1,
    1,
    1,
    1,
    1,
    1,
    1,
    1,
    1,
    1,
    1,
    1,
    1,
    1,
    1,
    1,
    1,
    1,
    1,
    1,
    1,
    1,
    1,
    1,
    1,
    1,
    1,
    1,
    1,
    1,
    1,
    1,
    1,
    1,
    1,
    1,
    1,
    1,
    1,
    1,
    1,
    1,
    1,
    1,
    1,
    1,
    1,
    1,
    1,
    1,
    1,
    1,
    1,
    2,
    2,
    1,
    1,
    1,
    1,
    1,
    1,
    1,
    1,
    1,
    1,
    1,
    1,
    1,
    1,
    1,
    1,
    1,
    1,
    1,
    1,
    1,
    1,
    1,
    1,
    1,
    1,
    1,
    1,
    1,
    1,
    1,
    1,
    1,
    1,
    1,
    1,
    1,
    1,
    1,
    1,
    1,
    1,
    1,
    1,
    1,
    1,
    1,
    1,
    1,
    1,
    1,
    1,
    1,
    1,
    1,
    1,
    1,
    1,
    1,
    1,
    1,
    1,
    1,
    1,
    1,
    1,
    1,
    1,
    1,
    1,
    1,
    1,
    1,
    1,
    1,
    1,
    1,
    1,
    1,
    1,
    1,
    1,
    1,
    1,
    1,
    1,
    1,
    1,
    1,
    1,
    1,
    1,
    1,
    1,
    2,
    2,
    1,
    1,
    1,
    1,
    1,
    1,
    1,
    1,
    1,
    1,
    1,
    1,
    1,
    1,
    1,
    1,
    1,
    1,
    1,
    1,
    1,
    1,
    1,
    1,
    1,
    1,
    1,
    1,
    1,
    1,
    1,
    1,
    1,
    1,
    1,
    1,
    1,
    1,
    1,
    1,
    1,
    1,
    1,
    1,
    1,
    1,
    1,
    1,
    1,
    1,
    1,
    1,
    1,
    1,
    1,
    1,
    1,
    1,
    1,
    1,
    1,
    1,
    1,
    1,
    1,
    1,
    1,
    1,
    1,
    1,
    1,
    1,
    1,
    1,
    1,
    1,
    1,
    1,
    1,
    1,
    1,
    1,
    1,
    1,
    1,
    1,
    1,
    1,
    1,
    1,
    1,
    1,
    1,
    1,
    2,
    2,
    1,
    1,
    1,
    1,
    1,
    1,
    1,
    1,
    1,
    1,
    1,
    1,
    1,
    1,
    1,
    1,
    1,
    1,
    1,
    1,
    1,
    1,
    1,
    1,
    1,
    1,
    1,
    1,
    1,
    1,
    1,
    1,
    1,
    1,
    1,
    1,
    1,
    1,
    1,
    1,
    1,
    1,
    1,
    1,
    1,
    1,
    1,
    1,
    1,
    1,
    1,
    1,
    1,
    1,
    1,
    1,
    1,
    1,
    1,
    1,
    1,
    1,
    1,
    1,
    1,
    1,
    1,
    1,
    1,
    1,
    1,
    1,
    1,
    1,
    1,
    1,
    1,
    1,
    1,
    1,
    1,
    1,
    1,
    1,
    1,
    1,
    1,
    1,
    1,
    1,
    1,
    1,
    1,
    1,
    2,
    2,
    1,
    1,
    1,
    1,
    1,
    1,
    1,
    1,
    1,
    1,
    1,
    1,
    1,
    1,
    1,
    1,
    1,
    1,
    1,
    1,
    1,
    1,
    1,
    1,
    1,
    1,
    1,
    1,
    1,
    1,
    1,
    1,
    1,
    1,
    1,
    1,
    1,
    1,
    1,
    1,
    1,
    1,
    1,
    1,
    1,
    1,
    1,
    1,
    1,
    1,
    1,
    1,
    1,
    1,
    1,
    1,
    1,
    1,
    1,
    1,
    1,
    1,
    1,
    1,
    1,
    1,
    1,
    1,
    1,
    1,
    1,
    1,
    1,
    1,
    1,
    1,
    1,
    1,
    1,
    1,
    1,
    1,
    1,
    1,
    1,
    1,
    1,
    1,
    1,
    1,
    1,
    1,
    1,
    1,
    2,
    2,
    1,
    1,
    1,
    1,
    1,
    1,
    1,
    1,
    1,
    1,
    1,
    1,
    1,
    1,
    1,
    1,
    1,
    1,
    1,
    1,
    1,
    1,
    1,
    1,
    1,
    1,
    1,
    1,
    1,
    1,
    1,
    1,
    1,
    1,
    1,
    1,
    1,
    1,
    1,
    1,
    1,
    1,
    1,
    1,
    1,
    1,
    1,
    1,
    1,
    1,
    1,
    1,
    1,
    1,
    1,
    1,
    1,
    1,
    1,
    1,
    1,
    1,
    1,
    1,
    1,
    1,
    1,
    1,
    1,
    1,
    1,
    1,
    1,
    1,
    1,
    1,
    1,
    1,
    1,
    1,
    1,
    1,
    1,
    1,
    1,
    1,
    1,
    1,
    1,
    1,
    1,
    1,
    1,
    1,
    2,
    2,
    1,
    1,
    1,
    1,
    1,
    1,
    1,
    1,
    1,
    1,
    1,
    1,
    1,
    1,
    1,
    1,
    1,
    1,
    1,
    1,
    1,
    1,
    1,
    1,
    1,
    1,
    1,
    1,
    1,
    1,
    1,
    1,
    1,
    1,
    1,
    1,
    1,
    1,
    1,
    1,
    1,
    1,
    1,
    1,
    1,
    1,
    1,
    1,
    1,
    1,
    1,
    1,
    1,
    1,
    1,
    1,
    1,
    1,
    1,
    1,
    1,
    1,
    1,
    1,
    1,
    1,
    1,
    1,
    1,
    1,
    1,
    1,
    1,
    1,
    1,
    1,
    1,
    1,
    1,
    1,
    1,
    1,
    1,
    1,
    1,
    1,
    1,
    1,
    1,
    1,
    1,
    1,
    1,
    1,
    2,
    2,
    1,
    1,
    1,
    1,
    1,
    1,
    1,
    1,
    1,
    1,
    1,
    1,
    1,
    1,
    1,
    1,
    1,
    1,
    1,
    1,
    1,
    1,
    1,
    1,
    1,
    1,
    1,
    1,
    1,
    1,
    1,
    1,
    1,
    1,
    1,
    1,
    1,
    1,
    1,
    1,
    1,
    1,
    1,
    1,
    1,
    1,
    1,
    1,
    1,
    1,
    1,
    1,
    1,
    1,
    1,
    1,
    1,
    1,
    1,
    1,
    1,
    1,
    1,
    1,
    1,
    1,
    1,
    1,
    1,
    1,
    1,
    1,
    1,
    1,
    1,
    1,
    1,
    1,
    1,
    1,
    1,
    1,
    1,
    1,
    1,
    1,
    1,
    1,
    1,
    1,
    1,
    1,
    1,
    1,
    2,
    2,
    1,
    1,
    1,
    1,
    1,
    1,
    1,
    1,
    1,
    1,
    1,
    1,
    1,
    1,
    1,
    1,
    1,
    1,
    1,
    1,
    1,
    1,
    1,
    1,
    1,
    1,
    1,
    1,
    1,
    1,
    1,
    1,
    1,
    1,
    1,
    1,
    1,
    1,
    1,
    1,
    1,
    1,
    1,
    1,
    1,
    1,
    1
   ]
  },
  {
   "id": 2,
   "name": "objetos",
   "type": "objectgroup",
   "draworder": "topdown",
   "x": 0,
   "y": 0,
   "opacity": 1,
   "visible": true,
   "objects": [
    {
     "id": 1,
     "name": "recinto-leon",
     "type": "recinto",
     "x": 528,
     "y": 400,
     "width": 192,
     "height": 128,
     "rotation": 0,
     "visible": true,
     "properties": [
      {
       "name": "penId",
       "type": "string",
       "value": "leon"
      },
      {
       "name": "biome",
       "type": "string",
       "value": "savannah"
      }
     ]
    },
    {
     "id": 2,
     "name": "puerta-leon",
     "type": "puerta",
     "x": 608,
     "y": 512,
     "width": 32,
     "height": 16,
     "rotation": 0,
     "visible": true,
     "properties": [
      {
       "name": "penId",
       "type": "string",
       "value": "leon"
      }
     ]
    },
    {
     "id": 3,
     "name": "recinto-cabra",
     "type": "recinto",
     "x": 864,
     "y": 400,
     "width": 192,
     "height": 128,
     "rotation": 0,
     "visible": true,
     "properties": [
      {
       "name": "penId",
       "type": "string",
       "value": "cabra"
      },
      {
       "name": "biome",
       "type": "string",
       "value": "alpine"
      }
     ]
    },
    {
     "id": 4,
     "name": "puerta-cabra",
     "type": "puerta",
     "x": 944,
     "y": 512,
     "width": 32,
     "height": 16,
     "rotation": 0,
     "visible": true,
     "properties": [
      {
       "name": "penId",
       "type": "string",
       "value": "cabra"
      }
     ]
    },
    {
     "id": 5,
     "name": "recinto-pantera",
     "type": "recinto",
     "x": 480,
     "y": 624,
     "width": 240,
     "height": 160,
     "rotation": 0,
     "visible": true,
     "properties": [
      {
       "name": "penId",
       "type": "string",
       "value": "pantera"
      },
      {
       "name": "biome",
       "type": "string",
       "value": "rainforest"
      }
     ]
    },
    {
     "id": 6,
     "name": "puerta-pantera",
     "type": "puerta",
     "x": 576,
     "y": 624,
     "width": 32,
     "height": 16,
     "rotation": 0,
     "visible": true,
     "properties": [
      {
       "name": "penId",
       "type": "string",
       "value": "pantera"
      }
     ]
    },
    {
     "id": 7,
     "name": "recinto-panda",
     "type": "recinto",
     "x": 816,
     "y": 656,
     "width": 240,
     "height": 128,
     "rotation": 0,
     "visible": true,
     "properties": [
      {
       "name": "penId",
       "type": "string",
       "value": "panda"
      },
      {
       "name": "biome",
       "type": "string",
       "value": "bamboo"
      }
     ]
    },
    {
     "id": 8,
     "name": "puerta-panda",
     "type": "puerta",
     "x": 912,
     "y": 656,
     "width": 32,
     "height": 16,
     "rotation": 0,
     "visible": true,
     "properties": [
      {
       "name": "penId",
       "type": "string",
       "value": "panda"
      }
     ]
    },
    {
     "id": 9,
     "name": "recinto-sabana",
     "type": "recinto",
     "x": 224,
     "y": 48,
     "width": 352,
     "height": 192,
     "rotation": 0,
     "visible": true,
     "properties": [
      {
       "name": "penId",
       "type": "string",
       "value": "sabana"
      },
      {
       "name": "biome",
       "type": "string",
       "value": "savannah"
      }
     ]
    },
    {
     "id": 10,
     "name": "puerta-sabana",
     "type": "puerta",
     "x": 384,
     "y": 224,
     "width": 32,
     "height": 16,
     "rotation": 0,
     "visible": true,
     "properties": [
      {
       "name": "penId",
       "type": "string",
       "value": "sabana"
      }
     ]
    },
    {
     "id": 11,
     "name": "recinto-elefantes-africanos",
     "type": "recinto",
     "x": 832,
     "y": 80,
     "width": 192,
     "height": 160,
     "rotation": 0,
     "visible": true,
     "properties": [
      {
       "name": "penId",
       "type": "string",
       "value": "elefantes-africanos"
      },
      {
       "name": "biome",
       "type": "string",
       "value": "savannah"
      }
     ]
    },
    {
     "id": 12,
     "name": "puerta-elefantes-africanos",
     "type": "puerta",
     "x": 912,
     "y": 224,
     "width": 32,
     "height": 16,
     "rotation": 0,
     "visible": true,
     "properties": [
      {
       "name": "penId",
       "type": "string",
       "value": "elefantes-africanos"
      }
     ]
    },
    {
     "id": 13,
     "name": "recinto-elefantes-asiaticos",
     "type": "recinto",
     "x": 1056,
     "y": 80,
     "width": 192,
     "height": 160,
     "rotation": 0,
     "visible": true,
     "properties": [
      {
       "name": "penId",
       "type": "string",
       "value": "elefantes-asiaticos"
      },
      {
       "name": "biome",
       "type": "string",
       "value": "savannah"
      }
     ]
    },
    {
     "id": 14,
     "name": "puerta-elefantes-asiaticos",
     "type": "puerta",
     "x": 1136,
     "y": 224,
     "width": 32,
     "height": 16,
     "rotation": 0,
     "visible": true,
     "properties": [
      {
       "name": "penId",
       "type": "string",
       "value": "elefantes-asiaticos"
      }
     ]
    },
    {
     "id": 15,
     "name": "recinto-pinguinos",
     "type": "recinto",
     "x": 80,
     "y": 400,
     "width": 256,
     "height": 160,
     "rotation": 0,
     "visible": true,
     "properties": [
      {
       "name": "penId",
       "type": "string",
       "value": "pinguinos"
      },
      {
       "name": "biome",
       "type": "string",
       "value": "tundra"
      }
     ]
    },
    {
     "id": 16,
     "name": "puerta-pinguinos",
     "type": "puerta",
     "x": 192,
     "y": 544,
     "width": 32,
     "height": 16,
     "rotation": 0,
     "visible": true,
     "properties": [
      {
       "name": "penId",
       "type": "string",
       "value": "pinguinos"
      }
     ]
    },
    {
     "id": 17,
     "name": "recinto-ovejas",
     "type": "recinto",
     "x": 1152,
     "y": 400,
     "width": 176,
     "height": 160,
     "rotation": 0,
     "visible": true,
     "properties": [
      {
       "name": "penId",
       "type": "string",
       "value": "ovejas"
      },
      {
       "name": "biome",
       "type": "string",
       "value": "grassland"
      }
     ]
    },
    {
     "id": 18,
     "name": "puerta-ovejas",
     "type": "puerta",
     "x": 1232,
     "y": 544,
     "width": 32,
     "height": 16,
     "rotation": 0,
     "visible": true,
     "properties": [
      {
       "name": "penId",
       "type": "string",
       "value": "ovejas"
      }
     ]
    },
    {
     "id": 19,
     "name": "recinto-estanque",
     "type": "recinto",
     "x": 1344,
     "y": 400,
     "width": 160,
     "height": 160,
     "rotation": 0,
     "visible": true,
     "properties": [
      {
       "name": "penId",
       "type": "string",
       "value": "estanque"
      },
      {
       "name": "biome",
       "type": "string",
       "value": "grassland"
      }
     ]
    },
    {
     "id": 20,
     "name": "puerta-estanque",
     "type": "puerta",
     "x": 1408,
     "y": 544,
     "width": 32,
     "height": 16,
     "rotation": 0,
     "visible": true,
     "properties": [
      {
       "name": "penId",
       "type": "string",
       "value": "estanque"
      }
     ]
    },
    {
     "id": 21,
     "name": "recinto-establo",
     "type": "recinto",
     "x": 1184,
     "y": 624,
     "width": 256,
     "height": 160,
     "rotation": 0,
     "visible": true,
     "properties": [
      {
       "name": "penId",
       "type": "string",
       "value": "establo"
      },
      {
       "name": "biome",
       "type": "string",
       "value": "grassland"
      }
     ]
    },
    {
     "id": 22,
     "name": "puerta-establo",
     "type": "puerta",
     "x": 1296,
     "y": 624,
     "width": 32,
     "height": 16,
     "rotation": 0,
     "visible": true,
     "properties": [
      {
       "name": "penId",
       "type": "string",
       "value": "establo"
      }
     ]
    },
    {
     "id": 23,
     "name": "tienda",
     "type": "tienda",
     "x": 784,
     "y": 384,
     "width": 80,
     "height": 80,
     "rotation": 0,
     "visible": true
    },
    {
     "id": 24,
     "name": "puerta-tienda",
     "type": "puertaTienda",
     "x": 816,
     "y": 464,
     "width": 32,
     "height": 16,
     "rotation": 0,
     "visible": true
    },
    {
     "id": 25,
     "name": "acacia-26",
     "type": "prop",
     "x": 584,
     "y": 464,
     "width": 0,
     "height": 0,
     "rotation": 0,
     "visible": true,
     "properties": [
      {
       "name": "prop",
       "type": "string",
       "value": "acacia"
      },
      {
       "name": "blocks",
       "type": "bool",
       "value": true
      },
      {
       "name": "flat",
       "type": "bool",
       "value": false
      },
      {
       "name": "z",
       "type": "int",
       "value": 0
      },
      {
       "name": "blockW",
       "type": "int",
       "value": 32
      },
      {
       "name": "blockH",
       "type": "int",
       "value": 16
      }
     ]
    },
    {
     "id": 26,
     "name": "acacia-small-27",
     "type": "prop",
     "x": 680,
     "y": 512,
     "width": 0,
     "height": 0,
     "rotation": 0,
     "visible": true,
     "properties": [
      {
       "name": "prop",
       "type": "string",
       "value": "acacia-small"
      },
      {
       "name": "blocks",
       "type": "bool",
       "value": true
      },
      {
       "name": "flat",
       "type": "bool",
       "value": false
      },
      {
       "name": "z",
       "type": "int",
       "value": 0
      },
      {
       "name": "blockW",
       "type": "int",
       "value": 16
      },
      {
       "name": "blockH",
       "type": "int",
       "value": 16
      }
     ]
    },
    {
     "id": 27,
     "name": "rock-savannah-big-28",
     "type": "prop",
     "x": 648,
     "y": 448,
     "width": 0,
     "height": 0,
     "rotation": 0,
     "visible": true,
     "properties": [
      {
       "name": "prop",
       "type": "string",
       "value": "rock-savannah-big"
      },
      {
       "name": "blocks",
       "type": "bool",
       "value": true
      },
      {
       "name": "flat",
       "type": "bool",
       "value": false
      },
      {
       "name": "z",
       "type": "int",
       "value": 0
      },
      {
       "name": "blockW",
       "type": "int",
       "value": 32
      },
      {
       "name": "blockH",
       "type": "int",
       "value": 16
      }
     ]
    },
    {
     "id": 28,
     "name": "rock-savannah-29",
     "type": "prop",
     "x": 568,
     "y": 512,
     "width": 0,
     "height": 0,
     "rotation": 0,
     "visible": true,
     "properties": [
      {
       "name": "prop",
       "type": "string",
       "value": "rock-savannah"
      },
      {
       "name": "blocks",
       "type": "bool",
       "value": true
      },
      {
       "name": "flat",
       "type": "bool",
       "value": false
      },
      {
       "name": "z",
       "type": "int",
       "value": 0
      },
      {
       "name": "blockW",
       "type": "int",
       "value": 16
      },
      {
       "name": "blockH",
       "type": "int",
       "value": 16
      }
     ]
    },
    {
     "id": 29,
     "name": "grass-tall-dry-30",
     "type": "prop",
     "x": 632,
     "y": 448,
     "width": 0,
     "height": 0,
     "rotation": 0,
     "visible": true,
     "properties": [
      {
       "name": "prop",
       "type": "string",
       "value": "grass-tall-dry"
      },
      {
       "name": "blocks",
       "type": "bool",
       "value": false
      },
      {
       "name": "flat",
       "type": "bool",
       "value": false
      },
      {
       "name": "z",
       "type": "int",
       "value": 0
      }
     ]
    },
    {
     "id": 30,
     "name": "grass-tall-dry-31",
     "type": "prop",
     "x": 696,
     "y": 464,
     "width": 0,
     "height": 0,
     "rotation": 0,
     "visible": true,
     "properties": [
      {
       "name": "prop",
       "type": "string",
       "value": "grass-tall-dry"
      },
      {
       "name": "blocks",
       "type": "bool",
       "value": false
      },
      {
       "name": "flat",
       "type": "bool",
       "value": false
      },
      {
       "name": "z",
       "type": "int",
       "value": 0
      }
     ]
    },
    {
     "id": 31,
     "name": "grass-tall-dry-32",
     "type": "prop",
     "x": 600,
     "y": 480,
     "width": 0,
     "height": 0,
     "rotation": 0,
     "visible": true,
     "properties": [
      {
       "name": "prop",
       "type": "string",
       "value": "grass-tall-dry"
      },
      {
       "name": "blocks",
       "type": "bool",
       "value": false
      },
      {
       "name": "flat",
       "type": "bool",
       "value": false
      },
      {
       "name": "z",
       "type": "int",
       "value": 0
      }
     ]
    },
    {
     "id": 32,
     "name": "grass-tall-dry-33",
     "type": "prop",
     "x": 664,
     "y": 480,
     "width": 0,
     "height": 0,
     "rotation": 0,
     "visible": true,
     "properties": [
      {
       "name": "prop",
       "type": "string",
       "value": "grass-tall-dry"
      },
      {
       "name": "blocks",
       "type": "bool",
       "value": false
      },
      {
       "name": "flat",
       "type": "bool",
       "value": false
      },
      {
       "name": "z",
       "type": "int",
       "value": 0
      }
     ]
    },
    {
     "id": 33,
     "name": "grass-tall-dry-big-34",
     "type": "prop",
     "x": 552,
     "y": 448,
     "width": 0,
     "height": 0,
     "rotation": 0,
     "visible": true,
     "properties": [
      {
       "name": "prop",
       "type": "string",
       "value": "grass-tall-dry-big"
      },
      {
       "name": "blocks",
       "type": "bool",
       "value": false
      },
      {
       "name": "flat",
       "type": "bool",
       "value": false
      },
      {
       "name": "z",
       "type": "int",
       "value": 0
      }
     ]
    },
    {
     "id": 34,
     "name": "plateau-35",
     "type": "prop",
     "x": 1016,
     "y": 496,
     "width": 0,
     "height": 0,
     "rotation": 0,
     "visible": true,
     "properties": [
      {
       "name": "prop",
       "type": "string",
       "value": "plateau"
      },
      {
       "name": "blocks",
       "type": "bool",
       "value": false
      },
      {
       "name": "flat",
       "type": "bool",
       "value": true
      },
      {
       "name": "z",
       "type": "int",
       "value": 0
      }
     ]
    },
    {
     "id": 35,
     "name": "cave-36",
     "type": "prop",
     "x": 920,
     "y": 448,
     "width": 0,
     "height": 0,
     "rotation": 0,
     "visible": true,
     "properties": [
      {
       "name": "prop",
       "type": "string",
       "value": "cave"
      },
      {
       "name": "blocks",
       "type": "bool",
       "value": true
      },
      {
       "name": "flat",
       "type": "bool",
       "value": false
      },
      {
       "name": "z",
       "type": "int",
       "value": 0
      },
      {
       "name": "blockW",
       "type": "int",
       "value": 48
      },
      {
       "name": "blockH",
       "type": "int",
       "value": 16
      }
     ]
    },
    {
     "id": 36,
     "name": "pine-37",
     "type": "prop",
     "x": 904,
     "y": 496,
     "width": 0,
     "height": 0,
     "rotation": 0,
     "visible": true,
     "properties": [
      {
       "name": "prop",
       "type": "string",
       "value": "pine"
      },
      {
       "name": "blocks",
       "type": "bool",
       "value": true
      },
      {
       "name": "flat",
       "type": "bool",
       "value": false
      },
      {
       "name": "z",
       "type": "int",
       "value": 0
      },
      {
       "name": "blockW",
       "type": "int",
       "value": 16
      },
      {
       "name": "blockH",
       "type": "int",
       "value": 16
      }
     ]
    },
    {
     "id": 37,
     "name": "pine-small-38",
     "type": "prop",
     "x": 968,
     "y": 448,
     "width": 0,
     "height": 0,
     "rotation": 0,
     "visible": true,
     "properties": [
      {
       "name": "prop",
       "type": "string",
       "value": "pine-small"
      },
      {
       "name": "blocks",
       "type": "bool",
       "value": true
      },
      {
       "name": "flat",
       "type": "bool",
       "value": false
      },
      {
       "name": "z",
       "type": "int",
       "value": 0
      },
      {
       "name": "blockW",
       "type": "int",
       "value": 16
      },
      {
       "name": "blockH",
       "type": "int",
       "value": 16
      }
     ]
    },
    {
     "id": 38,
     "name": "rock-grey-39",
     "type": "prop",
     "x": 968,
     "y": 480,
     "width": 0,
     "height": 0,
     "rotation": 0,
     "visible": true,
     "properties": [
      {
       "name": "prop",
       "type": "string",
       "value": "rock-grey"
      },
      {
       "name": "blocks",
       "type": "bool",
       "value": true
      },
      {
       "name": "flat",
       "type": "bool",
       "value": false
      },
      {
       "name": "z",
       "type": "int",
       "value": 0
      },
      {
       "name": "blockW",
       "type": "int",
       "value": 16
      },
      {
       "name": "blockH",
       "type": "int",
       "value": 16
      }
     ]
    },
    {
     "id": 39,
     "name": "rock-grey-big-40",
     "type": "prop",
     "x": 888,
     "y": 512,
     "width": 0,
     "height": 0,
     "rotation": 0,
     "visible": true,
     "properties": [
      {
       "name": "prop",
       "type": "string",
       "value": "rock-grey-big"
      },
      {
       "name": "blocks",
       "type": "bool",
       "value": true
      },
      {
       "name": "flat",
       "type": "bool",
       "value": false
      },
      {
       "name": "z",
       "type": "int",
       "value": 0
      },
      {
       "name": "blockW",
       "type": "int",
       "value": 32
      },
      {
       "name": "blockH",
       "type": "int",
       "value": 16
      }
     ]
    },
    {
     "id": 40,
     "name": "waterfall-41",
     "type": "prop",
     "x": 648,
     "y": 768,
     "width": 0,
     "height": 0,
     "rotation": 0,
     "visible": true,
     "properties": [
      {
       "name": "prop",
       "type": "string",
       "value": "waterfall"
      },
      {
       "name": "blocks",
       "type": "bool",
       "value": true
      },
      {
       "name": "flat",
       "type": "bool",
       "value": true
      },
      {
       "name": "z",
       "type": "int",
       "value": 0
      },
      {
       "name": "blockW",
       "type": "int",
       "value": 112
      },
      {
       "name": "blockH",
       "type": "int",
       "value": 104
      }
     ]
    },
    {
     "id": 41,
     "name": "lilypad-42",
     "type": "prop",
     "x": 664,
     "y": 752,
     "width": 0,
     "height": 0,
     "rotation": 0,
     "visible": true,
     "properties": [
      {
       "name": "prop",
       "type": "string",
       "value": "lilypad"
      },
      {
       "name": "blocks",
       "type": "bool",
       "value": false
      },
      {
       "name": "flat",
       "type": "bool",
       "value": true
      },
      {
       "name": "z",
       "type": "int",
       "value": 2
      }
     ]
    },
    {
     "id": 42,
     "name": "palm-43",
     "type": "prop",
     "x": 520,
     "y": 688,
     "width": 0,
     "height": 0,
     "rotation": 0,
     "visible": true,
     "properties": [
      {
       "name": "prop",
       "type": "string",
       "value": "palm"
      },
      {
       "name": "blocks",
       "type": "bool",
       "value": true
      },
      {
       "name": "flat",
       "type": "bool",
       "value": false
      },
      {
       "name": "z",
       "type": "int",
       "value": 0
      },
      {
       "name": "blockW",
       "type": "int",
       "value": 16
      },
      {
       "name": "blockH",
       "type": "int",
       "value": 8
      }
     ]
    },
    {
     "id": 43,
     "name": "palm-44",
     "type": "prop",
     "x": 536,
     "y": 768,
     "width": 0,
     "height": 0,
     "rotation": 0,
     "visible": true,
     "properties": [
      {
       "name": "prop",
       "type": "string",
       "value": "palm"
      },
      {
       "name": "blocks",
       "type": "bool",
       "value": true
      },
      {
       "name": "flat",
       "type": "bool",
       "value": false
      },
      {
       "name": "z",
       "type": "int",
       "value": 0
      },
      {
       "name": "blockW",
       "type": "int",
       "value": 16
      },
      {
       "name": "blockH",
       "type": "int",
       "value": 8
      }
     ]
    },
    {
     "id": 44,
     "name": "bush-jungle-45",
     "type": "prop",
     "x": 520,
     "y": 736,
     "width": 0,
     "height": 0,
     "rotation": 0,
     "visible": true,
     "properties": [
      {
       "name": "prop",
       "type": "string",
       "value": "bush-jungle"
      },
      {
       "name": "blocks",
       "type": "bool",
       "value": true
      },
      {
       "name": "flat",
       "type": "bool",
       "value": false
      },
      {
       "name": "z",
       "type": "int",
       "value": 0
      },
      {
       "name": "blockW",
       "type": "int",
       "value": 32
      },
      {
       "name": "blockH",
       "type": "int",
       "value": 16
      }
     ]
    },
    {
     "id": 45,
     "name": "flowers-red-46",
     "type": "prop",
     "x": 552,
     "y": 672,
     "width": 0,
     "height": 0,
     "rotation": 0,
     "visible": true,
     "properties": [
      {
       "name": "prop",
       "type": "string",
       "value": "flowers-red"
      },
      {
       "name": "blocks",
       "type": "bool",
       "value": false
      },
      {
       "name": "flat",
       "type": "bool",
       "value": false
      },
      {
       "name": "z",
       "type": "int",
       "value": 0
      }
     ]
    },
    {
     "id": 46,
     "name": "bamboo-big-47",
     "type": "prop",
     "x": 1032,
     "y": 768,
     "width": 0,
     "height": 0,
     "rotation": 0,
     "visible": true,
     "properties": [
      {
       "name": "prop",
       "type": "string",
       "value": "bamboo-big"
      },
      {
       "name": "blocks",
       "type": "bool",
       "value": true
      },
      {
       "name": "flat",
       "type": "bool",
       "value": false
      },
      {
       "name": "z",
       "type": "int",
       "value": 0
      },
      {
       "name": "blockW",
       "type": "int",
       "value": 32
      },
      {
       "name": "blockH",
       "type": "int",
       "value": 16
      }
     ]
    },
    {
     "id": 47,
     "name": "bamboo-big-48",
     "type": "prop",
     "x": 1032,
     "y": 720,
     "width": 0,
     "height": 0,
     "rotation": 0,
     "visible": true,
     "properties": [
      {
       "name": "prop",
       "type": "string",
       "value": "bamboo-big"
      },
      {
       "name": "blocks",
       "type": "bool",
       "value": true
      },
      {
       "name": "flat",
       "type": "bool",
       "value": false
      },
      {
       "name": "z",
       "type": "int",
       "value": 0
      },
      {
       "name": "blockW",
       "type": "int",
       "value": 32
      },
      {
       "name": "blockH",
       "type": "int",
       "value": 16
      }
     ]
    },
    {
     "id": 48,
     "name": "bamboo-mid-49",
     "type": "prop",
     "x": 1000,
     "y": 768,
     "width": 0,
     "height": 0,
     "rotation": 0,
     "visible": true,
     "properties": [
      {
       "name": "prop",
       "type": "string",
       "value": "bamboo-mid"
      },
      {
       "name": "blocks",
       "type": "bool",
       "value": true
      },
      {
       "name": "flat",
       "type": "bool",
       "value": false
      },
      {
       "name": "z",
       "type": "int",
       "value": 0
      },
      {
       "name": "blockW",
       "type": "int",
       "value": 32
      },
      {
       "name": "blockH",
       "type": "int",
       "value": 16
      }
     ]
    },
    {
     "id": 49,
     "name": "bamboo-mid-50",
     "type": "prop",
     "x": 968,
     "y": 768,
     "width": 0,
     "height": 0,
     "rotation": 0,
     "visible": true,
     "properties": [
      {
       "name": "prop",
       "type": "string",
       "value": "bamboo-mid"
      },
      {
       "name": "blocks",
       "type": "bool",
       "value": true
      },
      {
       "name": "flat",
       "type": "bool",
       "value": false
      },
      {
       "name": "z",
       "type": "int",
       "value": 0
      },
      {
       "name": "blockW",
       "type": "int",
       "value": 32
      },
      {
       "name": "blockH",
       "type": "int",
       "value": 16
      }
     ]
    },
    {
     "id": 50,
     "name": "bamboo-small-51",
     "type": "prop",
     "x": 1000,
     "y": 720,
     "width": 0,
     "height": 0,
     "rotation": 0,
     "visible": true,
     "properties": [
      {
       "name": "prop",
       "type": "string",
       "value": "bamboo-small"
      },
      {
       "name": "blocks",
       "type": "bool",
       "value": true
      },
      {
       "name": "flat",
       "type": "bool",
       "value": false
      },
      {
       "name": "z",
       "type": "int",
       "value": 0
      },
      {
       "name": "blockW",
       "type": "int",
       "value": 16
      },
      {
       "name": "blockH",
       "type": "int",
       "value": 16
      }
     ]
    },
    {
     "id": 51,
     "name": "bamboo-small-52",
     "type": "prop",
     "x": 840,
     "y": 768,
     "width": 0,
     "height": 0,
     "rotation": 0,
     "visible": true,
     "properties": [
      {
       "name": "prop",
       "type": "string",
       "value": "bamboo-small"
      },
      {
       "name": "blocks",
       "type": "bool",
       "value": true
      },
      {
       "name": "flat",
       "type": "bool",
       "value": false
      },
      {
       "name": "z",
       "type": "int",
       "value": 0
      },
      {
       "name": "blockW",
       "type": "int",
       "value": 16
      },
      {
       "name": "blockH",
       "type": "int",
       "value": 16
      }
     ]
    },
    {
     "id": 52,
     "name": "log-53",
     "type": "prop",
     "x": 904,
     "y": 736,
     "width": 0,
     "height": 0,
     "rotation": 0,
     "visible": true,
     "properties": [
      {
       "name": "prop",
       "type": "string",
       "value": "log"
      },
      {
       "name": "blocks",
       "type": "bool",
       "value": true
      },
      {
       "name": "flat",
       "type": "bool",
       "value": false
      },
      {
       "name": "z",
       "type": "int",
       "value": 0
      },
      {
       "name": "blockW",
       "type": "int",
       "value": 32
      },
      {
       "name": "blockH",
       "type": "int",
       "value": 16
      }
     ]
    },
    {
     "id": 53,
     "name": "flowers-54",
     "type": "prop",
     "x": 888,
     "y": 720,
     "width": 0,
     "height": 0,
     "rotation": 0,
     "visible": true,
     "properties": [
      {
       "name": "prop",
       "type": "string",
       "value": "flowers"
      },
      {
       "name": "blocks",
       "type": "bool",
       "value": false
      },
      {
       "name": "flat",
       "type": "bool",
       "value": false
      },
      {
       "name": "z",
       "type": "int",
       "value": 0
      }
     ]
    },
    {
     "id": 54,
     "name": "flowers-red-55",
     "type": "prop",
     "x": 968,
     "y": 720,
     "width": 0,
     "height": 0,
     "rotation": 0,
     "visible": true,
     "properties": [
      {
       "name": "prop",
       "type": "string",
       "value": "flowers-red"
      },
      {
       "name": "blocks",
       "type": "bool",
       "value": false
      },
      {
       "name": "flat",
       "type": "bool",
       "value": false
      },
      {
       "name": "z",
       "type": "int",
       "value": 0
      }
     ]
    },
    {
     "id": 55,
     "name": "acacia-56",
     "type": "prop",
     "x": 296,
     "y": 128,
     "width": 0,
     "height": 0,
     "rotation": 0,
     "visible": true,
     "properties": [
      {
       "name": "prop",
       "type": "string",
       "value": "acacia"
      },
      {
       "name": "blocks",
       "type": "bool",
       "value": true
      },
      {
       "name": "flat",
       "type": "bool",
       "value": false
      },
      {
       "name": "z",
       "type": "int",
       "value": 0
      },
      {
       "name": "blockW",
       "type": "int",
       "value": 32
      },
      {
       "name": "blockH",
       "type": "int",
       "value": 16
      }
     ]
    },
    {
     "id": 56,
     "name": "acacia-57",
     "type": "prop",
     "x": 488,
     "y": 112,
     "width": 0,
     "height": 0,
     "rotation": 0,
     "visible": true,
     "properties": [
      {
       "name": "prop",
       "type": "string",
       "value": "acacia"
      },
      {
       "name": "blocks",
       "type": "bool",
       "value": true
      },
      {
       "name": "flat",
       "type": "bool",
       "value": false
      },
      {
       "name": "z",
       "type": "int",
       "value": 0
      },
      {
       "name": "blockW",
       "type": "int",
       "value": 32
      },
      {
       "name": "blockH",
       "type": "int",
       "value": 16
      }
     ]
    },
    {
     "id": 57,
     "name": "acacia-small-58",
     "type": "prop",
     "x": 456,
     "y": 176,
     "width": 0,
     "height": 0,
     "rotation": 0,
     "visible": true,
     "properties": [
      {
       "name": "prop",
       "type": "string",
       "value": "acacia-small"
      },
      {
       "name": "blocks",
       "type": "bool",
       "value": true
      },
      {
       "name": "flat",
       "type": "bool",
       "value": false
      },
      {
       "name": "z",
       "type": "int",
       "value": 0
      },
      {
       "name": "blockW",
       "type": "int",
       "value": 16
      },
      {
       "name": "blockH",
       "type": "int",
       "value": 16
      }
     ]
    },
    {
     "id": 58,
     "name": "rock-savannah-big-59",
     "type": "prop",
     "x": 360,
     "y": 96,
     "width": 0,
     "height": 0,
     "rotation": 0,
     "visible": true,
     "properties": [
      {
       "name": "prop",
       "type": "string",
       "value": "rock-savannah-big"
      },
      {
       "name": "blocks",
       "type": "bool",
       "value": true
      },
      {
       "name": "flat",
       "type": "bool",
       "value": false
      },
      {
       "name": "z",
       "type": "int",
       "value": 0
      },
      {
       "name": "blockW",
       "type": "int",
       "value": 32
      },
      {
       "name": "blockH",
       "type": "int",
       "value": 16
      }
     ]
    },
    {
     "id": 59,
     "name": "rock-savannah-60",
     "type": "prop",
     "x": 520,
     "y": 192,
     "width": 0,
     "height": 0,
     "rotation": 0,
     "visible": true,
     "properties": [
      {
       "name": "prop",
       "type": "string",
       "value": "rock-savannah"
      },
      {
       "name": "blocks",
       "type": "bool",
       "value": true
      },
      {
       "name": "flat",
       "type": "bool",
       "value": false
      },
      {
       "name": "z",
       "type": "int",
       "value": 0
      },
      {
       "name": "blockW",
       "type": "int",
       "value": 16
      },
      {
       "name": "blockH",
       "type": "int",
       "value": 16
      }
     ]
    },
    {
     "id": 60,
     "name": "rock-savannah-61",
     "type": "prop",
     "x": 264,
     "y": 208,
     "width": 0,
     "height": 0,
     "rotation": 0,
     "visible": true,
     "properties": [
      {
       "name": "prop",
       "type": "string",
       "value": "rock-savannah"
      },
      {
       "name": "blocks",
       "type": "bool",
       "value": true
      },
      {
       "name": "flat",
       "type": "bool",
       "value": false
      },
      {
       "name": "z",
       "type": "int",
       "value": 0
      },
      {
       "name": "blockW",
       "type": "int",
       "value": 16
      },
      {
       "name": "blockH",
       "type": "int",
       "value": 16
      }
     ]
    },
    {
     "id": 61,
     "name": "grass-tall-dry-62",
     "type": "prop",
     "x": 328,
     "y": 112,
     "width": 0,
     "height": 0,
     "rotation": 0,
     "visible": true,
     "properties": [
      {
       "name": "prop",
       "type": "string",
       "value": "grass-tall-dry"
      },
      {
       "name": "blocks",
       "type": "bool",
       "value": false
      },
      {
       "name": "flat",
       "type": "bool",
       "value": false
      },
      {
       "name": "z",
       "type": "int",
       "value": 0
      }
     ]
    },
    {
     "id": 62,
     "name": "grass-tall-dry-63",
     "type": "prop",
     "x": 424,
     "y": 128,
     "width": 0,
     "height": 0,
     "rotation": 0,
     "visible": true,
     "properties": [
      {
       "name": "prop",
       "type": "string",
       "value": "grass-tall-dry"
      },
      {
       "name": "blocks",
       "type": "bool",
       "value": false
      },
      {
       "name": "flat",
       "type": "bool",
       "value": false
      },
      {
       "name": "z",
       "type": "int",
       "value": 0
      }
     ]
    },
    {
     "id": 63,
     "name": "grass-tall-dry-64",
     "type": "prop",
     "x": 472,
     "y": 208,
     "width": 0,
     "height": 0,
     "rotation": 0,
     "visible": true,
     "properties": [
      {
       "name": "prop",
       "type": "string",
       "value": "grass-tall-dry"
      },
      {
       "name": "blocks",
       "type": "bool",
       "value": false
      },
      {
       "name": "flat",
       "type": "bool",
       "value": false
      },
      {
       "name": "z",
       "type": "int",
       "value": 0
      }
     ]
    },
    {
     "id": 64,
     "name": "grass-tall-dry-65",
     "type": "prop",
     "x": 280,
     "y": 160,
     "width": 0,
     "height": 0,
     "rotation": 0,
     "visible": true,
     "properties": [
      {
       "name": "prop",
       "type": "string",
       "value": "grass-tall-dry"
      },
      {
       "name": "blocks",
       "type": "bool",
       "value": false
      },
      {
       "name": "flat",
       "type": "bool",
       "value": false
      },
      {
       "name": "z",
       "type": "int",
       "value": 0
      }
     ]
    },
    {
     "id": 65,
     "name": "grass-tall-dry-66",
     "type": "prop",
     "x": 536,
     "y": 144,
     "width": 0,
     "height": 0,
     "rotation": 0,
     "visible": true,
     "properties": [
      {
       "name": "prop",
       "type": "string",
       "value": "grass-tall-dry"
      },
      {
       "name": "blocks",
       "type": "bool",
       "value": false
      },
      {
       "name": "flat",
       "type": "bool",
       "value": false
      },
      {
       "name": "z",
       "type": "int",
       "value": 0
      }
     ]
    },
    {
     "id": 66,
     "name": "grass-tall-dry-big-67",
     "type": "prop",
     "x": 248,
     "y": 96,
     "width": 0,
     "height": 0,
     "rotation": 0,
     "visible": true,
     "properties": [
      {
       "name": "prop",
       "type": "string",
       "value": "grass-tall-dry-big"
      },
      {
       "name": "blocks",
       "type": "bool",
       "value": false
      },
      {
       "name": "flat",
       "type": "bool",
       "value": false
      },
      {
       "name": "z",
       "type": "int",
       "value": 0
      }
     ]
    },
    {
     "id": 67,
     "name": "acacia-68",
     "type": "prop",
     "x": 872,
     "y": 144,
     "width": 0,
     "height": 0,
     "rotation": 0,
     "visible": true,
     "properties": [
      {
       "name": "prop",
       "type": "string",
       "value": "acacia"
      },
      {
       "name": "blocks",
       "type": "bool",
       "value": true
      },
      {
       "name": "flat",
       "type": "bool",
       "value": false
      },
      {
       "name": "z",
       "type": "int",
       "value": 0
      },
      {
       "name": "blockW",
       "type": "int",
       "value": 32
      },
      {
       "name": "blockH",
       "type": "int",
       "value": 16
      }
     ]
    },
    {
     "id": 68,
     "name": "rock-savannah-big-69",
     "type": "prop",
     "x": 968,
     "y": 128,
     "width": 0,
     "height": 0,
     "rotation": 0,
     "visible": true,
     "properties": [
      {
       "name": "prop",
       "type": "string",
       "value": "rock-savannah-big"
      },
      {
       "name": "blocks",
       "type": "bool",
       "value": true
      },
      {
       "name": "flat",
       "type": "bool",
       "value": false
      },
      {
       "name": "z",
       "type": "int",
       "value": 0
      },
      {
       "name": "blockW",
       "type": "int",
       "value": 32
      },
      {
       "name": "blockH",
       "type": "int",
       "value": 16
      }
     ]
    },
    {
     "id": 69,
     "name": "grass-tall-dry-70",
     "type": "prop",
     "x": 920,
     "y": 128,
     "width": 0,
     "height": 0,
     "rotation": 0,
     "visible": true,
     "properties": [
      {
       "name": "prop",
       "type": "string",
       "value": "grass-tall-dry"
      },
      {
       "name": "blocks",
       "type": "bool",
       "value": false
      },
      {
       "name": "flat",
       "type": "bool",
       "value": false
      },
      {
       "name": "z",
       "type": "int",
       "value": 0
      }
     ]
    },
    {
     "id": 70,
     "name": "grass-tall-dry-71",
     "type": "prop",
     "x": 984,
     "y": 192,
     "width": 0,
     "height": 0,
     "rotation": 0,
     "visible": true,
     "properties": [
      {
       "name": "prop",
       "type": "string",
       "value": "grass-tall-dry"
      },
      {
       "name": "blocks",
       "type": "bool",
       "value": false
      },
      {
       "name": "flat",
       "type": "bool",
       "value": false
      },
      {
       "name": "z",
       "type": "int",
       "value": 0
      }
     ]
    },
    {
     "id": 71,
     "name": "acacia-small-72",
     "type": "prop",
     "x": 1208,
     "y": 160,
     "width": 0,
     "height": 0,
     "rotation": 0,
     "visible": true,
     "properties": [
      {
       "name": "prop",
       "type": "string",
       "value": "acacia-small"
      },
      {
       "name": "blocks",
       "type": "bool",
       "value": true
      },
      {
       "name": "flat",
       "type": "bool",
       "value": false
      },
      {
       "name": "z",
       "type": "int",
       "value": 0
      },
      {
       "name": "blockW",
       "type": "int",
       "value": 16
      },
      {
       "name": "blockH",
       "type": "int",
       "value": 16
      }
     ]
    },
    {
     "id": 72,
     "name": "rock-savannah-73",
     "type": "prop",
     "x": 1096,
     "y": 128,
     "width": 0,
     "height": 0,
     "rotation": 0,
     "visible": true,
     "properties": [
      {
       "name": "prop",
       "type": "string",
       "value": "rock-savannah"
      },
      {
       "name": "blocks",
       "type": "bool",
       "value": true
      },
      {
       "name": "flat",
       "type": "bool",
       "value": false
      },
      {
       "name": "z",
       "type": "int",
       "value": 0
      },
      {
       "name": "blockW",
       "type": "int",
       "value": 16
      },
      {
       "name": "blockH",
       "type": "int",
       "value": 16
      }
     ]
    },
    {
     "id": 73,
     "name": "rock-savannah-big-74",
     "type": "prop",
     "x": 1096,
     "y": 208,
     "width": 0,
     "height": 0,
     "rotation": 0,
     "visible": true,
     "properties": [
      {
       "name": "prop",
       "type": "string",
       "value": "rock-savannah-big"
      },
      {
       "name": "blocks",
       "type": "bool",
       "value": true
      },
      {
       "name": "flat",
       "type": "bool",
       "value": false
      },
      {
       "name": "z",
       "type": "int",
       "value": 0
      },
      {
       "name": "blockW",
       "type": "int",
       "value": 32
      },
      {
       "name": "blockH",
       "type": "int",
       "value": 16
      }
     ]
    },
    {
     "id": 74,
     "name": "grass-tall-dry-75",
     "type": "prop",
     "x": 1160,
     "y": 144,
     "width": 0,
     "height": 0,
     "rotation": 0,
     "visible": true,
     "properties": [
      {
       "name": "prop",
       "type": "string",
       "value": "grass-tall-dry"
      },
      {
       "name": "blocks",
       "type": "bool",
       "value": false
      },
      {
       "name": "flat",
       "type": "bool",
       "value": false
      },
      {
       "name": "z",
       "type": "int",
       "value": 0
      }
     ]
    },
    {
     "id": 75,
     "name": "grass-tall-dry-76",
     "type": "prop",
     "x": 1192,
     "y": 208,
     "width": 0,
     "height": 0,
     "rotation": 0,
     "visible": true,
     "properties": [
      {
       "name": "prop",
       "type": "string",
       "value": "grass-tall-dry"
      },
      {
       "name": "blocks",
       "type": "bool",
       "value": false
      },
      {
       "name": "flat",
       "type": "bool",
       "value": false
      },
      {
       "name": "z",
       "type": "int",
       "value": 0
      }
     ]
    },
    {
     "id": 76,
     "name": "pond-tundra-77",
     "type": "prop",
     "x": 264,
     "y": 480,
     "width": 0,
     "height": 0,
     "rotation": 0,
     "visible": true,
     "properties": [
      {
       "name": "prop",
       "type": "string",
       "value": "pond-tundra"
      },
      {
       "name": "blocks",
       "type": "bool",
       "value": true
      },
      {
       "name": "flat",
       "type": "bool",
       "value": true
      },
      {
       "name": "z",
       "type": "int",
       "value": 0
      },
      {
       "name": "blockW",
       "type": "int",
       "value": 48
      },
      {
       "name": "blockH",
       "type": "int",
       "value": 40
      }
     ]
    },
    {
     "id": 77,
     "name": "rock-snow-big-78",
     "type": "prop",
     "x": 120,
     "y": 448,
     "width": 0,
     "height": 0,
     "rotation": 0,
     "visible": true,
     "properties": [
      {
       "name": "prop",
       "type": "string",
       "value": "rock-snow-big"
      },
      {
       "name": "blocks",
       "type": "bool",
       "value": true
      },
      {
       "name": "flat",
       "type": "bool",
       "value": false
      },
      {
       "name": "z",
       "type": "int",
       "value": 0
      },
      {
       "name": "blockW",
       "type": "int",
       "value": 32
      },
      {
       "name": "blockH",
       "type": "int",
       "value": 16
      }
     ]
    },
    {
     "id": 78,
     "name": "rock-snow-79",
     "type": "prop",
     "x": 152,
     "y": 512,
     "width": 0,
     "height": 0,
     "rotation": 0,
     "visible": true,
     "properties": [
      {
       "name": "prop",
       "type": "string",
       "value": "rock-snow"
      },
      {
       "name": "blocks",
       "type": "bool",
       "value": true
      },
      {
       "name": "flat",
       "type": "bool",
       "value": false
      },
      {
       "name": "z",
       "type": "int",
       "value": 0
      },
      {
       "name": "blockW",
       "type": "int",
       "value": 16
      },
      {
       "name": "blockH",
       "type": "int",
       "value": 16
      }
     ]
    },
    {
     "id": 79,
     "name": "pine-snow-small-80",
     "type": "prop",
     "x": 104,
     "y": 528,
     "width": 0,
     "height": 0,
     "rotation": 0,
     "visible": true,
     "properties": [
      {
       "name": "prop",
       "type": "string",
       "value": "pine-snow-small"
      },
      {
       "name": "blocks",
       "type": "bool",
       "value": true
      },
      {
       "name": "flat",
       "type": "bool",
       "value": false
      },
      {
       "name": "z",
       "type": "int",
       "value": 0
      },
      {
       "name": "blockW",
       "type": "int",
       "value": 16
      },
      {
       "name": "blockH",
       "type": "int",
       "value": 16
      }
     ]
    },
    {
     "id": 80,
     "name": "pine-snow-81",
     "type": "prop",
     "x": 312,
     "y": 528,
     "width": 0,
     "height": 0,
     "rotation": 0,
     "visible": true,
     "properties": [
      {
       "name": "prop",
       "type": "string",
       "value": "pine-snow"
      },
      {
       "name": "blocks",
       "type": "bool",
       "value": true
      },
      {
       "name": "flat",
       "type": "bool",
       "value": false
      },
      {
       "name": "z",
       "type": "int",
       "value": 0
      },
      {
       "name": "blockW",
       "type": "int",
       "value": 16
      },
      {
       "name": "blockH",
       "type": "int",
       "value": 16
      }
     ]
    },
    {
     "id": 81,
     "name": "sunflowers-82",
     "type": "prop",
     "x": 1176,
     "y": 448,
     "width": 0,
     "height": 0,
     "rotation": 0,
     "visible": true,
     "properties": [
      {
       "name": "prop",
       "type": "string",
       "value": "sunflowers"
      },
      {
       "name": "blocks",
       "type": "bool",
       "value": true
      },
      {
       "name": "flat",
       "type": "bool",
       "value": false
      },
      {
       "name": "z",
       "type": "int",
       "value": 0
      },
      {
       "name": "blockW",
       "type": "int",
       "value": 16
      },
      {
       "name": "blockH",
       "type": "int",
       "value": 16
      }
     ]
    },
    {
     "id": 82,
     "name": "stump-83",
     "type": "prop",
     "x": 1288,
     "y": 448,
     "width": 0,
     "height": 0,
     "rotation": 0,
     "visible": true,
     "properties": [
      {
       "name": "prop",
       "type": "string",
       "value": "stump"
      },
      {
       "name": "blocks",
       "type": "bool",
       "value": true
      },
      {
       "name": "flat",
       "type": "bool",
       "value": false
      },
      {
       "name": "z",
       "type": "int",
       "value": 0
      },
      {
       "name": "blockW",
       "type": "int",
       "value": 32
      },
      {
       "name": "blockH",
       "type": "int",
       "value": 16
      }
     ]
    },
    {
     "id": 83,
     "name": "flowers-84",
     "type": "prop",
     "x": 1224,
     "y": 464,
     "width": 0,
     "height": 0,
     "rotation": 0,
     "visible": true,
     "properties": [
      {
       "name": "prop",
       "type": "string",
       "value": "flowers"
      },
      {
       "name": "blocks",
       "type": "bool",
       "value": false
      },
      {
       "name": "flat",
       "type": "bool",
       "value": false
      },
      {
       "name": "z",
       "type": "int",
       "value": 0
      }
     ]
    },
    {
     "id": 84,
     "name": "flowers-85",
     "type": "prop",
     "x": 1272,
     "y": 512,
     "width": 0,
     "height": 0,
     "rotation": 0,
     "visible": true,
     "properties": [
      {
       "name": "prop",
       "type": "string",
       "value": "flowers"
      },
      {
       "name": "blocks",
       "type": "bool",
       "value": false
      },
      {
       "name": "flat",
       "type": "bool",
       "value": false
      },
      {
       "name": "z",
       "type": "int",
       "value": 0
      }
     ]
    },
    {
     "id": 85,
     "name": "pond-grassland-86",
     "type": "prop",
     "x": 1416,
     "y": 480,
     "width": 0,
     "height": 0,
     "rotation": 0,
     "visible": true,
     "properties": [
      {
       "name": "prop",
       "type": "string",
       "value": "pond-grassland"
      },
      {
       "name": "blocks",
       "type": "bool",
       "value": true
      },
      {
       "name": "flat",
       "type": "bool",
       "value": true
      },
      {
       "name": "z",
       "type": "int",
       "value": 0
      },
      {
       "name": "blockW",
       "type": "int",
       "value": 48
      },
      {
       "name": "blockH",
       "type": "int",
       "value": 40
      }
     ]
    },
    {
     "id": 86,
     "name": "lilypad-87",
     "type": "prop",
     "x": 1416,
     "y": 464,
     "width": 0,
     "height": 0,
     "rotation": 0,
     "visible": true,
     "properties": [
      {
       "name": "prop",
       "type": "string",
       "value": "lilypad"
      },
      {
       "name": "blocks",
       "type": "bool",
       "value": false
      },
      {
       "name": "flat",
       "type": "bool",
       "value": true
      },
      {
       "name": "z",
       "type": "int",
       "value": 2
      }
     ]
    },
    {
     "id": 87,
     "name": "lilypad-flower-88",
     "type": "prop",
     "x": 1432,
     "y": 480,
     "width": 0,
     "height": 0,
     "rotation": 0,
     "visible": true,
     "properties": [
      {
       "name": "prop",
       "type": "string",
       "value": "lilypad-flower"
      },
      {
       "name": "blocks",
       "type": "bool",
       "value": false
      },
      {
       "name": "flat",
       "type": "bool",
       "value": true
      },
      {
       "name": "z",
       "type": "int",
       "value": 2
      }
     ]
    },
    {
     "id": 88,
     "name": "sunflowers-89",
     "type": "prop",
     "x": 1480,
     "y": 448,
     "width": 0,
     "height": 0,
     "rotation": 0,
     "visible": true,
     "properties": [
      {
       "name": "prop",
       "type": "string",
       "value": "sunflowers"
      },
      {
       "name": "blocks",
       "type": "bool",
       "value": true
      },
      {
       "name": "flat",
       "type": "bool",
       "value": false
      },
      {
       "name": "z",
       "type": "int",
       "value": 0
      },
      {
       "name": "blockW",
       "type": "int",
       "value": 16
      },
      {
       "name": "blockH",
       "type": "int",
       "value": 16
      }
     ]
    },
    {
     "id": 89,
     "name": "flowers-90",
     "type": "prop",
     "x": 1368,
     "y": 528,
     "width": 0,
     "height": 0,
     "rotation": 0,
     "visible": true,
     "properties": [
      {
       "name": "prop",
       "type": "string",
       "value": "flowers"
      },
      {
       "name": "blocks",
       "type": "bool",
       "value": false
      },
      {
       "name": "flat",
       "type": "bool",
       "value": false
      },
      {
       "name": "z",
       "type": "int",
       "value": 0
      }
     ]
    },
    {
     "id": 90,
     "name": "stump-91",
     "type": "prop",
     "x": 1224,
     "y": 752,
     "width": 0,
     "height": 0,
     "rotation": 0,
     "visible": true,
     "properties": [
      {
       "name": "prop",
       "type": "string",
       "value": "stump"
      },
      {
       "name": "blocks",
       "type": "bool",
       "value": true
      },
      {
       "name": "flat",
       "type": "bool",
       "value": false
      },
      {
       "name": "z",
       "type": "int",
       "value": 0
      },
      {
       "name": "blockW",
       "type": "int",
       "value": 32
      },
      {
       "name": "blockH",
       "type": "int",
       "value": 16
      }
     ]
    },
    {
     "id": 91,
     "name": "log-92",
     "type": "prop",
     "x": 1384,
     "y": 752,
     "width": 0,
     "height": 0,
     "rotation": 0,
     "visible": true,
     "properties": [
      {
       "name": "prop",
       "type": "string",
       "value": "log"
      },
      {
       "name": "blocks",
       "type": "bool",
       "value": true
      },
      {
       "name": "flat",
       "type": "bool",
       "value": false
      },
      {
       "name": "z",
       "type": "int",
       "value": 0
      },
      {
       "name": "blockW",
       "type": "int",
       "value": 32
      },
      {
       "name": "blockH",
       "type": "int",
       "value": 16
      }
     ]
    },
    {
     "id": 92,
     "name": "sunflowers-93",
     "type": "prop",
     "x": 1416,
     "y": 672,
     "width": 0,
     "height": 0,
     "rotation": 0,
     "visible": true,
     "properties": [
      {
       "name": "prop",
       "type": "string",
       "value": "sunflowers"
      },
      {
       "name": "blocks",
       "type": "bool",
       "value": true
      },
      {
       "name": "flat",
       "type": "bool",
       "value": false
      },
      {
       "name": "z",
       "type": "int",
       "value": 0
      },
      {
       "name": "blockW",
       "type": "int",
       "value": 16
      },
      {
       "name": "blockH",
       "type": "int",
       "value": 16
      }
     ]
    },
    {
     "id": 93,
     "name": "bush-94",
     "type": "prop",
     "x": 1208,
     "y": 672,
     "width": 0,
     "height": 0,
     "rotation": 0,
     "visible": true,
     "properties": [
      {
       "name": "prop",
       "type": "string",
       "value": "bush"
      },
      {
       "name": "blocks",
       "type": "bool",
       "value": true
      },
      {
       "name": "flat",
       "type": "bool",
       "value": false
      },
      {
       "name": "z",
       "type": "int",
       "value": 0
      },
      {
       "name": "blockW",
       "type": "int",
       "value": 16
      },
      {
       "name": "blockH",
       "type": "int",
       "value": 16
      }
     ]
    },
    {
     "id": 94,
     "name": "flowers-95",
     "type": "prop",
     "x": 1256,
     "y": 704,
     "width": 0,
     "height": 0,
     "rotation": 0,
     "visible": true,
     "properties": [
      {
       "name": "prop",
       "type": "string",
       "value": "flowers"
      },
      {
       "name": "blocks",
       "type": "bool",
       "value": false
      },
      {
       "name": "flat",
       "type": "bool",
       "value": false
      },
      {
       "name": "z",
       "type": "int",
       "value": 0
      }
     ]
    },
    {
     "id": 95,
     "name": "flowers-96",
     "type": "prop",
     "x": 1368,
     "y": 688,
     "width": 0,
     "height": 0,
     "rotation": 0,
     "visible": true,
     "properties": [
      {
       "name": "prop",
       "type": "string",
       "value": "flowers"
      },
      {
       "name": "blocks",
       "type": "bool",
       "value": false
      },
      {
       "name": "flat",
       "type": "bool",
       "value": false
      },
      {
       "name": "z",
       "type": "int",
       "value": 0
      }
     ]
    },
    {
     "id": 96,
     "name": "fountain-97",
     "type": "prop",
     "x": 768,
     "y": 624,
     "width": 0,
     "height": 0,
     "rotation": 0,
     "visible": true,
     "properties": [
      {
       "name": "prop",
       "type": "string",
       "value": "fountain"
      },
      {
       "name": "blocks",
       "type": "bool",
       "value": false
      },
      {
       "name": "flat",
       "type": "bool",
       "value": false
      },
      {
       "name": "z",
       "type": "int",
       "value": 0
      }
     ]
    },
    {
     "id": 97,
     "name": "tree-98",
     "type": "prop",
     "x": 456,
     "y": 432,
     "width": 0,
     "height": 0,
     "rotation": 0,
     "visible": true,
     "properties": [
      {
       "name": "prop",
       "type": "string",
       "value": "tree"
      },
      {
       "name": "blocks",
       "type": "bool",
       "value": false
      },
      {
       "name": "flat",
       "type": "bool",
       "value": false
      },
      {
       "name": "z",
       "type": "int",
       "value": 0
      }
     ]
    },
    {
     "id": 98,
     "name": "tree-99",
     "type": "prop",
     "x": 456,
     "y": 544,
     "width": 0,
     "height": 0,
     "rotation": 0,
     "visible": true,
     "properties": [
      {
       "name": "prop",
       "type": "string",
       "value": "tree"
      },
      {
       "name": "blocks",
       "type": "bool",
       "value": false
      },
      {
       "name": "flat",
       "type": "bool",
       "value": false
      },
      {
       "name": "z",
       "type": "int",
       "value": 0
      }
     ]
    },
    {
     "id": 99,
     "name": "tree-100",
     "type": "prop",
     "x": 488,
     "y": 464,
     "width": 0,
     "height": 0,
     "rotation": 0,
     "visible": true,
     "properties": [
      {
       "name": "prop",
       "type": "string",
       "value": "tree"
      },
      {
       "name": "blocks",
       "type": "bool",
       "value": false
      },
      {
       "name": "flat",
       "type": "bool",
       "value": false
      },
      {
       "name": "z",
       "type": "int",
       "value": 0
      }
     ]
    },
    {
     "id": 100,
     "name": "tree-101",
     "type": "prop",
     "x": 488,
     "y": 512,
     "width": 0,
     "height": 0,
     "rotation": 0,
     "visible": true,
     "properties": [
      {
       "name": "prop",
       "type": "string",
       "value": "tree"
      },
      {
       "name": "blocks",
       "type": "bool",
       "value": false
      },
      {
       "name": "flat",
       "type": "bool",
       "value": false
      },
      {
       "name": "z",
       "type": "int",
       "value": 0
      }
     ]
    },
    {
     "id": 101,
     "name": "tree-102",
     "type": "prop",
     "x": 456,
     "y": 688,
     "width": 0,
     "height": 0,
     "rotation": 0,
     "visible": true,
     "properties": [
      {
       "name": "prop",
       "type": "string",
       "value": "tree"
      },
      {
       "name": "blocks",
       "type": "bool",
       "value": false
      },
      {
       "name": "flat",
       "type": "bool",
       "value": false
      },
      {
       "name": "z",
       "type": "int",
       "value": 0
      }
     ]
    },
    {
     "id": 102,
     "name": "tree-103",
     "type": "prop",
     "x": 456,
     "y": 752,
     "width": 0,
     "height": 0,
     "rotation": 0,
     "visible": true,
     "properties": [
      {
       "name": "prop",
       "type": "string",
       "value": "tree"
      },
      {
       "name": "blocks",
       "type": "bool",
       "value": false
      },
      {
       "name": "flat",
       "type": "bool",
       "value": false
      },
      {
       "name": "z",
       "type": "int",
       "value": 0
      }
     ]
    },
    {
     "id": 103,
     "name": "tree-104",
     "type": "prop",
     "x": 728,
     "y": 448,
     "width": 0,
     "height": 0,
     "rotation": 0,
     "visible": true,
     "properties": [
      {
       "name": "prop",
       "type": "string",
       "value": "tree"
      },
      {
       "name": "blocks",
       "type": "bool",
       "value": false
      },
      {
       "name": "flat",
       "type": "bool",
       "value": false
      },
      {
       "name": "z",
       "type": "int",
       "value": 0
      }
     ]
    },
    {
     "id": 104,
     "name": "tree-105",
     "type": "prop",
     "x": 728,
     "y": 512,
     "width": 0,
     "height": 0,
     "rotation": 0,
     "visible": true,
     "properties": [
      {
       "name": "prop",
       "type": "string",
       "value": "tree"
      },
      {
       "name": "blocks",
       "type": "bool",
       "value": false
      },
      {
       "name": "flat",
       "type": "bool",
       "value": false
      },
      {
       "name": "z",
       "type": "int",
       "value": 0
      }
     ]
    },
    {
     "id": 105,
     "name": "tree-106",
     "type": "prop",
     "x": 728,
     "y": 704,
     "width": 0,
     "height": 0,
     "rotation": 0,
     "visible": true,
     "properties": [
      {
       "name": "prop",
       "type": "string",
       "value": "tree"
      },
      {
       "name": "blocks",
       "type": "bool",
       "value": false
      },
      {
       "name": "flat",
       "type": "bool",
       "value": false
      },
      {
       "name": "z",
       "type": "int",
       "value": 0
      }
     ]
    },
    {
     "id": 106,
     "name": "tree-107",
     "type": "prop",
     "x": 744,
     "y": 768,
     "width": 0,
     "height": 0,
     "rotation": 0,
     "visible": true,
     "properties": [
      {
       "name": "prop",
       "type": "string",
       "value": "tree"
      },
      {
       "name": "blocks",
       "type": "bool",
       "value": false
      },
      {
       "name": "flat",
       "type": "bool",
       "value": false
      },
      {
       "name": "z",
       "type": "int",
       "value": 0
      }
     ]
    },
    {
     "id": 107,
     "name": "tree-108",
     "type": "prop",
     "x": 808,
     "y": 704,
     "width": 0,
     "height": 0,
     "rotation": 0,
     "visible": true,
     "properties": [
      {
       "name": "prop",
       "type": "string",
       "value": "tree"
      },
      {
       "name": "blocks",
       "type": "bool",
       "value": false
      },
      {
       "name": "flat",
       "type": "bool",
       "value": false
      },
      {
       "name": "z",
       "type": "int",
       "value": 0
      }
     ]
    },
    {
     "id": 108,
     "name": "tree-109",
     "type": "prop",
     "x": 792,
     "y": 768,
     "width": 0,
     "height": 0,
     "rotation": 0,
     "visible": true,
     "properties": [
      {
       "name": "prop",
       "type": "string",
       "value": "tree"
      },
      {
       "name": "blocks",
       "type": "bool",
       "value": false
      },
      {
       "name": "flat",
       "type": "bool",
       "value": false
      },
      {
       "name": "z",
       "type": "int",
       "value": 0
      }
     ]
    },
    {
     "id": 109,
     "name": "tree-110",
     "type": "prop",
     "x": 1064,
     "y": 432,
     "width": 0,
     "height": 0,
     "rotation": 0,
     "visible": true,
     "properties": [
      {
       "name": "prop",
       "type": "string",
       "value": "tree"
      },
      {
       "name": "blocks",
       "type": "bool",
       "value": false
      },
      {
       "name": "flat",
       "type": "bool",
       "value": false
      },
      {
       "name": "z",
       "type": "int",
       "value": 0
      }
     ]
    },
    {
     "id": 110,
     "name": "tree-111",
     "type": "prop",
     "x": 1064,
     "y": 512,
     "width": 0,
     "height": 0,
     "rotation": 0,
     "visible": true,
     "properties": [
      {
       "name": "prop",
       "type": "string",
       "value": "tree"
      },
      {
       "name": "blocks",
       "type": "bool",
       "value": false
      },
      {
       "name": "flat",
       "type": "bool",
       "value": false
      },
      {
       "name": "z",
       "type": "int",
       "value": 0
      }
     ]
    },
    {
     "id": 111,
     "name": "tree-112",
     "type": "prop",
     "x": 1064,
     "y": 688,
     "width": 0,
     "height": 0,
     "rotation": 0,
     "visible": true,
     "properties": [
      {
       "name": "prop",
       "type": "string",
       "value": "tree"
      },
      {
       "name": "blocks",
       "type": "bool",
       "value": false
      },
      {
       "name": "flat",
       "type": "bool",
       "value": false
      },
      {
       "name": "z",
       "type": "int",
       "value": 0
      }
     ]
    },
    {
     "id": 112,
     "name": "tree-113",
     "type": "prop",
     "x": 1064,
     "y": 768,
     "width": 0,
     "height": 0,
     "rotation": 0,
     "visible": true,
     "properties": [
      {
       "name": "prop",
       "type": "string",
       "value": "tree"
      },
      {
       "name": "blocks",
       "type": "bool",
       "value": false
      },
      {
       "name": "flat",
       "type": "bool",
       "value": false
      },
      {
       "name": "z",
       "type": "int",
       "value": 0
      }
     ]
    },
    {
     "id": 113,
     "name": "tree-114",
     "type": "prop",
     "x": 920,
     "y": 400,
     "width": 0,
     "height": 0,
     "rotation": 0,
     "visible": true,
     "properties": [
      {
       "name": "prop",
       "type": "string",
       "value": "tree"
      },
      {
       "name": "blocks",
       "type": "bool",
       "value": false
      },
      {
       "name": "flat",
       "type": "bool",
       "value": false
      },
      {
       "name": "z",
       "type": "int",
       "value": 0
      }
     ]
    },
    {
     "id": 114,
     "name": "tree-115",
     "type": "prop",
     "x": 1016,
     "y": 400,
     "width": 0,
     "height": 0,
     "rotation": 0,
     "visible": true,
     "properties": [
      {
       "name": "prop",
       "type": "string",
       "value": "tree"
      },
      {
       "name": "blocks",
       "type": "bool",
       "value": false
      },
      {
       "name": "flat",
       "type": "bool",
       "value": false
      },
      {
       "name": "z",
       "type": "int",
       "value": 0
      }
     ]
    },
    {
     "id": 115,
     "name": "bush-116",
     "type": "prop",
     "x": 504,
     "y": 544,
     "width": 0,
     "height": 0,
     "rotation": 0,
     "visible": true,
     "properties": [
      {
       "name": "prop",
       "type": "string",
       "value": "bush"
      },
      {
       "name": "blocks",
       "type": "bool",
       "value": false
      },
      {
       "name": "flat",
       "type": "bool",
       "value": false
      },
      {
       "name": "z",
       "type": "int",
       "value": 0
      }
     ]
    },
    {
     "id": 116,
     "name": "bush-117",
     "type": "prop",
     "x": 744,
     "y": 688,
     "width": 0,
     "height": 0,
     "rotation": 0,
     "visible": true,
     "properties": [
      {
       "name": "prop",
       "type": "string",
       "value": "bush"
      },
      {
       "name": "blocks",
       "type": "bool",
       "value": false
      },
      {
       "name": "flat",
       "type": "bool",
       "value": false
      },
      {
       "name": "z",
       "type": "int",
       "value": 0
      }
     ]
    },
    {
     "id": 117,
     "name": "bush-118",
     "type": "prop",
     "x": 808,
     "y": 736,
     "width": 0,
     "height": 0,
     "rotation": 0,
     "visible": true,
     "properties": [
      {
       "name": "prop",
       "type": "string",
       "value": "bush"
      },
      {
       "name": "blocks",
       "type": "bool",
       "value": false
      },
      {
       "name": "flat",
       "type": "bool",
       "value": false
      },
      {
       "name": "z",
       "type": "int",
       "value": 0
      }
     ]
    },
    {
     "id": 118,
     "name": "bush-119",
     "type": "prop",
     "x": 1080,
     "y": 560,
     "width": 0,
     "height": 0,
     "rotation": 0,
     "visible": true,
     "properties": [
      {
       "name": "prop",
       "type": "string",
       "value": "bush"
      },
      {
       "name": "blocks",
       "type": "bool",
       "value": false
      },
      {
       "name": "flat",
       "type": "bool",
       "value": false
      },
      {
       "name": "z",
       "type": "int",
       "value": 0
      }
     ]
    },
    {
     "id": 119,
     "name": "bush-120",
     "type": "prop",
     "x": 552,
     "y": 400,
     "width": 0,
     "height": 0,
     "rotation": 0,
     "visible": true,
     "properties": [
      {
       "name": "prop",
       "type": "string",
       "value": "bush"
      },
      {
       "name": "blocks",
       "type": "bool",
       "value": false
      },
      {
       "name": "flat",
       "type": "bool",
       "value": false
      },
      {
       "name": "z",
       "type": "int",
       "value": 0
      }
     ]
    },
    {
     "id": 120,
     "name": "bush-121",
     "type": "prop",
     "x": 632,
     "y": 800,
     "width": 0,
     "height": 0,
     "rotation": 0,
     "visible": true,
     "properties": [
      {
       "name": "prop",
       "type": "string",
       "value": "bush"
      },
      {
       "name": "blocks",
       "type": "bool",
       "value": false
      },
      {
       "name": "flat",
       "type": "bool",
       "value": false
      },
      {
       "name": "z",
       "type": "int",
       "value": 0
      }
     ]
    },
    {
     "id": 121,
     "name": "bush-122",
     "type": "prop",
     "x": 968,
     "y": 800,
     "width": 0,
     "height": 0,
     "rotation": 0,
     "visible": true,
     "properties": [
      {
       "name": "prop",
       "type": "string",
       "value": "bush"
      },
      {
       "name": "blocks",
       "type": "bool",
       "value": false
      },
      {
       "name": "flat",
       "type": "bool",
       "value": false
      },
      {
       "name": "z",
       "type": "int",
       "value": 0
      }
     ]
    },
    {
     "id": 122,
     "name": "sign-123",
     "type": "prop",
     "x": 600,
     "y": 544,
     "width": 0,
     "height": 0,
     "rotation": 0,
     "visible": true,
     "properties": [
      {
       "name": "prop",
       "type": "string",
       "value": "sign"
      },
      {
       "name": "blocks",
       "type": "bool",
       "value": false
      },
      {
       "name": "flat",
       "type": "bool",
       "value": false
      },
      {
       "name": "z",
       "type": "int",
       "value": 0
      }
     ]
    },
    {
     "id": 123,
     "name": "sign-124",
     "type": "prop",
     "x": 936,
     "y": 544,
     "width": 0,
     "height": 0,
     "rotation": 0,
     "visible": true,
     "properties": [
      {
       "name": "prop",
       "type": "string",
       "value": "sign"
      },
      {
       "name": "blocks",
       "type": "bool",
       "value": false
      },
      {
       "name": "flat",
       "type": "bool",
       "value": false
      },
      {
       "name": "z",
       "type": "int",
       "value": 0
      }
     ]
    },
    {
     "id": 124,
     "name": "sign-125",
     "type": "prop",
     "x": 568,
     "y": 624,
     "width": 0,
     "height": 0,
     "rotation": 0,
     "visible": true,
     "properties": [
      {
       "name": "prop",
       "type": "string",
       "value": "sign"
      },
      {
       "name": "blocks",
       "type": "bool",
       "value": false
      },
      {
       "name": "flat",
       "type": "bool",
       "value": false
      },
      {
       "name": "z",
       "type": "int",
       "value": 0
      }
     ]
    },
    {
     "id": 125,
     "name": "sign-126",
     "type": "prop",
     "x": 904,
     "y": 656,
     "width": 0,
     "height": 0,
     "rotation": 0,
     "visible": true,
     "properties": [
      {
       "name": "prop",
       "type": "string",
       "value": "sign"
      },
      {
       "name": "blocks",
       "type": "bool",
       "value": false
      },
      {
       "name": "flat",
       "type": "bool",
       "value": false
      },
      {
       "name": "z",
       "type": "int",
       "value": 0
      }
     ]
    },
    {
     "id": 126,
     "name": "lamp-127",
     "type": "prop",
     "x": 744,
     "y": 480,
     "width": 0,
     "height": 0,
     "rotation": 0,
     "visible": true,
     "properties": [
      {
       "name": "prop",
       "type": "string",
       "value": "lamp"
      },
      {
       "name": "blocks",
       "type": "bool",
       "value": false
      },
      {
       "name": "flat",
       "type": "bool",
       "value": false
      },
      {
       "name": "z",
       "type": "int",
       "value": 0
      }
     ]
    },
    {
     "id": 127,
     "name": "lamp-128",
     "type": "prop",
     "x": 792,
     "y": 512,
     "width": 0,
     "height": 0,
     "rotation": 0,
     "visible": true,
     "properties": [
      {
       "name": "prop",
       "type": "string",
       "value": "lamp"
      },
      {
       "name": "blocks",
       "type": "bool",
       "value": false
      },
      {
       "name": "flat",
       "type": "bool",
       "value": false
      },
      {
       "name": "z",
       "type": "int",
       "value": 0
      }
     ]
    },
    {
     "id": 128,
     "name": "lamp-129",
     "type": "prop",
     "x": 744,
     "y": 736,
     "width": 0,
     "height": 0,
     "rotation": 0,
     "visible": true,
     "properties": [
      {
       "name": "prop",
       "type": "string",
       "value": "lamp"
      },
      {
       "name": "blocks",
       "type": "bool",
       "value": false
      },
      {
       "name": "flat",
       "type": "bool",
       "value": false
      },
      {
       "name": "z",
       "type": "int",
       "value": 0
      }
     ]
    },
    {
     "id": 129,
     "name": "lamp-130",
     "type": "prop",
     "x": 792,
     "y": 736,
     "width": 0,
     "height": 0,
     "rotation": 0,
     "visible": true,
     "properties": [
      {
       "name": "prop",
       "type": "string",
       "value": "lamp"
      },
      {
       "name": "blocks",
       "type": "bool",
       "value": false
      },
      {
       "name": "flat",
       "type": "bool",
       "value": false
      },
      {
       "name": "z",
       "type": "int",
       "value": 0
      }
     ]
    },
    {
     "id": 130,
     "name": "bench-131",
     "type": "prop",
     "x": 672,
     "y": 560,
     "width": 0,
     "height": 0,
     "rotation": 0,
     "visible": true,
     "properties": [
      {
       "name": "prop",
       "type": "string",
       "value": "bench"
      },
      {
       "name": "blocks",
       "type": "bool",
       "value": false
      },
      {
       "name": "flat",
       "type": "bool",
       "value": false
      },
      {
       "name": "z",
       "type": "int",
       "value": 0
      }
     ]
    },
    {
     "id": 131,
     "name": "bench-132",
     "type": "prop",
     "x": 512,
     "y": 560,
     "width": 0,
     "height": 0,
     "rotation": 0,
     "visible": true,
     "properties": [
      {
       "name": "prop",
       "type": "string",
       "value": "bench"
      },
      {
       "name": "blocks",
       "type": "bool",
       "value": false
      },
      {
       "name": "flat",
       "type": "bool",
       "value": false
      },
      {
       "name": "z",
       "type": "int",
       "value": 0
      }
     ]
    },
    {
     "id": 132,
     "name": "bench-133",
     "type": "prop",
     "x": 864,
     "y": 640,
     "width": 0,
     "height": 0,
     "rotation": 0,
     "visible": true,
     "properties": [
      {
       "name": "prop",
       "type": "string",
       "value": "bench"
      },
      {
       "name": "blocks",
       "type": "bool",
       "value": false
      },
      {
       "name": "flat",
       "type": "bool",
       "value": false
      },
      {
       "name": "z",
       "type": "int",
       "value": 0
      }
     ]
    },
    {
     "id": 133,
     "name": "bench-134",
     "type": "prop",
     "x": 1024,
     "y": 640,
     "width": 0,
     "height": 0,
     "rotation": 0,
     "visible": true,
     "properties": [
      {
       "name": "prop",
       "type": "string",
       "value": "bench"
      },
      {
       "name": "blocks",
       "type": "bool",
       "value": false
      },
      {
       "name": "flat",
       "type": "bool",
       "value": false
      },
      {
       "name": "z",
       "type": "int",
       "value": 0
      }
     ]
    },
    {
     "id": 134,
     "name": "flowerbed-135",
     "type": "prop",
     "x": 736,
     "y": 400,
     "width": 0,
     "height": 0,
     "rotation": 0,
     "visible": true,
     "properties": [
      {
       "name": "prop",
       "type": "string",
       "value": "flowerbed"
      },
      {
       "name": "blocks",
       "type": "bool",
       "value": false
      },
      {
       "name": "flat",
       "type": "bool",
       "value": false
      },
      {
       "name": "z",
       "type": "int",
       "value": 0
      }
     ]
    },
    {
     "id": 135,
     "name": "barrel-136",
     "type": "prop",
     "x": 808,
     "y": 480,
     "width": 0,
     "height": 0,
     "rotation": 0,
     "visible": true,
     "properties": [
      {
       "name": "prop",
       "type": "string",
       "value": "barrel"
      },
      {
       "name": "blocks",
       "type": "bool",
       "value": false
      },
      {
       "name": "flat",
       "type": "bool",
       "value": false
      },
      {
       "name": "z",
       "type": "int",
       "value": 0
      }
     ]
    },
    {
     "id": 136,
     "name": "crate-fruit-137",
     "type": "prop",
     "x": 856,
     "y": 480,
     "width": 0,
     "height": 0,
     "rotation": 0,
     "visible": true,
     "properties": [
      {
       "name": "prop",
       "type": "string",
       "value": "crate-fruit"
      },
      {
       "name": "blocks",
       "type": "bool",
       "value": false
      },
      {
       "name": "flat",
       "type": "bool",
       "value": false
      },
      {
       "name": "z",
       "type": "int",
       "value": 0
      }
     ]
    },
    {
     "id": 137,
     "name": "sign-138",
     "type": "prop",
     "x": 376,
     "y": 256,
     "width": 0,
     "height": 0,
     "rotation": 0,
     "visible": true,
     "properties": [
      {
       "name": "prop",
       "type": "string",
       "value": "sign"
      },
      {
       "name": "blocks",
       "type": "bool",
       "value": false
      },
      {
       "name": "flat",
       "type": "bool",
       "value": false
      },
      {
       "name": "z",
       "type": "int",
       "value": 0
      }
     ]
    },
    {
     "id": 138,
     "name": "sign-139",
     "type": "prop",
     "x": 904,
     "y": 256,
     "width": 0,
     "height": 0,
     "rotation": 0,
     "visible": true,
     "properties": [
      {
       "name": "prop",
       "type": "string",
       "value": "sign"
      },
      {
       "name": "blocks",
       "type": "bool",
       "value": false
      },
      {
       "name": "flat",
       "type": "bool",
       "value": false
      },
      {
       "name": "z",
       "type": "int",
       "value": 0
      }
     ]
    },
    {
     "id": 139,
     "name": "sign-140",
     "type": "prop",
     "x": 1128,
     "y": 256,
     "width": 0,
     "height": 0,
     "rotation": 0,
     "visible": true,
     "properties": [
      {
       "name": "prop",
       "type": "string",
       "value": "sign"
      },
      {
       "name": "blocks",
       "type": "bool",
       "value": false
      },
      {
       "name": "flat",
       "type": "bool",
       "value": false
      },
      {
       "name": "z",
       "type": "int",
       "value": 0
      }
     ]
    },
    {
     "id": 140,
     "name": "sign-141",
     "type": "prop",
     "x": 184,
     "y": 576,
     "width": 0,
     "height": 0,
     "rotation": 0,
     "visible": true,
     "properties": [
      {
       "name": "prop",
       "type": "string",
       "value": "sign"
      },
      {
       "name": "blocks",
       "type": "bool",
       "value": false
      },
      {
       "name": "flat",
       "type": "bool",
       "value": false
      },
      {
       "name": "z",
       "type": "int",
       "value": 0
      }
     ]
    },
    {
     "id": 141,
     "name": "sign-142",
     "type": "prop",
     "x": 1224,
     "y": 576,
     "width": 0,
     "height": 0,
     "rotation": 0,
     "visible": true,
     "properties": [
      {
       "name": "prop",
       "type": "string",
       "value": "sign"
      },
      {
       "name": "blocks",
       "type": "bool",
       "value": false
      },
      {
       "name": "flat",
       "type": "bool",
       "value": false
      },
      {
       "name": "z",
       "type": "int",
       "value": 0
      }
     ]
    },
    {
     "id": 142,
     "name": "sign-143",
     "type": "prop",
     "x": 1400,
     "y": 576,
     "width": 0,
     "height": 0,
     "rotation": 0,
     "visible": true,
     "properties": [
      {
       "name": "prop",
       "type": "string",
       "value": "sign"
      },
      {
       "name": "blocks",
       "type": "bool",
       "value": false
      },
      {
       "name": "flat",
       "type": "bool",
       "value": false
      },
      {
       "name": "z",
       "type": "int",
       "value": 0
      }
     ]
    },
    {
     "id": 143,
     "name": "sign-144",
     "type": "prop",
     "x": 1288,
     "y": 624,
     "width": 0,
     "height": 0,
     "rotation": 0,
     "visible": true,
     "properties": [
      {
       "name": "prop",
       "type": "string",
       "value": "sign"
      },
      {
       "name": "blocks",
       "type": "bool",
       "value": false
      },
      {
       "name": "flat",
       "type": "bool",
       "value": false
      },
      {
       "name": "z",
       "type": "int",
       "value": 0
      }
     ]
    },
    {
     "id": 144,
     "name": "sign-zone-145",
     "type": "prop",
     "x": 792,
     "y": 336,
     "width": 0,
     "height": 0,
     "rotation": 0,
     "visible": true,
     "properties": [
      {
       "name": "prop",
       "type": "string",
       "value": "sign-zone"
      },
      {
       "name": "blocks",
       "type": "bool",
       "value": false
      },
      {
       "name": "flat",
       "type": "bool",
       "value": false
      },
      {
       "name": "z",
       "type": "int",
       "value": 0
      },
      {
       "name": "zone",
       "type": "string",
       "value": "sabana"
      }
     ]
    },
    {
     "id": 145,
     "name": "sign-zone-146",
     "type": "prop",
     "x": 392,
     "y": 576,
     "width": 0,
     "height": 0,
     "rotation": 0,
     "visible": true,
     "properties": [
      {
       "name": "prop",
       "type": "string",
       "value": "sign-zone"
      },
      {
       "name": "blocks",
       "type": "bool",
       "value": false
      },
      {
       "name": "flat",
       "type": "bool",
       "value": false
      },
      {
       "name": "z",
       "type": "int",
       "value": 0
      },
      {
       "name": "zone",
       "type": "string",
       "value": "polo"
      }
     ]
    },
    {
     "id": 146,
     "name": "sign-zone-147",
     "type": "prop",
     "x": 1128,
     "y": 576,
     "width": 0,
     "height": 0,
     "rotation": 0,
     "visible": true,
     "properties": [
      {
       "name": "prop",
       "type": "string",
       "value": "sign-zone"
      },
      {
       "name": "blocks",
       "type": "bool",
       "value": false
      },
      {
       "name": "flat",
       "type": "bool",
       "value": false
      },
      {
       "name": "z",
       "type": "int",
       "value": 0
      },
      {
       "name": "zone",
       "type": "string",
       "value": "granja"
      }
     ]
    },
    {
     "id": 147,
     "name": "tree-148",
     "type": "prop",
     "x": 168,
     "y": 112,
     "width": 0,
     "height": 0,
     "rotation": 0,
     "visible": true,
     "properties": [
      {
       "name": "prop",
       "type": "string",
       "value": "tree"
      },
      {
       "name": "blocks",
       "type": "bool",
       "value": false
      },
      {
       "name": "flat",
       "type": "bool",
       "value": false
      },
      {
       "name": "z",
       "type": "int",
       "value": 0
      }
     ]
    },
    {
     "id": 148,
     "name": "tree-149",
     "type": "prop",
     "x": 168,
     "y": 208,
     "width": 0,
     "height": 0,
     "rotation": 0,
     "visible": true,
     "properties": [
      {
       "name": "prop",
       "type": "string",
       "value": "tree"
      },
      {
       "name": "blocks",
       "type": "bool",
       "value": false
      },
      {
       "name": "flat",
       "type": "bool",
       "value": false
      },
      {
       "name": "z",
       "type": "int",
       "value": 0
      }
     ]
    },
    {
     "id": 149,
     "name": "tree-150",
     "type": "prop",
     "x": 616,
     "y": 112,
     "width": 0,
     "height": 0,
     "rotation": 0,
     "visible": true,
     "properties": [
      {
       "name": "prop",
       "type": "string",
       "value": "tree"
      },
      {
       "name": "blocks",
       "type": "bool",
       "value": false
      },
      {
       "name": "flat",
       "type": "bool",
       "value": false
      },
      {
       "name": "z",
       "type": "int",
       "value": 0
      }
     ]
    },
    {
     "id": 150,
     "name": "tree-151",
     "type": "prop",
     "x": 616,
     "y": 208,
     "width": 0,
     "height": 0,
     "rotation": 0,
     "visible": true,
     "properties": [
      {
       "name": "prop",
       "type": "string",
       "value": "tree"
      },
      {
       "name": "blocks",
       "type": "bool",
       "value": false
      },
      {
       "name": "flat",
       "type": "bool",
       "value": false
      },
      {
       "name": "z",
       "type": "int",
       "value": 0
      }
     ]
    },
    {
     "id": 151,
     "name": "tree-152",
     "type": "prop",
     "x": 712,
     "y": 160,
     "width": 0,
     "height": 0,
     "rotation": 0,
     "visible": true,
     "properties": [
      {
       "name": "prop",
       "type": "string",
       "value": "tree"
      },
      {
       "name": "blocks",
       "type": "bool",
       "value": false
      },
      {
       "name": "flat",
       "type": "bool",
       "value": false
      },
      {
       "name": "z",
       "type": "int",
       "value": 0
      }
     ]
    },
    {
     "id": 152,
     "name": "tree-153",
     "type": "prop",
     "x": 808,
     "y": 160,
     "width": 0,
     "height": 0,
     "rotation": 0,
     "visible": true,
     "properties": [
      {
       "name": "prop",
       "type": "string",
       "value": "tree"
      },
      {
       "name": "blocks",
       "type": "bool",
       "value": false
      },
      {
       "name": "flat",
       "type": "bool",
       "value": false
      },
      {
       "name": "z",
       "type": "int",
       "value": 0
      }
     ]
    },
    {
     "id": 153,
     "name": "tree-154",
     "type": "prop",
     "x": 1288,
     "y": 112,
     "width": 0,
     "height": 0,
     "rotation": 0,
     "visible": true,
     "properties": [
      {
       "name": "prop",
       "type": "string",
       "value": "tree"
      },
      {
       "name": "blocks",
       "type": "bool",
       "value": false
      },
      {
       "name": "flat",
       "type": "bool",
       "value": false
      },
      {
       "name": "z",
       "type": "int",
       "value": 0
      }
     ]
    },
    {
     "id": 154,
     "name": "tree-155",
     "type": "prop",
     "x": 1288,
     "y": 208,
     "width": 0,
     "height": 0,
     "rotation": 0,
     "visible": true,
     "properties": [
      {
       "name": "prop",
       "type": "string",
       "value": "tree"
      },
      {
       "name": "blocks",
       "type": "bool",
       "value": false
      },
      {
       "name": "flat",
       "type": "bool",
       "value": false
      },
      {
       "name": "z",
       "type": "int",
       "value": 0
      }
     ]
    },
    {
     "id": 155,
     "name": "tree-156",
     "type": "prop",
     "x": 488,
     "y": 336,
     "width": 0,
     "height": 0,
     "rotation": 0,
     "visible": true,
     "properties": [
      {
       "name": "prop",
       "type": "string",
       "value": "tree"
      },
      {
       "name": "blocks",
       "type": "bool",
       "value": false
      },
      {
       "name": "flat",
       "type": "bool",
       "value": false
      },
      {
       "name": "z",
       "type": "int",
       "value": 0
      }
     ]
    },
    {
     "id": 156,
     "name": "tree-157",
     "type": "prop",
     "x": 1032,
     "y": 336,
     "width": 0,
     "height": 0,
     "rotation": 0,
     "visible": true,
     "properties": [
      {
       "name": "prop",
       "type": "string",
       "value": "tree"
      },
      {
       "name": "blocks",
       "type": "bool",
       "value": false
      },
      {
       "name": "flat",
       "type": "bool",
       "value": false
      },
      {
       "name": "z",
       "type": "int",
       "value": 0
      }
     ]
    },
    {
     "id": 157,
     "name": "tree-158",
     "type": "prop",
     "x": 136,
     "y": 336,
     "width": 0,
     "height": 0,
     "rotation": 0,
     "visible": true,
     "properties": [
      {
       "name": "prop",
       "type": "string",
       "value": "tree"
      },
      {
       "name": "blocks",
       "type": "bool",
       "value": false
      },
      {
       "name": "flat",
       "type": "bool",
       "value": false
      },
      {
       "name": "z",
       "type": "int",
       "value": 0
      }
     ]
    },
    {
     "id": 158,
     "name": "tree-159",
     "type": "prop",
     "x": 1384,
     "y": 336,
     "width": 0,
     "height": 0,
     "rotation": 0,
     "visible": true,
     "properties": [
      {
       "name": "prop",
       "type": "string",
       "value": "tree"
      },
      {
       "name": "blocks",
       "type": "bool",
       "value": false
      },
      {
       "name": "flat",
       "type": "bool",
       "value": false
      },
      {
       "name": "z",
       "type": "int",
       "value": 0
      }
     ]
    },
    {
     "id": 159,
     "name": "tree-160",
     "type": "prop",
     "x": 56,
     "y": 496,
     "width": 0,
     "height": 0,
     "rotation": 0,
     "visible": true,
     "properties": [
      {
       "name": "prop",
       "type": "string",
       "value": "tree"
      },
      {
       "name": "blocks",
       "type": "bool",
       "value": false
      },
      {
       "name": "flat",
       "type": "bool",
       "value": false
      },
      {
       "name": "z",
       "type": "int",
       "value": 0
      }
     ]
    },
    {
     "id": 160,
     "name": "tree-161",
     "type": "prop",
     "x": 376,
     "y": 496,
     "width": 0,
     "height": 0,
     "rotation": 0,
     "visible": true,
     "properties": [
      {
       "name": "prop",
       "type": "string",
       "value": "tree"
      },
      {
       "name": "blocks",
       "type": "bool",
       "value": false
      },
      {
       "name": "flat",
       "type": "bool",
       "value": false
      },
      {
       "name": "z",
       "type": "int",
       "value": 0
      }
     ]
    },
    {
     "id": 161,
     "name": "tree-162",
     "type": "prop",
     "x": 136,
     "y": 656,
     "width": 0,
     "height": 0,
     "rotation": 0,
     "visible": true,
     "properties": [
      {
       "name": "prop",
       "type": "string",
       "value": "tree"
      },
      {
       "name": "blocks",
       "type": "bool",
       "value": false
      },
      {
       "name": "flat",
       "type": "bool",
       "value": false
      },
      {
       "name": "z",
       "type": "int",
       "value": 0
      }
     ]
    },
    {
     "id": 162,
     "name": "tree-163",
     "type": "prop",
     "x": 264,
     "y": 688,
     "width": 0,
     "height": 0,
     "rotation": 0,
     "visible": true,
     "properties": [
      {
       "name": "prop",
       "type": "string",
       "value": "tree"
      },
      {
       "name": "blocks",
       "type": "bool",
       "value": false
      },
      {
       "name": "flat",
       "type": "bool",
       "value": false
      },
      {
       "name": "z",
       "type": "int",
       "value": 0
      }
     ]
    },
    {
     "id": 163,
     "name": "tree-164",
     "type": "prop",
     "x": 360,
     "y": 752,
     "width": 0,
     "height": 0,
     "rotation": 0,
     "visible": true,
     "properties": [
      {
       "name": "prop",
       "type": "string",
       "value": "tree"
      },
      {
       "name": "blocks",
       "type": "bool",
       "value": false
      },
      {
       "name": "flat",
       "type": "bool",
       "value": false
      },
      {
       "name": "z",
       "type": "int",
       "value": 0
      }
     ]
    },
    {
     "id": 164,
     "name": "tree-165",
     "type": "prop",
     "x": 72,
     "y": 816,
     "width": 0,
     "height": 0,
     "rotation": 0,
     "visible": true,
     "properties": [
      {
       "name": "prop",
       "type": "string",
       "value": "tree"
      },
      {
       "name": "blocks",
       "type": "bool",
       "value": false
      },
      {
       "name": "flat",
       "type": "bool",
       "value": false
      },
      {
       "name": "z",
       "type": "int",
       "value": 0
      }
     ]
    },
    {
     "id": 165,
     "name": "tree-166",
     "type": "prop",
     "x": 232,
     "y": 848,
     "width": 0,
     "height": 0,
     "rotation": 0,
     "visible": true,
     "properties": [
      {
       "name": "prop",
       "type": "string",
       "value": "tree"
      },
      {
       "name": "blocks",
       "type": "bool",
       "value": false
      },
      {
       "name": "flat",
       "type": "bool",
       "value": false
      },
      {
       "name": "z",
       "type": "int",
       "value": 0
      }
     ]
    },
    {
     "id": 166,
     "name": "tree-167",
     "type": "prop",
     "x": 1144,
     "y": 720,
     "width": 0,
     "height": 0,
     "rotation": 0,
     "visible": true,
     "properties": [
      {
       "name": "prop",
       "type": "string",
       "value": "tree"
      },
      {
       "name": "blocks",
       "type": "bool",
       "value": false
      },
      {
       "name": "flat",
       "type": "bool",
       "value": false
      },
      {
       "name": "z",
       "type": "int",
       "value": 0
      }
     ]
    },
    {
     "id": 167,
     "name": "tree-168",
     "type": "prop",
     "x": 1480,
     "y": 688,
     "width": 0,
     "height": 0,
     "rotation": 0,
     "visible": true,
     "properties": [
      {
       "name": "prop",
       "type": "string",
       "value": "tree"
      },
      {
       "name": "blocks",
       "type": "bool",
       "value": false
      },
      {
       "name": "flat",
       "type": "bool",
       "value": false
      },
      {
       "name": "z",
       "type": "int",
       "value": 0
      }
     ]
    },
    {
     "id": 168,
     "name": "tree-169",
     "type": "prop",
     "x": 1288,
     "y": 848,
     "width": 0,
     "height": 0,
     "rotation": 0,
     "visible": true,
     "properties": [
      {
       "name": "prop",
       "type": "string",
       "value": "tree"
      },
      {
       "name": "blocks",
       "type": "bool",
       "value": false
      },
      {
       "name": "flat",
       "type": "bool",
       "value": false
      },
      {
       "name": "z",
       "type": "int",
       "value": 0
      }
     ]
    },
    {
     "id": 169,
     "name": "tree-170",
     "type": "prop",
     "x": 1448,
     "y": 848,
     "width": 0,
     "height": 0,
     "rotation": 0,
     "visible": true,
     "properties": [
      {
       "name": "prop",
       "type": "string",
       "value": "tree"
      },
      {
       "name": "blocks",
       "type": "bool",
       "value": false
      },
      {
       "name": "flat",
       "type": "bool",
       "value": false
      },
      {
       "name": "z",
       "type": "int",
       "value": 0
      }
     ]
    },
    {
     "id": 170,
     "name": "tree-171",
     "type": "prop",
     "x": 1192,
     "y": 368,
     "width": 0,
     "height": 0,
     "rotation": 0,
     "visible": true,
     "properties": [
      {
       "name": "prop",
       "type": "string",
       "value": "tree"
      },
      {
       "name": "blocks",
       "type": "bool",
       "value": false
      },
      {
       "name": "flat",
       "type": "bool",
       "value": false
      },
      {
       "name": "z",
       "type": "int",
       "value": 0
      }
     ]
    },
    {
     "id": 171,
     "name": "tree-172",
     "type": "prop",
     "x": 1384,
     "y": 368,
     "width": 0,
     "height": 0,
     "rotation": 0,
     "visible": true,
     "properties": [
      {
       "name": "prop",
       "type": "string",
       "value": "tree"
      },
      {
       "name": "blocks",
       "type": "bool",
       "value": false
      },
      {
       "name": "flat",
       "type": "bool",
       "value": false
      },
      {
       "name": "z",
       "type": "int",
       "value": 0
      }
     ]
    },
    {
     "id": 172,
     "name": "bush-173",
     "type": "prop",
     "x": 200,
     "y": 336,
     "width": 0,
     "height": 0,
     "rotation": 0,
     "visible": true,
     "properties": [
      {
       "name": "prop",
       "type": "string",
       "value": "bush"
      },
      {
       "name": "blocks",
       "type": "bool",
       "value": false
      },
      {
       "name": "flat",
       "type": "bool",
       "value": false
      },
      {
       "name": "z",
       "type": "int",
       "value": 0
      }
     ]
    },
    {
     "id": 173,
     "name": "bush-174",
     "type": "prop",
     "x": 648,
     "y": 272,
     "width": 0,
     "height": 0,
     "rotation": 0,
     "visible": true,
     "properties": [
      {
       "name": "prop",
       "type": "string",
       "value": "bush"
      },
      {
       "name": "blocks",
       "type": "bool",
       "value": false
      },
      {
       "name": "flat",
       "type": "bool",
       "value": false
      },
      {
       "name": "z",
       "type": "int",
       "value": 0
      }
     ]
    },
    {
     "id": 174,
     "name": "bush-175",
     "type": "prop",
     "x": 1000,
     "y": 272,
     "width": 0,
     "height": 0,
     "rotation": 0,
     "visible": true,
     "properties": [
      {
       "name": "prop",
       "type": "string",
       "value": "bush"
      },
      {
       "name": "blocks",
       "type": "bool",
       "value": false
      },
      {
       "name": "flat",
       "type": "bool",
       "value": false
      },
      {
       "name": "z",
       "type": "int",
       "value": 0
      }
     ]
    },
    {
     "id": 175,
     "name": "bush-176",
     "type": "prop",
     "x": 104,
     "y": 624,
     "width": 0,
     "height": 0,
     "rotation": 0,
     "visible": true,
     "properties": [
      {
       "name": "prop",
       "type": "string",
       "value": "bush"
      },
      {
       "name": "blocks",
       "type": "bool",
       "value": false
      },
      {
       "name": "flat",
       "type": "bool",
       "value": false
      },
      {
       "name": "z",
       "type": "int",
       "value": 0
      }
     ]
    },
    {
     "id": 176,
     "name": "bush-177",
     "type": "prop",
     "x": 1448,
     "y": 624,
     "width": 0,
     "height": 0,
     "rotation": 0,
     "visible": true,
     "properties": [
      {
       "name": "prop",
       "type": "string",
       "value": "bush"
      },
      {
       "name": "blocks",
       "type": "bool",
       "value": false
      },
      {
       "name": "flat",
       "type": "bool",
       "value": false
      },
      {
       "name": "z",
       "type": "int",
       "value": 0
      }
     ]
    },
    {
     "id": 177,
     "name": "bench-178",
     "type": "prop",
     "x": 496,
     "y": 272,
     "width": 0,
     "height": 0,
     "rotation": 0,
     "visible": true,
     "properties": [
      {
       "name": "prop",
       "type": "string",
       "value": "bench"
      },
      {
       "name": "blocks",
       "type": "bool",
       "value": false
      },
      {
       "name": "flat",
       "type": "bool",
       "value": false
      },
      {
       "name": "z",
       "type": "int",
       "value": 0
      }
     ]
    },
    {
     "id": 178,
     "name": "bench-179",
     "type": "prop",
     "x": 176,
     "y": 624,
     "width": 0,
     "height": 0,
     "rotation": 0,
     "visible": true,
     "properties": [
      {
       "name": "prop",
       "type": "string",
       "value": "bench"
      },
      {
       "name": "blocks",
       "type": "bool",
       "value": false
      },
      {
       "name": "flat",
       "type": "bool",
       "value": false
      },
      {
       "name": "z",
       "type": "int",
       "value": 0
      }
     ]
    },
    {
     "id": 179,
     "name": "bench-180",
     "type": "prop",
     "x": 1168,
     "y": 624,
     "width": 0,
     "height": 0,
     "rotation": 0,
     "visible": true,
     "properties": [
      {
       "name": "prop",
       "type": "string",
       "value": "bench"
      },
      {
       "name": "blocks",
       "type": "bool",
       "value": false
      },
      {
       "name": "flat",
       "type": "bool",
       "value": false
      },
      {
       "name": "z",
       "type": "int",
       "value": 0
      }
     ]
    },
    {
     "id": 180,
     "name": "park-wall-181",
     "type": "prop",
     "x": 16,
     "y": 32,
     "width": 0,
     "height": 0,
     "rotation": 0,
     "visible": true,
     "properties": [
      {
       "name": "prop",
       "type": "string",
       "value": "park-wall"
      },
      {
       "name": "blocks",
       "type": "bool",
       "value": false
      },
      {
       "name": "flat",
       "type": "bool",
       "value": false
      },
      {
       "name": "z",
       "type": "int",
       "value": 0
      }
     ]
    },
    {
     "id": 181,
     "name": "park-wall-182",
     "type": "prop",
     "x": 48,
     "y": 32,
     "width": 0,
     "height": 0,
     "rotation": 0,
     "visible": true,
     "properties": [
      {
       "name": "prop",
       "type": "string",
       "value": "park-wall"
      },
      {
       "name": "blocks",
       "type": "bool",
       "value": false
      },
      {
       "name": "flat",
       "type": "bool",
       "value": false
      },
      {
       "name": "z",
       "type": "int",
       "value": 0
      }
     ]
    },
    {
     "id": 182,
     "name": "park-wall-183",
     "type": "prop",
     "x": 80,
     "y": 32,
     "width": 0,
     "height": 0,
     "rotation": 0,
     "visible": true,
     "properties": [
      {
       "name": "prop",
       "type": "string",
       "value": "park-wall"
      },
      {
       "name": "blocks",
       "type": "bool",
       "value": false
      },
      {
       "name": "flat",
       "type": "bool",
       "value": false
      },
      {
       "name": "z",
       "type": "int",
       "value": 0
      }
     ]
    },
    {
     "id": 183,
     "name": "park-wall-184",
     "type": "prop",
     "x": 112,
     "y": 32,
     "width": 0,
     "height": 0,
     "rotation": 0,
     "visible": true,
     "properties": [
      {
       "name": "prop",
       "type": "string",
       "value": "park-wall"
      },
      {
       "name": "blocks",
       "type": "bool",
       "value": false
      },
      {
       "name": "flat",
       "type": "bool",
       "value": false
      },
      {
       "name": "z",
       "type": "int",
       "value": 0
      }
     ]
    },
    {
     "id": 184,
     "name": "park-wall-185",
     "type": "prop",
     "x": 144,
     "y": 32,
     "width": 0,
     "height": 0,
     "rotation": 0,
     "visible": true,
     "properties": [
      {
       "name": "prop",
       "type": "string",
       "value": "park-wall"
      },
      {
       "name": "blocks",
       "type": "bool",
       "value": false
      },
      {
       "name": "flat",
       "type": "bool",
       "value": false
      },
      {
       "name": "z",
       "type": "int",
       "value": 0
      }
     ]
    },
    {
     "id": 185,
     "name": "park-wall-186",
     "type": "prop",
     "x": 176,
     "y": 32,
     "width": 0,
     "height": 0,
     "rotation": 0,
     "visible": true,
     "properties": [
      {
       "name": "prop",
       "type": "string",
       "value": "park-wall"
      },
      {
       "name": "blocks",
       "type": "bool",
       "value": false
      },
      {
       "name": "flat",
       "type": "bool",
       "value": false
      },
      {
       "name": "z",
       "type": "int",
       "value": 0
      }
     ]
    },
    {
     "id": 186,
     "name": "park-wall-187",
     "type": "prop",
     "x": 208,
     "y": 32,
     "width": 0,
     "height": 0,
     "rotation": 0,
     "visible": true,
     "properties": [
      {
       "name": "prop",
       "type": "string",
       "value": "park-wall"
      },
      {
       "name": "blocks",
       "type": "bool",
       "value": false
      },
      {
       "name": "flat",
       "type": "bool",
       "value": false
      },
      {
       "name": "z",
       "type": "int",
       "value": 0
      }
     ]
    },
    {
     "id": 187,
     "name": "park-wall-188",
     "type": "prop",
     "x": 240,
     "y": 32,
     "width": 0,
     "height": 0,
     "rotation": 0,
     "visible": true,
     "properties": [
      {
       "name": "prop",
       "type": "string",
       "value": "park-wall"
      },
      {
       "name": "blocks",
       "type": "bool",
       "value": false
      },
      {
       "name": "flat",
       "type": "bool",
       "value": false
      },
      {
       "name": "z",
       "type": "int",
       "value": 0
      }
     ]
    },
    {
     "id": 188,
     "name": "park-wall-189",
     "type": "prop",
     "x": 272,
     "y": 32,
     "width": 0,
     "height": 0,
     "rotation": 0,
     "visible": true,
     "properties": [
      {
       "name": "prop",
       "type": "string",
       "value": "park-wall"
      },
      {
       "name": "blocks",
       "type": "bool",
       "value": false
      },
      {
       "name": "flat",
       "type": "bool",
       "value": false
      },
      {
       "name": "z",
       "type": "int",
       "value": 0
      }
     ]
    },
    {
     "id": 189,
     "name": "park-wall-190",
     "type": "prop",
     "x": 304,
     "y": 32,
     "width": 0,
     "height": 0,
     "rotation": 0,
     "visible": true,
     "properties": [
      {
       "name": "prop",
       "type": "string",
       "value": "park-wall"
      },
      {
       "name": "blocks",
       "type": "bool",
       "value": false
      },
      {
       "name": "flat",
       "type": "bool",
       "value": false
      },
      {
       "name": "z",
       "type": "int",
       "value": 0
      }
     ]
    },
    {
     "id": 190,
     "name": "park-wall-191",
     "type": "prop",
     "x": 336,
     "y": 32,
     "width": 0,
     "height": 0,
     "rotation": 0,
     "visible": true,
     "properties": [
      {
       "name": "prop",
       "type": "string",
       "value": "park-wall"
      },
      {
       "name": "blocks",
       "type": "bool",
       "value": false
      },
      {
       "name": "flat",
       "type": "bool",
       "value": false
      },
      {
       "name": "z",
       "type": "int",
       "value": 0
      }
     ]
    },
    {
     "id": 191,
     "name": "park-wall-192",
     "type": "prop",
     "x": 368,
     "y": 32,
     "width": 0,
     "height": 0,
     "rotation": 0,
     "visible": true,
     "properties": [
      {
       "name": "prop",
       "type": "string",
       "value": "park-wall"
      },
      {
       "name": "blocks",
       "type": "bool",
       "value": false
      },
      {
       "name": "flat",
       "type": "bool",
       "value": false
      },
      {
       "name": "z",
       "type": "int",
       "value": 0
      }
     ]
    },
    {
     "id": 192,
     "name": "park-wall-193",
     "type": "prop",
     "x": 400,
     "y": 32,
     "width": 0,
     "height": 0,
     "rotation": 0,
     "visible": true,
     "properties": [
      {
       "name": "prop",
       "type": "string",
       "value": "park-wall"
      },
      {
       "name": "blocks",
       "type": "bool",
       "value": false
      },
      {
       "name": "flat",
       "type": "bool",
       "value": false
      },
      {
       "name": "z",
       "type": "int",
       "value": 0
      }
     ]
    },
    {
     "id": 193,
     "name": "park-wall-194",
     "type": "prop",
     "x": 432,
     "y": 32,
     "width": 0,
     "height": 0,
     "rotation": 0,
     "visible": true,
     "properties": [
      {
       "name": "prop",
       "type": "string",
       "value": "park-wall"
      },
      {
       "name": "blocks",
       "type": "bool",
       "value": false
      },
      {
       "name": "flat",
       "type": "bool",
       "value": false
      },
      {
       "name": "z",
       "type": "int",
       "value": 0
      }
     ]
    },
    {
     "id": 194,
     "name": "park-wall-195",
     "type": "prop",
     "x": 464,
     "y": 32,
     "width": 0,
     "height": 0,
     "rotation": 0,
     "visible": true,
     "properties": [
      {
       "name": "prop",
       "type": "string",
       "value": "park-wall"
      },
      {
       "name": "blocks",
       "type": "bool",
       "value": false
      },
      {
       "name": "flat",
       "type": "bool",
       "value": false
      },
      {
       "name": "z",
       "type": "int",
       "value": 0
      }
     ]
    },
    {
     "id": 195,
     "name": "park-wall-196",
     "type": "prop",
     "x": 496,
     "y": 32,
     "width": 0,
     "height": 0,
     "rotation": 0,
     "visible": true,
     "properties": [
      {
       "name": "prop",
       "type": "string",
       "value": "park-wall"
      },
      {
       "name": "blocks",
       "type": "bool",
       "value": false
      },
      {
       "name": "flat",
       "type": "bool",
       "value": false
      },
      {
       "name": "z",
       "type": "int",
       "value": 0
      }
     ]
    },
    {
     "id": 196,
     "name": "park-wall-197",
     "type": "prop",
     "x": 528,
     "y": 32,
     "width": 0,
     "height": 0,
     "rotation": 0,
     "visible": true,
     "properties": [
      {
       "name": "prop",
       "type": "string",
       "value": "park-wall"
      },
      {
       "name": "blocks",
       "type": "bool",
       "value": false
      },
      {
       "name": "flat",
       "type": "bool",
       "value": false
      },
      {
       "name": "z",
       "type": "int",
       "value": 0
      }
     ]
    },
    {
     "id": 197,
     "name": "park-wall-198",
     "type": "prop",
     "x": 560,
     "y": 32,
     "width": 0,
     "height": 0,
     "rotation": 0,
     "visible": true,
     "properties": [
      {
       "name": "prop",
       "type": "string",
       "value": "park-wall"
      },
      {
       "name": "blocks",
       "type": "bool",
       "value": false
      },
      {
       "name": "flat",
       "type": "bool",
       "value": false
      },
      {
       "name": "z",
       "type": "int",
       "value": 0
      }
     ]
    },
    {
     "id": 198,
     "name": "park-wall-199",
     "type": "prop",
     "x": 592,
     "y": 32,
     "width": 0,
     "height": 0,
     "rotation": 0,
     "visible": true,
     "properties": [
      {
       "name": "prop",
       "type": "string",
       "value": "park-wall"
      },
      {
       "name": "blocks",
       "type": "bool",
       "value": false
      },
      {
       "name": "flat",
       "type": "bool",
       "value": false
      },
      {
       "name": "z",
       "type": "int",
       "value": 0
      }
     ]
    },
    {
     "id": 199,
     "name": "park-wall-200",
     "type": "prop",
     "x": 624,
     "y": 32,
     "width": 0,
     "height": 0,
     "rotation": 0,
     "visible": true,
     "properties": [
      {
       "name": "prop",
       "type": "string",
       "value": "park-wall"
      },
      {
       "name": "blocks",
       "type": "bool",
       "value": false
      },
      {
       "name": "flat",
       "type": "bool",
       "value": false
      },
      {
       "name": "z",
       "type": "int",
       "value": 0
      }
     ]
    },
    {
     "id": 200,
     "name": "park-wall-201",
     "type": "prop",
     "x": 656,
     "y": 32,
     "width": 0,
     "height": 0,
     "rotation": 0,
     "visible": true,
     "properties": [
      {
       "name": "prop",
       "type": "string",
       "value": "park-wall"
      },
      {
       "name": "blocks",
       "type": "bool",
       "value": false
      },
      {
       "name": "flat",
       "type": "bool",
       "value": false
      },
      {
       "name": "z",
       "type": "int",
       "value": 0
      }
     ]
    },
    {
     "id": 201,
     "name": "park-wall-202",
     "type": "prop",
     "x": 688,
     "y": 32,
     "width": 0,
     "height": 0,
     "rotation": 0,
     "visible": true,
     "properties": [
      {
       "name": "prop",
       "type": "string",
       "value": "park-wall"
      },
      {
       "name": "blocks",
       "type": "bool",
       "value": false
      },
      {
       "name": "flat",
       "type": "bool",
       "value": false
      },
      {
       "name": "z",
       "type": "int",
       "value": 0
      }
     ]
    },
    {
     "id": 202,
     "name": "park-wall-203",
     "type": "prop",
     "x": 720,
     "y": 32,
     "width": 0,
     "height": 0,
     "rotation": 0,
     "visible": true,
     "properties": [
      {
       "name": "prop",
       "type": "string",
       "value": "park-wall"
      },
      {
       "name": "blocks",
       "type": "bool",
       "value": false
      },
      {
       "name": "flat",
       "type": "bool",
       "value": false
      },
      {
       "name": "z",
       "type": "int",
       "value": 0
      }
     ]
    },
    {
     "id": 203,
     "name": "park-wall-204",
     "type": "prop",
     "x": 752,
     "y": 32,
     "width": 0,
     "height": 0,
     "rotation": 0,
     "visible": true,
     "properties": [
      {
       "name": "prop",
       "type": "string",
       "value": "park-wall"
      },
      {
       "name": "blocks",
       "type": "bool",
       "value": false
      },
      {
       "name": "flat",
       "type": "bool",
       "value": false
      },
      {
       "name": "z",
       "type": "int",
       "value": 0
      }
     ]
    },
    {
     "id": 204,
     "name": "park-wall-205",
     "type": "prop",
     "x": 784,
     "y": 32,
     "width": 0,
     "height": 0,
     "rotation": 0,
     "visible": true,
     "properties": [
      {
       "name": "prop",
       "type": "string",
       "value": "park-wall"
      },
      {
       "name": "blocks",
       "type": "bool",
       "value": false
      },
      {
       "name": "flat",
       "type": "bool",
       "value": false
      },
      {
       "name": "z",
       "type": "int",
       "value": 0
      }
     ]
    },
    {
     "id": 205,
     "name": "park-wall-206",
     "type": "prop",
     "x": 816,
     "y": 32,
     "width": 0,
     "height": 0,
     "rotation": 0,
     "visible": true,
     "properties": [
      {
       "name": "prop",
       "type": "string",
       "value": "park-wall"
      },
      {
       "name": "blocks",
       "type": "bool",
       "value": false
      },
      {
       "name": "flat",
       "type": "bool",
       "value": false
      },
      {
       "name": "z",
       "type": "int",
       "value": 0
      }
     ]
    },
    {
     "id": 206,
     "name": "park-wall-207",
     "type": "prop",
     "x": 848,
     "y": 32,
     "width": 0,
     "height": 0,
     "rotation": 0,
     "visible": true,
     "properties": [
      {
       "name": "prop",
       "type": "string",
       "value": "park-wall"
      },
      {
       "name": "blocks",
       "type": "bool",
       "value": false
      },
      {
       "name": "flat",
       "type": "bool",
       "value": false
      },
      {
       "name": "z",
       "type": "int",
       "value": 0
      }
     ]
    },
    {
     "id": 207,
     "name": "park-wall-208",
     "type": "prop",
     "x": 880,
     "y": 32,
     "width": 0,
     "height": 0,
     "rotation": 0,
     "visible": true,
     "properties": [
      {
       "name": "prop",
       "type": "string",
       "value": "park-wall"
      },
      {
       "name": "blocks",
       "type": "bool",
       "value": false
      },
      {
       "name": "flat",
       "type": "bool",
       "value": false
      },
      {
       "name": "z",
       "type": "int",
       "value": 0
      }
     ]
    },
    {
     "id": 208,
     "name": "park-wall-209",
     "type": "prop",
     "x": 912,
     "y": 32,
     "width": 0,
     "height": 0,
     "rotation": 0,
     "visible": true,
     "properties": [
      {
       "name": "prop",
       "type": "string",
       "value": "park-wall"
      },
      {
       "name": "blocks",
       "type": "bool",
       "value": false
      },
      {
       "name": "flat",
       "type": "bool",
       "value": false
      },
      {
       "name": "z",
       "type": "int",
       "value": 0
      }
     ]
    },
    {
     "id": 209,
     "name": "park-wall-210",
     "type": "prop",
     "x": 944,
     "y": 32,
     "width": 0,
     "height": 0,
     "rotation": 0,
     "visible": true,
     "properties": [
      {
       "name": "prop",
       "type": "string",
       "value": "park-wall"
      },
      {
       "name": "blocks",
       "type": "bool",
       "value": false
      },
      {
       "name": "flat",
       "type": "bool",
       "value": false
      },
      {
       "name": "z",
       "type": "int",
       "value": 0
      }
     ]
    },
    {
     "id": 210,
     "name": "park-wall-211",
     "type": "prop",
     "x": 976,
     "y": 32,
     "width": 0,
     "height": 0,
     "rotation": 0,
     "visible": true,
     "properties": [
      {
       "name": "prop",
       "type": "string",
       "value": "park-wall"
      },
      {
       "name": "blocks",
       "type": "bool",
       "value": false
      },
      {
       "name": "flat",
       "type": "bool",
       "value": false
      },
      {
       "name": "z",
       "type": "int",
       "value": 0
      }
     ]
    },
    {
     "id": 211,
     "name": "park-wall-212",
     "type": "prop",
     "x": 1008,
     "y": 32,
     "width": 0,
     "height": 0,
     "rotation": 0,
     "visible": true,
     "properties": [
      {
       "name": "prop",
       "type": "string",
       "value": "park-wall"
      },
      {
       "name": "blocks",
       "type": "bool",
       "value": false
      },
      {
       "name": "flat",
       "type": "bool",
       "value": false
      },
      {
       "name": "z",
       "type": "int",
       "value": 0
      }
     ]
    },
    {
     "id": 212,
     "name": "park-wall-213",
     "type": "prop",
     "x": 1040,
     "y": 32,
     "width": 0,
     "height": 0,
     "rotation": 0,
     "visible": true,
     "properties": [
      {
       "name": "prop",
       "type": "string",
       "value": "park-wall"
      },
      {
       "name": "blocks",
       "type": "bool",
       "value": false
      },
      {
       "name": "flat",
       "type": "bool",
       "value": false
      },
      {
       "name": "z",
       "type": "int",
       "value": 0
      }
     ]
    },
    {
     "id": 213,
     "name": "park-wall-214",
     "type": "prop",
     "x": 1072,
     "y": 32,
     "width": 0,
     "height": 0,
     "rotation": 0,
     "visible": true,
     "properties": [
      {
       "name": "prop",
       "type": "string",
       "value": "park-wall"
      },
      {
       "name": "blocks",
       "type": "bool",
       "value": false
      },
      {
       "name": "flat",
       "type": "bool",
       "value": false
      },
      {
       "name": "z",
       "type": "int",
       "value": 0
      }
     ]
    },
    {
     "id": 214,
     "name": "park-wall-215",
     "type": "prop",
     "x": 1104,
     "y": 32,
     "width": 0,
     "height": 0,
     "rotation": 0,
     "visible": true,
     "properties": [
      {
       "name": "prop",
       "type": "string",
       "value": "park-wall"
      },
      {
       "name": "blocks",
       "type": "bool",
       "value": false
      },
      {
       "name": "flat",
       "type": "bool",
       "value": false
      },
      {
       "name": "z",
       "type": "int",
       "value": 0
      }
     ]
    },
    {
     "id": 215,
     "name": "park-wall-216",
     "type": "prop",
     "x": 1136,
     "y": 32,
     "width": 0,
     "height": 0,
     "rotation": 0,
     "visible": true,
     "properties": [
      {
       "name": "prop",
       "type": "string",
       "value": "park-wall"
      },
      {
       "name": "blocks",
       "type": "bool",
       "value": false
      },
      {
       "name": "flat",
       "type": "bool",
       "value": false
      },
      {
       "name": "z",
       "type": "int",
       "value": 0
      }
     ]
    },
    {
     "id": 216,
     "name": "park-wall-217",
     "type": "prop",
     "x": 1168,
     "y": 32,
     "width": 0,
     "height": 0,
     "rotation": 0,
     "visible": true,
     "properties": [
      {
       "name": "prop",
       "type": "string",
       "value": "park-wall"
      },
      {
       "name": "blocks",
       "type": "bool",
       "value": false
      },
      {
       "name": "flat",
       "type": "bool",
       "value": false
      },
      {
       "name": "z",
       "type": "int",
       "value": 0
      }
     ]
    },
    {
     "id": 217,
     "name": "park-wall-218",
     "type": "prop",
     "x": 1200,
     "y": 32,
     "width": 0,
     "height": 0,
     "rotation": 0,
     "visible": true,
     "properties": [
      {
       "name": "prop",
       "type": "string",
       "value": "park-wall"
      },
      {
       "name": "blocks",
       "type": "bool",
       "value": false
      },
      {
       "name": "flat",
       "type": "bool",
       "value": false
      },
      {
       "name": "z",
       "type": "int",
       "value": 0
      }
     ]
    },
    {
     "id": 218,
     "name": "park-wall-219",
     "type": "prop",
     "x": 1232,
     "y": 32,
     "width": 0,
     "height": 0,
     "rotation": 0,
     "visible": true,
     "properties": [
      {
       "name": "prop",
       "type": "string",
       "value": "park-wall"
      },
      {
       "name": "blocks",
       "type": "bool",
       "value": false
      },
      {
       "name": "flat",
       "type": "bool",
       "value": false
      },
      {
       "name": "z",
       "type": "int",
       "value": 0
      }
     ]
    },
    {
     "id": 219,
     "name": "park-wall-220",
     "type": "prop",
     "x": 1264,
     "y": 32,
     "width": 0,
     "height": 0,
     "rotation": 0,
     "visible": true,
     "properties": [
      {
       "name": "prop",
       "type": "string",
       "value": "park-wall"
      },
      {
       "name": "blocks",
       "type": "bool",
       "value": false
      },
      {
       "name": "flat",
       "type": "bool",
       "value": false
      },
      {
       "name": "z",
       "type": "int",
       "value": 0
      }
     ]
    },
    {
     "id": 220,
     "name": "park-wall-221",
     "type": "prop",
     "x": 1296,
     "y": 32,
     "width": 0,
     "height": 0,
     "rotation": 0,
     "visible": true,
     "properties": [
      {
       "name": "prop",
       "type": "string",
       "value": "park-wall"
      },
      {
       "name": "blocks",
       "type": "bool",
       "value": false
      },
      {
       "name": "flat",
       "type": "bool",
       "value": false
      },
      {
       "name": "z",
       "type": "int",
       "value": 0
      }
     ]
    },
    {
     "id": 221,
     "name": "park-wall-222",
     "type": "prop",
     "x": 1328,
     "y": 32,
     "width": 0,
     "height": 0,
     "rotation": 0,
     "visible": true,
     "properties": [
      {
       "name": "prop",
       "type": "string",
       "value": "park-wall"
      },
      {
       "name": "blocks",
       "type": "bool",
       "value": false
      },
      {
       "name": "flat",
       "type": "bool",
       "value": false
      },
      {
       "name": "z",
       "type": "int",
       "value": 0
      }
     ]
    },
    {
     "id": 222,
     "name": "park-wall-223",
     "type": "prop",
     "x": 1360,
     "y": 32,
     "width": 0,
     "height": 0,
     "rotation": 0,
     "visible": true,
     "properties": [
      {
       "name": "prop",
       "type": "string",
       "value": "park-wall"
      },
      {
       "name": "blocks",
       "type": "bool",
       "value": false
      },
      {
       "name": "flat",
       "type": "bool",
       "value": false
      },
      {
       "name": "z",
       "type": "int",
       "value": 0
      }
     ]
    },
    {
     "id": 223,
     "name": "park-wall-224",
     "type": "prop",
     "x": 1392,
     "y": 32,
     "width": 0,
     "height": 0,
     "rotation": 0,
     "visible": true,
     "properties": [
      {
       "name": "prop",
       "type": "string",
       "value": "park-wall"
      },
      {
       "name": "blocks",
       "type": "bool",
       "value": false
      },
      {
       "name": "flat",
       "type": "bool",
       "value": false
      },
      {
       "name": "z",
       "type": "int",
       "value": 0
      }
     ]
    },
    {
     "id": 224,
     "name": "park-wall-225",
     "type": "prop",
     "x": 1424,
     "y": 32,
     "width": 0,
     "height": 0,
     "rotation": 0,
     "visible": true,
     "properties": [
      {
       "name": "prop",
       "type": "string",
       "value": "park-wall"
      },
      {
       "name": "blocks",
       "type": "bool",
       "value": false
      },
      {
       "name": "flat",
       "type": "bool",
       "value": false
      },
      {
       "name": "z",
       "type": "int",
       "value": 0
      }
     ]
    },
    {
     "id": 225,
     "name": "park-wall-226",
     "type": "prop",
     "x": 1456,
     "y": 32,
     "width": 0,
     "height": 0,
     "rotation": 0,
     "visible": true,
     "properties": [
      {
       "name": "prop",
       "type": "string",
       "value": "park-wall"
      },
      {
       "name": "blocks",
       "type": "bool",
       "value": false
      },
      {
       "name": "flat",
       "type": "bool",
       "value": false
      },
      {
       "name": "z",
       "type": "int",
       "value": 0
      }
     ]
    },
    {
     "id": 226,
     "name": "park-wall-227",
     "type": "prop",
     "x": 1488,
     "y": 32,
     "width": 0,
     "height": 0,
     "rotation": 0,
     "visible": true,
     "properties": [
      {
       "name": "prop",
       "type": "string",
       "value": "park-wall"
      },
      {
       "name": "blocks",
       "type": "bool",
       "value": false
      },
      {
       "name": "flat",
       "type": "bool",
       "value": false
      },
      {
       "name": "z",
       "type": "int",
       "value": 0
      }
     ]
    },
    {
     "id": 227,
     "name": "park-wall-228",
     "type": "prop",
     "x": 1520,
     "y": 32,
     "width": 0,
     "height": 0,
     "rotation": 0,
     "visible": true,
     "properties": [
      {
       "name": "prop",
       "type": "string",
       "value": "park-wall"
      },
      {
       "name": "blocks",
       "type": "bool",
       "value": false
      },
      {
       "name": "flat",
       "type": "bool",
       "value": false
      },
      {
       "name": "z",
       "type": "int",
       "value": 0
      }
     ]
    },
    {
     "id": 228,
     "name": "park-wall-229",
     "type": "prop",
     "x": 16,
     "y": 960,
     "width": 0,
     "height": 0,
     "rotation": 0,
     "visible": true,
     "properties": [
      {
       "name": "prop",
       "type": "string",
       "value": "park-wall"
      },
      {
       "name": "blocks",
       "type": "bool",
       "value": false
      },
      {
       "name": "flat",
       "type": "bool",
       "value": false
      },
      {
       "name": "z",
       "type": "int",
       "value": 0
      }
     ]
    },
    {
     "id": 229,
     "name": "park-wall-230",
     "type": "prop",
     "x": 48,
     "y": 960,
     "width": 0,
     "height": 0,
     "rotation": 0,
     "visible": true,
     "properties": [
      {
       "name": "prop",
       "type": "string",
       "value": "park-wall"
      },
      {
       "name": "blocks",
       "type": "bool",
       "value": false
      },
      {
       "name": "flat",
       "type": "bool",
       "value": false
      },
      {
       "name": "z",
       "type": "int",
       "value": 0
      }
     ]
    },
    {
     "id": 230,
     "name": "park-wall-231",
     "type": "prop",
     "x": 80,
     "y": 960,
     "width": 0,
     "height": 0,
     "rotation": 0,
     "visible": true,
     "properties": [
      {
       "name": "prop",
       "type": "string",
       "value": "park-wall"
      },
      {
       "name": "blocks",
       "type": "bool",
       "value": false
      },
      {
       "name": "flat",
       "type": "bool",
       "value": false
      },
      {
       "name": "z",
       "type": "int",
       "value": 0
      }
     ]
    },
    {
     "id": 231,
     "name": "park-wall-232",
     "type": "prop",
     "x": 112,
     "y": 960,
     "width": 0,
     "height": 0,
     "rotation": 0,
     "visible": true,
     "properties": [
      {
       "name": "prop",
       "type": "string",
       "value": "park-wall"
      },
      {
       "name": "blocks",
       "type": "bool",
       "value": false
      },
      {
       "name": "flat",
       "type": "bool",
       "value": false
      },
      {
       "name": "z",
       "type": "int",
       "value": 0
      }
     ]
    },
    {
     "id": 232,
     "name": "park-wall-233",
     "type": "prop",
     "x": 144,
     "y": 960,
     "width": 0,
     "height": 0,
     "rotation": 0,
     "visible": true,
     "properties": [
      {
       "name": "prop",
       "type": "string",
       "value": "park-wall"
      },
      {
       "name": "blocks",
       "type": "bool",
       "value": false
      },
      {
       "name": "flat",
       "type": "bool",
       "value": false
      },
      {
       "name": "z",
       "type": "int",
       "value": 0
      }
     ]
    },
    {
     "id": 233,
     "name": "park-wall-234",
     "type": "prop",
     "x": 176,
     "y": 960,
     "width": 0,
     "height": 0,
     "rotation": 0,
     "visible": true,
     "properties": [
      {
       "name": "prop",
       "type": "string",
       "value": "park-wall"
      },
      {
       "name": "blocks",
       "type": "bool",
       "value": false
      },
      {
       "name": "flat",
       "type": "bool",
       "value": false
      },
      {
       "name": "z",
       "type": "int",
       "value": 0
      }
     ]
    },
    {
     "id": 234,
     "name": "park-wall-235",
     "type": "prop",
     "x": 208,
     "y": 960,
     "width": 0,
     "height": 0,
     "rotation": 0,
     "visible": true,
     "properties": [
      {
       "name": "prop",
       "type": "string",
       "value": "park-wall"
      },
      {
       "name": "blocks",
       "type": "bool",
       "value": false
      },
      {
       "name": "flat",
       "type": "bool",
       "value": false
      },
      {
       "name": "z",
       "type": "int",
       "value": 0
      }
     ]
    },
    {
     "id": 235,
     "name": "park-wall-236",
     "type": "prop",
     "x": 240,
     "y": 960,
     "width": 0,
     "height": 0,
     "rotation": 0,
     "visible": true,
     "properties": [
      {
       "name": "prop",
       "type": "string",
       "value": "park-wall"
      },
      {
       "name": "blocks",
       "type": "bool",
       "value": false
      },
      {
       "name": "flat",
       "type": "bool",
       "value": false
      },
      {
       "name": "z",
       "type": "int",
       "value": 0
      }
     ]
    },
    {
     "id": 236,
     "name": "park-wall-237",
     "type": "prop",
     "x": 272,
     "y": 960,
     "width": 0,
     "height": 0,
     "rotation": 0,
     "visible": true,
     "properties": [
      {
       "name": "prop",
       "type": "string",
       "value": "park-wall"
      },
      {
       "name": "blocks",
       "type": "bool",
       "value": false
      },
      {
       "name": "flat",
       "type": "bool",
       "value": false
      },
      {
       "name": "z",
       "type": "int",
       "value": 0
      }
     ]
    },
    {
     "id": 237,
     "name": "park-wall-238",
     "type": "prop",
     "x": 304,
     "y": 960,
     "width": 0,
     "height": 0,
     "rotation": 0,
     "visible": true,
     "properties": [
      {
       "name": "prop",
       "type": "string",
       "value": "park-wall"
      },
      {
       "name": "blocks",
       "type": "bool",
       "value": false
      },
      {
       "name": "flat",
       "type": "bool",
       "value": false
      },
      {
       "name": "z",
       "type": "int",
       "value": 0
      }
     ]
    },
    {
     "id": 238,
     "name": "park-wall-239",
     "type": "prop",
     "x": 336,
     "y": 960,
     "width": 0,
     "height": 0,
     "rotation": 0,
     "visible": true,
     "properties": [
      {
       "name": "prop",
       "type": "string",
       "value": "park-wall"
      },
      {
       "name": "blocks",
       "type": "bool",
       "value": false
      },
      {
       "name": "flat",
       "type": "bool",
       "value": false
      },
      {
       "name": "z",
       "type": "int",
       "value": 0
      }
     ]
    },
    {
     "id": 239,
     "name": "park-wall-240",
     "type": "prop",
     "x": 368,
     "y": 960,
     "width": 0,
     "height": 0,
     "rotation": 0,
     "visible": true,
     "properties": [
      {
       "name": "prop",
       "type": "string",
       "value": "park-wall"
      },
      {
       "name": "blocks",
       "type": "bool",
       "value": false
      },
      {
       "name": "flat",
       "type": "bool",
       "value": false
      },
      {
       "name": "z",
       "type": "int",
       "value": 0
      }
     ]
    },
    {
     "id": 240,
     "name": "park-wall-241",
     "type": "prop",
     "x": 400,
     "y": 960,
     "width": 0,
     "height": 0,
     "rotation": 0,
     "visible": true,
     "properties": [
      {
       "name": "prop",
       "type": "string",
       "value": "park-wall"
      },
      {
       "name": "blocks",
       "type": "bool",
       "value": false
      },
      {
       "name": "flat",
       "type": "bool",
       "value": false
      },
      {
       "name": "z",
       "type": "int",
       "value": 0
      }
     ]
    },
    {
     "id": 241,
     "name": "park-wall-242",
     "type": "prop",
     "x": 432,
     "y": 960,
     "width": 0,
     "height": 0,
     "rotation": 0,
     "visible": true,
     "properties": [
      {
       "name": "prop",
       "type": "string",
       "value": "park-wall"
      },
      {
       "name": "blocks",
       "type": "bool",
       "value": false
      },
      {
       "name": "flat",
       "type": "bool",
       "value": false
      },
      {
       "name": "z",
       "type": "int",
       "value": 0
      }
     ]
    },
    {
     "id": 242,
     "name": "park-wall-243",
     "type": "prop",
     "x": 464,
     "y": 960,
     "width": 0,
     "height": 0,
     "rotation": 0,
     "visible": true,
     "properties": [
      {
       "name": "prop",
       "type": "string",
       "value": "park-wall"
      },
      {
       "name": "blocks",
       "type": "bool",
       "value": false
      },
      {
       "name": "flat",
       "type": "bool",
       "value": false
      },
      {
       "name": "z",
       "type": "int",
       "value": 0
      }
     ]
    },
    {
     "id": 243,
     "name": "park-wall-244",
     "type": "prop",
     "x": 496,
     "y": 960,
     "width": 0,
     "height": 0,
     "rotation": 0,
     "visible": true,
     "properties": [
      {
       "name": "prop",
       "type": "string",
       "value": "park-wall"
      },
      {
       "name": "blocks",
       "type": "bool",
       "value": false
      },
      {
       "name": "flat",
       "type": "bool",
       "value": false
      },
      {
       "name": "z",
       "type": "int",
       "value": 0
      }
     ]
    },
    {
     "id": 244,
     "name": "park-wall-245",
     "type": "prop",
     "x": 528,
     "y": 960,
     "width": 0,
     "height": 0,
     "rotation": 0,
     "visible": true,
     "properties": [
      {
       "name": "prop",
       "type": "string",
       "value": "park-wall"
      },
      {
       "name": "blocks",
       "type": "bool",
       "value": false
      },
      {
       "name": "flat",
       "type": "bool",
       "value": false
      },
      {
       "name": "z",
       "type": "int",
       "value": 0
      }
     ]
    },
    {
     "id": 245,
     "name": "park-wall-246",
     "type": "prop",
     "x": 560,
     "y": 960,
     "width": 0,
     "height": 0,
     "rotation": 0,
     "visible": true,
     "properties": [
      {
       "name": "prop",
       "type": "string",
       "value": "park-wall"
      },
      {
       "name": "blocks",
       "type": "bool",
       "value": false
      },
      {
       "name": "flat",
       "type": "bool",
       "value": false
      },
      {
       "name": "z",
       "type": "int",
       "value": 0
      }
     ]
    },
    {
     "id": 246,
     "name": "park-wall-247",
     "type": "prop",
     "x": 592,
     "y": 960,
     "width": 0,
     "height": 0,
     "rotation": 0,
     "visible": true,
     "properties": [
      {
       "name": "prop",
       "type": "string",
       "value": "park-wall"
      },
      {
       "name": "blocks",
       "type": "bool",
       "value": false
      },
      {
       "name": "flat",
       "type": "bool",
       "value": false
      },
      {
       "name": "z",
       "type": "int",
       "value": 0
      }
     ]
    },
    {
     "id": 247,
     "name": "park-wall-248",
     "type": "prop",
     "x": 624,
     "y": 960,
     "width": 0,
     "height": 0,
     "rotation": 0,
     "visible": true,
     "properties": [
      {
       "name": "prop",
       "type": "string",
       "value": "park-wall"
      },
      {
       "name": "blocks",
       "type": "bool",
       "value": false
      },
      {
       "name": "flat",
       "type": "bool",
       "value": false
      },
      {
       "name": "z",
       "type": "int",
       "value": 0
      }
     ]
    },
    {
     "id": 248,
     "name": "park-wall-249",
     "type": "prop",
     "x": 656,
     "y": 960,
     "width": 0,
     "height": 0,
     "rotation": 0,
     "visible": true,
     "properties": [
      {
       "name": "prop",
       "type": "string",
       "value": "park-wall"
      },
      {
       "name": "blocks",
       "type": "bool",
       "value": false
      },
      {
       "name": "flat",
       "type": "bool",
       "value": false
      },
      {
       "name": "z",
       "type": "int",
       "value": 0
      }
     ]
    },
    {
     "id": 249,
     "name": "park-wall-250",
     "type": "prop",
     "x": 688,
     "y": 960,
     "width": 0,
     "height": 0,
     "rotation": 0,
     "visible": true,
     "properties": [
      {
       "name": "prop",
       "type": "string",
       "value": "park-wall"
      },
      {
       "name": "blocks",
       "type": "bool",
       "value": false
      },
      {
       "name": "flat",
       "type": "bool",
       "value": false
      },
      {
       "name": "z",
       "type": "int",
       "value": 0
      }
     ]
    },
    {
     "id": 250,
     "name": "park-wall-251",
     "type": "prop",
     "x": 720,
     "y": 960,
     "width": 0,
     "height": 0,
     "rotation": 0,
     "visible": true,
     "properties": [
      {
       "name": "prop",
       "type": "string",
       "value": "park-wall"
      },
      {
       "name": "blocks",
       "type": "bool",
       "value": false
      },
      {
       "name": "flat",
       "type": "bool",
       "value": false
      },
      {
       "name": "z",
       "type": "int",
       "value": 0
      }
     ]
    },
    {
     "id": 251,
     "name": "park-wall-252",
     "type": "prop",
     "x": 816,
     "y": 960,
     "width": 0,
     "height": 0,
     "rotation": 0,
     "visible": true,
     "properties": [
      {
       "name": "prop",
       "type": "string",
       "value": "park-wall"
      },
      {
       "name": "blocks",
       "type": "bool",
       "value": false
      },
      {
       "name": "flat",
       "type": "bool",
       "value": false
      },
      {
       "name": "z",
       "type": "int",
       "value": 0
      }
     ]
    },
    {
     "id": 252,
     "name": "park-wall-253",
     "type": "prop",
     "x": 848,
     "y": 960,
     "width": 0,
     "height": 0,
     "rotation": 0,
     "visible": true,
     "properties": [
      {
       "name": "prop",
       "type": "string",
       "value": "park-wall"
      },
      {
       "name": "blocks",
       "type": "bool",
       "value": false
      },
      {
       "name": "flat",
       "type": "bool",
       "value": false
      },
      {
       "name": "z",
       "type": "int",
       "value": 0
      }
     ]
    },
    {
     "id": 253,
     "name": "park-wall-254",
     "type": "prop",
     "x": 880,
     "y": 960,
     "width": 0,
     "height": 0,
     "rotation": 0,
     "visible": true,
     "properties": [
      {
       "name": "prop",
       "type": "string",
       "value": "park-wall"
      },
      {
       "name": "blocks",
       "type": "bool",
       "value": false
      },
      {
       "name": "flat",
       "type": "bool",
       "value": false
      },
      {
       "name": "z",
       "type": "int",
       "value": 0
      }
     ]
    },
    {
     "id": 254,
     "name": "park-wall-255",
     "type": "prop",
     "x": 912,
     "y": 960,
     "width": 0,
     "height": 0,
     "rotation": 0,
     "visible": true,
     "properties": [
      {
       "name": "prop",
       "type": "string",
       "value": "park-wall"
      },
      {
       "name": "blocks",
       "type": "bool",
       "value": false
      },
      {
       "name": "flat",
       "type": "bool",
       "value": false
      },
      {
       "name": "z",
       "type": "int",
       "value": 0
      }
     ]
    },
    {
     "id": 255,
     "name": "park-wall-256",
     "type": "prop",
     "x": 944,
     "y": 960,
     "width": 0,
     "height": 0,
     "rotation": 0,
     "visible": true,
     "properties": [
      {
       "name": "prop",
       "type": "string",
       "value": "park-wall"
      },
      {
       "name": "blocks",
       "type": "bool",
       "value": false
      },
      {
       "name": "flat",
       "type": "bool",
       "value": false
      },
      {
       "name": "z",
       "type": "int",
       "value": 0
      }
     ]
    },
    {
     "id": 256,
     "name": "park-wall-257",
     "type": "prop",
     "x": 976,
     "y": 960,
     "width": 0,
     "height": 0,
     "rotation": 0,
     "visible": true,
     "properties": [
      {
       "name": "prop",
       "type": "string",
       "value": "park-wall"
      },
      {
       "name": "blocks",
       "type": "bool",
       "value": false
      },
      {
       "name": "flat",
       "type": "bool",
       "value": false
      },
      {
       "name": "z",
       "type": "int",
       "value": 0
      }
     ]
    },
    {
     "id": 257,
     "name": "park-wall-258",
     "type": "prop",
     "x": 1008,
     "y": 960,
     "width": 0,
     "height": 0,
     "rotation": 0,
     "visible": true,
     "properties": [
      {
       "name": "prop",
       "type": "string",
       "value": "park-wall"
      },
      {
       "name": "blocks",
       "type": "bool",
       "value": false
      },
      {
       "name": "flat",
       "type": "bool",
       "value": false
      },
      {
       "name": "z",
       "type": "int",
       "value": 0
      }
     ]
    },
    {
     "id": 258,
     "name": "park-wall-259",
     "type": "prop",
     "x": 1040,
     "y": 960,
     "width": 0,
     "height": 0,
     "rotation": 0,
     "visible": true,
     "properties": [
      {
       "name": "prop",
       "type": "string",
       "value": "park-wall"
      },
      {
       "name": "blocks",
       "type": "bool",
       "value": false
      },
      {
       "name": "flat",
       "type": "bool",
       "value": false
      },
      {
       "name": "z",
       "type": "int",
       "value": 0
      }
     ]
    },
    {
     "id": 259,
     "name": "park-wall-260",
     "type": "prop",
     "x": 1072,
     "y": 960,
     "width": 0,
     "height": 0,
     "rotation": 0,
     "visible": true,
     "properties": [
      {
       "name": "prop",
       "type": "string",
       "value": "park-wall"
      },
      {
       "name": "blocks",
       "type": "bool",
       "value": false
      },
      {
       "name": "flat",
       "type": "bool",
       "value": false
      },
      {
       "name": "z",
       "type": "int",
       "value": 0
      }
     ]
    },
    {
     "id": 260,
     "name": "park-wall-261",
     "type": "prop",
     "x": 1104,
     "y": 960,
     "width": 0,
     "height": 0,
     "rotation": 0,
     "visible": true,
     "properties": [
      {
       "name": "prop",
       "type": "string",
       "value": "park-wall"
      },
      {
       "name": "blocks",
       "type": "bool",
       "value": false
      },
      {
       "name": "flat",
       "type": "bool",
       "value": false
      },
      {
       "name": "z",
       "type": "int",
       "value": 0
      }
     ]
    },
    {
     "id": 261,
     "name": "park-wall-262",
     "type": "prop",
     "x": 1136,
     "y": 960,
     "width": 0,
     "height": 0,
     "rotation": 0,
     "visible": true,
     "properties": [
      {
       "name": "prop",
       "type": "string",
       "value": "park-wall"
      },
      {
       "name": "blocks",
       "type": "bool",
       "value": false
      },
      {
       "name": "flat",
       "type": "bool",
       "value": false
      },
      {
       "name": "z",
       "type": "int",
       "value": 0
      }
     ]
    },
    {
     "id": 262,
     "name": "park-wall-263",
     "type": "prop",
     "x": 1168,
     "y": 960,
     "width": 0,
     "height": 0,
     "rotation": 0,
     "visible": true,
     "properties": [
      {
       "name": "prop",
       "type": "string",
       "value": "park-wall"
      },
      {
       "name": "blocks",
       "type": "bool",
       "value": false
      },
      {
       "name": "flat",
       "type": "bool",
       "value": false
      },
      {
       "name": "z",
       "type": "int",
       "value": 0
      }
     ]
    },
    {
     "id": 263,
     "name": "park-wall-264",
     "type": "prop",
     "x": 1200,
     "y": 960,
     "width": 0,
     "height": 0,
     "rotation": 0,
     "visible": true,
     "properties": [
      {
       "name": "prop",
       "type": "string",
       "value": "park-wall"
      },
      {
       "name": "blocks",
       "type": "bool",
       "value": false
      },
      {
       "name": "flat",
       "type": "bool",
       "value": false
      },
      {
       "name": "z",
       "type": "int",
       "value": 0
      }
     ]
    },
    {
     "id": 264,
     "name": "park-wall-265",
     "type": "prop",
     "x": 1232,
     "y": 960,
     "width": 0,
     "height": 0,
     "rotation": 0,
     "visible": true,
     "properties": [
      {
       "name": "prop",
       "type": "string",
       "value": "park-wall"
      },
      {
       "name": "blocks",
       "type": "bool",
       "value": false
      },
      {
       "name": "flat",
       "type": "bool",
       "value": false
      },
      {
       "name": "z",
       "type": "int",
       "value": 0
      }
     ]
    },
    {
     "id": 265,
     "name": "park-wall-266",
     "type": "prop",
     "x": 1264,
     "y": 960,
     "width": 0,
     "height": 0,
     "rotation": 0,
     "visible": true,
     "properties": [
      {
       "name": "prop",
       "type": "string",
       "value": "park-wall"
      },
      {
       "name": "blocks",
       "type": "bool",
       "value": false
      },
      {
       "name": "flat",
       "type": "bool",
       "value": false
      },
      {
       "name": "z",
       "type": "int",
       "value": 0
      }
     ]
    },
    {
     "id": 266,
     "name": "park-wall-267",
     "type": "prop",
     "x": 1296,
     "y": 960,
     "width": 0,
     "height": 0,
     "rotation": 0,
     "visible": true,
     "properties": [
      {
       "name": "prop",
       "type": "string",
       "value": "park-wall"
      },
      {
       "name": "blocks",
       "type": "bool",
       "value": false
      },
      {
       "name": "flat",
       "type": "bool",
       "value": false
      },
      {
       "name": "z",
       "type": "int",
       "value": 0
      }
     ]
    },
    {
     "id": 267,
     "name": "park-wall-268",
     "type": "prop",
     "x": 1328,
     "y": 960,
     "width": 0,
     "height": 0,
     "rotation": 0,
     "visible": true,
     "properties": [
      {
       "name": "prop",
       "type": "string",
       "value": "park-wall"
      },
      {
       "name": "blocks",
       "type": "bool",
       "value": false
      },
      {
       "name": "flat",
       "type": "bool",
       "value": false
      },
      {
       "name": "z",
       "type": "int",
       "value": 0
      }
     ]
    },
    {
     "id": 268,
     "name": "park-wall-269",
     "type": "prop",
     "x": 1360,
     "y": 960,
     "width": 0,
     "height": 0,
     "rotation": 0,
     "visible": true,
     "properties": [
      {
       "name": "prop",
       "type": "string",
       "value": "park-wall"
      },
      {
       "name": "blocks",
       "type": "bool",
       "value": false
      },
      {
       "name": "flat",
       "type": "bool",
       "value": false
      },
      {
       "name": "z",
       "type": "int",
       "value": 0
      }
     ]
    },
    {
     "id": 269,
     "name": "park-wall-270",
     "type": "prop",
     "x": 1392,
     "y": 960,
     "width": 0,
     "height": 0,
     "rotation": 0,
     "visible": true,
     "properties": [
      {
       "name": "prop",
       "type": "string",
       "value": "park-wall"
      },
      {
       "name": "blocks",
       "type": "bool",
       "value": false
      },
      {
       "name": "flat",
       "type": "bool",
       "value": false
      },
      {
       "name": "z",
       "type": "int",
       "value": 0
      }
     ]
    },
    {
     "id": 270,
     "name": "park-wall-271",
     "type": "prop",
     "x": 1424,
     "y": 960,
     "width": 0,
     "height": 0,
     "rotation": 0,
     "visible": true,
     "properties": [
      {
       "name": "prop",
       "type": "string",
       "value": "park-wall"
      },
      {
       "name": "blocks",
       "type": "bool",
       "value": false
      },
      {
       "name": "flat",
       "type": "bool",
       "value": false
      },
      {
       "name": "z",
       "type": "int",
       "value": 0
      }
     ]
    },
    {
     "id": 271,
     "name": "park-wall-272",
     "type": "prop",
     "x": 1456,
     "y": 960,
     "width": 0,
     "height": 0,
     "rotation": 0,
     "visible": true,
     "properties": [
      {
       "name": "prop",
       "type": "string",
       "value": "park-wall"
      },
      {
       "name": "blocks",
       "type": "bool",
       "value": false
      },
      {
       "name": "flat",
       "type": "bool",
       "value": false
      },
      {
       "name": "z",
       "type": "int",
       "value": 0
      }
     ]
    },
    {
     "id": 272,
     "name": "park-wall-273",
     "type": "prop",
     "x": 1488,
     "y": 960,
     "width": 0,
     "height": 0,
     "rotation": 0,
     "visible": true,
     "properties": [
      {
       "name": "prop",
       "type": "string",
       "value": "park-wall"
      },
      {
       "name": "blocks",
       "type": "bool",
       "value": false
      },
      {
       "name": "flat",
       "type": "bool",
       "value": false
      },
      {
       "name": "z",
       "type": "int",
       "value": 0
      }
     ]
    },
    {
     "id": 273,
     "name": "park-wall-274",
     "type": "prop",
     "x": 1520,
     "y": 960,
     "width": 0,
     "height": 0,
     "rotation": 0,
     "visible": true,
     "properties": [
      {
       "name": "prop",
       "type": "string",
       "value": "park-wall"
      },
      {
       "name": "blocks",
       "type": "bool",
       "value": false
      },
      {
       "name": "flat",
       "type": "bool",
       "value": false
      },
      {
       "name": "z",
       "type": "int",
       "value": 0
      }
     ]
    },
    {
     "id": 274,
     "name": "park-wall-side-275",
     "type": "prop",
     "x": 16,
     "y": 48,
     "width": 0,
     "height": 0,
     "rotation": 0,
     "visible": true,
     "properties": [
      {
       "name": "prop",
       "type": "string",
       "value": "park-wall-side"
      },
      {
       "name": "blocks",
       "type": "bool",
       "value": false
      },
      {
       "name": "flat",
       "type": "bool",
       "value": false
      },
      {
       "name": "z",
       "type": "int",
       "value": 0
      }
     ]
    },
    {
     "id": 275,
     "name": "park-wall-side-276",
     "type": "prop",
     "x": 1520,
     "y": 48,
     "width": 0,
     "height": 0,
     "rotation": 0,
     "visible": true,
     "properties": [
      {
       "name": "prop",
       "type": "string",
       "value": "park-wall-side"
      },
      {
       "name": "blocks",
       "type": "bool",
       "value": false
      },
      {
       "name": "flat",
       "type": "bool",
       "value": false
      },
      {
       "name": "z",
       "type": "int",
       "value": 0
      }
     ]
    },
    {
     "id": 276,
     "name": "park-wall-side-277",
     "type": "prop",
     "x": 16,
     "y": 64,
     "width": 0,
     "height": 0,
     "rotation": 0,
     "visible": true,
     "properties": [
      {
       "name": "prop",
       "type": "string",
       "value": "park-wall-side"
      },
      {
       "name": "blocks",
       "type": "bool",
       "value": false
      },
      {
       "name": "flat",
       "type": "bool",
       "value": false
      },
      {
       "name": "z",
       "type": "int",
       "value": 0
      }
     ]
    },
    {
     "id": 277,
     "name": "park-wall-side-278",
     "type": "prop",
     "x": 1520,
     "y": 64,
     "width": 0,
     "height": 0,
     "rotation": 0,
     "visible": true,
     "properties": [
      {
       "name": "prop",
       "type": "string",
       "value": "park-wall-side"
      },
      {
       "name": "blocks",
       "type": "bool",
       "value": false
      },
      {
       "name": "flat",
       "type": "bool",
       "value": false
      },
      {
       "name": "z",
       "type": "int",
       "value": 0
      }
     ]
    },
    {
     "id": 278,
     "name": "park-wall-side-279",
     "type": "prop",
     "x": 16,
     "y": 80,
     "width": 0,
     "height": 0,
     "rotation": 0,
     "visible": true,
     "properties": [
      {
       "name": "prop",
       "type": "string",
       "value": "park-wall-side"
      },
      {
       "name": "blocks",
       "type": "bool",
       "value": false
      },
      {
       "name": "flat",
       "type": "bool",
       "value": false
      },
      {
       "name": "z",
       "type": "int",
       "value": 0
      }
     ]
    },
    {
     "id": 279,
     "name": "park-wall-side-280",
     "type": "prop",
     "x": 1520,
     "y": 80,
     "width": 0,
     "height": 0,
     "rotation": 0,
     "visible": true,
     "properties": [
      {
       "name": "prop",
       "type": "string",
       "value": "park-wall-side"
      },
      {
       "name": "blocks",
       "type": "bool",
       "value": false
      },
      {
       "name": "flat",
       "type": "bool",
       "value": false
      },
      {
       "name": "z",
       "type": "int",
       "value": 0
      }
     ]
    },
    {
     "id": 280,
     "name": "park-wall-side-281",
     "type": "prop",
     "x": 16,
     "y": 96,
     "width": 0,
     "height": 0,
     "rotation": 0,
     "visible": true,
     "properties": [
      {
       "name": "prop",
       "type": "string",
       "value": "park-wall-side"
      },
      {
       "name": "blocks",
       "type": "bool",
       "value": false
      },
      {
       "name": "flat",
       "type": "bool",
       "value": false
      },
      {
       "name": "z",
       "type": "int",
       "value": 0
      }
     ]
    },
    {
     "id": 281,
     "name": "park-wall-side-282",
     "type": "prop",
     "x": 1520,
     "y": 96,
     "width": 0,
     "height": 0,
     "rotation": 0,
     "visible": true,
     "properties": [
      {
       "name": "prop",
       "type": "string",
       "value": "park-wall-side"
      },
      {
       "name": "blocks",
       "type": "bool",
       "value": false
      },
      {
       "name": "flat",
       "type": "bool",
       "value": false
      },
      {
       "name": "z",
       "type": "int",
       "value": 0
      }
     ]
    },
    {
     "id": 282,
     "name": "park-wall-side-283",
     "type": "prop",
     "x": 16,
     "y": 112,
     "width": 0,
     "height": 0,
     "rotation": 0,
     "visible": true,
     "properties": [
      {
       "name": "prop",
       "type": "string",
       "value": "park-wall-side"
      },
      {
       "name": "blocks",
       "type": "bool",
       "value": false
      },
      {
       "name": "flat",
       "type": "bool",
       "value": false
      },
      {
       "name": "z",
       "type": "int",
       "value": 0
      }
     ]
    },
    {
     "id": 283,
     "name": "park-wall-side-284",
     "type": "prop",
     "x": 1520,
     "y": 112,
     "width": 0,
     "height": 0,
     "rotation": 0,
     "visible": true,
     "properties": [
      {
       "name": "prop",
       "type": "string",
       "value": "park-wall-side"
      },
      {
       "name": "blocks",
       "type": "bool",
       "value": false
      },
      {
       "name": "flat",
       "type": "bool",
       "value": false
      },
      {
       "name": "z",
       "type": "int",
       "value": 0
      }
     ]
    },
    {
     "id": 284,
     "name": "park-wall-side-285",
     "type": "prop",
     "x": 16,
     "y": 128,
     "width": 0,
     "height": 0,
     "rotation": 0,
     "visible": true,
     "properties": [
      {
       "name": "prop",
       "type": "string",
       "value": "park-wall-side"
      },
      {
       "name": "blocks",
       "type": "bool",
       "value": false
      },
      {
       "name": "flat",
       "type": "bool",
       "value": false
      },
      {
       "name": "z",
       "type": "int",
       "value": 0
      }
     ]
    },
    {
     "id": 285,
     "name": "park-wall-side-286",
     "type": "prop",
     "x": 1520,
     "y": 128,
     "width": 0,
     "height": 0,
     "rotation": 0,
     "visible": true,
     "properties": [
      {
       "name": "prop",
       "type": "string",
       "value": "park-wall-side"
      },
      {
       "name": "blocks",
       "type": "bool",
       "value": false
      },
      {
       "name": "flat",
       "type": "bool",
       "value": false
      },
      {
       "name": "z",
       "type": "int",
       "value": 0
      }
     ]
    },
    {
     "id": 286,
     "name": "park-wall-side-287",
     "type": "prop",
     "x": 16,
     "y": 144,
     "width": 0,
     "height": 0,
     "rotation": 0,
     "visible": true,
     "properties": [
      {
       "name": "prop",
       "type": "string",
       "value": "park-wall-side"
      },
      {
       "name": "blocks",
       "type": "bool",
       "value": false
      },
      {
       "name": "flat",
       "type": "bool",
       "value": false
      },
      {
       "name": "z",
       "type": "int",
       "value": 0
      }
     ]
    },
    {
     "id": 287,
     "name": "park-wall-side-288",
     "type": "prop",
     "x": 1520,
     "y": 144,
     "width": 0,
     "height": 0,
     "rotation": 0,
     "visible": true,
     "properties": [
      {
       "name": "prop",
       "type": "string",
       "value": "park-wall-side"
      },
      {
       "name": "blocks",
       "type": "bool",
       "value": false
      },
      {
       "name": "flat",
       "type": "bool",
       "value": false
      },
      {
       "name": "z",
       "type": "int",
       "value": 0
      }
     ]
    },
    {
     "id": 288,
     "name": "park-wall-side-289",
     "type": "prop",
     "x": 16,
     "y": 160,
     "width": 0,
     "height": 0,
     "rotation": 0,
     "visible": true,
     "properties": [
      {
       "name": "prop",
       "type": "string",
       "value": "park-wall-side"
      },
      {
       "name": "blocks",
       "type": "bool",
       "value": false
      },
      {
       "name": "flat",
       "type": "bool",
       "value": false
      },
      {
       "name": "z",
       "type": "int",
       "value": 0
      }
     ]
    },
    {
     "id": 289,
     "name": "park-wall-side-290",
     "type": "prop",
     "x": 1520,
     "y": 160,
     "width": 0,
     "height": 0,
     "rotation": 0,
     "visible": true,
     "properties": [
      {
       "name": "prop",
       "type": "string",
       "value": "park-wall-side"
      },
      {
       "name": "blocks",
       "type": "bool",
       "value": false
      },
      {
       "name": "flat",
       "type": "bool",
       "value": false
      },
      {
       "name": "z",
       "type": "int",
       "value": 0
      }
     ]
    },
    {
     "id": 290,
     "name": "park-wall-side-291",
     "type": "prop",
     "x": 16,
     "y": 176,
     "width": 0,
     "height": 0,
     "rotation": 0,
     "visible": true,
     "properties": [
      {
       "name": "prop",
       "type": "string",
       "value": "park-wall-side"
      },
      {
       "name": "blocks",
       "type": "bool",
       "value": false
      },
      {
       "name": "flat",
       "type": "bool",
       "value": false
      },
      {
       "name": "z",
       "type": "int",
       "value": 0
      }
     ]
    },
    {
     "id": 291,
     "name": "park-wall-side-292",
     "type": "prop",
     "x": 1520,
     "y": 176,
     "width": 0,
     "height": 0,
     "rotation": 0,
     "visible": true,
     "properties": [
      {
       "name": "prop",
       "type": "string",
       "value": "park-wall-side"
      },
      {
       "name": "blocks",
       "type": "bool",
       "value": false
      },
      {
       "name": "flat",
       "type": "bool",
       "value": false
      },
      {
       "name": "z",
       "type": "int",
       "value": 0
      }
     ]
    },
    {
     "id": 292,
     "name": "park-wall-side-293",
     "type": "prop",
     "x": 16,
     "y": 192,
     "width": 0,
     "height": 0,
     "rotation": 0,
     "visible": true,
     "properties": [
      {
       "name": "prop",
       "type": "string",
       "value": "park-wall-side"
      },
      {
       "name": "blocks",
       "type": "bool",
       "value": false
      },
      {
       "name": "flat",
       "type": "bool",
       "value": false
      },
      {
       "name": "z",
       "type": "int",
       "value": 0
      }
     ]
    },
    {
     "id": 293,
     "name": "park-wall-side-294",
     "type": "prop",
     "x": 1520,
     "y": 192,
     "width": 0,
     "height": 0,
     "rotation": 0,
     "visible": true,
     "properties": [
      {
       "name": "prop",
       "type": "string",
       "value": "park-wall-side"
      },
      {
       "name": "blocks",
       "type": "bool",
       "value": false
      },
      {
       "name": "flat",
       "type": "bool",
       "value": false
      },
      {
       "name": "z",
       "type": "int",
       "value": 0
      }
     ]
    },
    {
     "id": 294,
     "name": "park-wall-side-295",
     "type": "prop",
     "x": 16,
     "y": 208,
     "width": 0,
     "height": 0,
     "rotation": 0,
     "visible": true,
     "properties": [
      {
       "name": "prop",
       "type": "string",
       "value": "park-wall-side"
      },
      {
       "name": "blocks",
       "type": "bool",
       "value": false
      },
      {
       "name": "flat",
       "type": "bool",
       "value": false
      },
      {
       "name": "z",
       "type": "int",
       "value": 0
      }
     ]
    },
    {
     "id": 295,
     "name": "park-wall-side-296",
     "type": "prop",
     "x": 1520,
     "y": 208,
     "width": 0,
     "height": 0,
     "rotation": 0,
     "visible": true,
     "properties": [
      {
       "name": "prop",
       "type": "string",
       "value": "park-wall-side"
      },
      {
       "name": "blocks",
       "type": "bool",
       "value": false
      },
      {
       "name": "flat",
       "type": "bool",
       "value": false
      },
      {
       "name": "z",
       "type": "int",
       "value": 0
      }
     ]
    },
    {
     "id": 296,
     "name": "park-wall-side-297",
     "type": "prop",
     "x": 16,
     "y": 224,
     "width": 0,
     "height": 0,
     "rotation": 0,
     "visible": true,
     "properties": [
      {
       "name": "prop",
       "type": "string",
       "value": "park-wall-side"
      },
      {
       "name": "blocks",
       "type": "bool",
       "value": false
      },
      {
       "name": "flat",
       "type": "bool",
       "value": false
      },
      {
       "name": "z",
       "type": "int",
       "value": 0
      }
     ]
    },
    {
     "id": 297,
     "name": "park-wall-side-298",
     "type": "prop",
     "x": 1520,
     "y": 224,
     "width": 0,
     "height": 0,
     "rotation": 0,
     "visible": true,
     "properties": [
      {
       "name": "prop",
       "type": "string",
       "value": "park-wall-side"
      },
      {
       "name": "blocks",
       "type": "bool",
       "value": false
      },
      {
       "name": "flat",
       "type": "bool",
       "value": false
      },
      {
       "name": "z",
       "type": "int",
       "value": 0
      }
     ]
    },
    {
     "id": 298,
     "name": "park-wall-side-299",
     "type": "prop",
     "x": 16,
     "y": 240,
     "width": 0,
     "height": 0,
     "rotation": 0,
     "visible": true,
     "properties": [
      {
       "name": "prop",
       "type": "string",
       "value": "park-wall-side"
      },
      {
       "name": "blocks",
       "type": "bool",
       "value": false
      },
      {
       "name": "flat",
       "type": "bool",
       "value": false
      },
      {
       "name": "z",
       "type": "int",
       "value": 0
      }
     ]
    },
    {
     "id": 299,
     "name": "park-wall-side-300",
     "type": "prop",
     "x": 1520,
     "y": 240,
     "width": 0,
     "height": 0,
     "rotation": 0,
     "visible": true,
     "properties": [
      {
       "name": "prop",
       "type": "string",
       "value": "park-wall-side"
      },
      {
       "name": "blocks",
       "type": "bool",
       "value": false
      },
      {
       "name": "flat",
       "type": "bool",
       "value": false
      },
      {
       "name": "z",
       "type": "int",
       "value": 0
      }
     ]
    },
    {
     "id": 300,
     "name": "park-wall-side-301",
     "type": "prop",
     "x": 16,
     "y": 256,
     "width": 0,
     "height": 0,
     "rotation": 0,
     "visible": true,
     "properties": [
      {
       "name": "prop",
       "type": "string",
       "value": "park-wall-side"
      },
      {
       "name": "blocks",
       "type": "bool",
       "value": false
      },
      {
       "name": "flat",
       "type": "bool",
       "value": false
      },
      {
       "name": "z",
       "type": "int",
       "value": 0
      }
     ]
    },
    {
     "id": 301,
     "name": "park-wall-side-302",
     "type": "prop",
     "x": 1520,
     "y": 256,
     "width": 0,
     "height": 0,
     "rotation": 0,
     "visible": true,
     "properties": [
      {
       "name": "prop",
       "type": "string",
       "value": "park-wall-side"
      },
      {
       "name": "blocks",
       "type": "bool",
       "value": false
      },
      {
       "name": "flat",
       "type": "bool",
       "value": false
      },
      {
       "name": "z",
       "type": "int",
       "value": 0
      }
     ]
    },
    {
     "id": 302,
     "name": "park-wall-side-303",
     "type": "prop",
     "x": 16,
     "y": 272,
     "width": 0,
     "height": 0,
     "rotation": 0,
     "visible": true,
     "properties": [
      {
       "name": "prop",
       "type": "string",
       "value": "park-wall-side"
      },
      {
       "name": "blocks",
       "type": "bool",
       "value": false
      },
      {
       "name": "flat",
       "type": "bool",
       "value": false
      },
      {
       "name": "z",
       "type": "int",
       "value": 0
      }
     ]
    },
    {
     "id": 303,
     "name": "park-wall-side-304",
     "type": "prop",
     "x": 1520,
     "y": 272,
     "width": 0,
     "height": 0,
     "rotation": 0,
     "visible": true,
     "properties": [
      {
       "name": "prop",
       "type": "string",
       "value": "park-wall-side"
      },
      {
       "name": "blocks",
       "type": "bool",
       "value": false
      },
      {
       "name": "flat",
       "type": "bool",
       "value": false
      },
      {
       "name": "z",
       "type": "int",
       "value": 0
      }
     ]
    },
    {
     "id": 304,
     "name": "park-wall-side-305",
     "type": "prop",
     "x": 16,
     "y": 288,
     "width": 0,
     "height": 0,
     "rotation": 0,
     "visible": true,
     "properties": [
      {
       "name": "prop",
       "type": "string",
       "value": "park-wall-side"
      },
      {
       "name": "blocks",
       "type": "bool",
       "value": false
      },
      {
       "name": "flat",
       "type": "bool",
       "value": false
      },
      {
       "name": "z",
       "type": "int",
       "value": 0
      }
     ]
    },
    {
     "id": 305,
     "name": "park-wall-side-306",
     "type": "prop",
     "x": 1520,
     "y": 288,
     "width": 0,
     "height": 0,
     "rotation": 0,
     "visible": true,
     "properties": [
      {
       "name": "prop",
       "type": "string",
       "value": "park-wall-side"
      },
      {
       "name": "blocks",
       "type": "bool",
       "value": false
      },
      {
       "name": "flat",
       "type": "bool",
       "value": false
      },
      {
       "name": "z",
       "type": "int",
       "value": 0
      }
     ]
    },
    {
     "id": 306,
     "name": "park-wall-side-307",
     "type": "prop",
     "x": 16,
     "y": 304,
     "width": 0,
     "height": 0,
     "rotation": 0,
     "visible": true,
     "properties": [
      {
       "name": "prop",
       "type": "string",
       "value": "park-wall-side"
      },
      {
       "name": "blocks",
       "type": "bool",
       "value": false
      },
      {
       "name": "flat",
       "type": "bool",
       "value": false
      },
      {
       "name": "z",
       "type": "int",
       "value": 0
      }
     ]
    },
    {
     "id": 307,
     "name": "park-wall-side-308",
     "type": "prop",
     "x": 1520,
     "y": 304,
     "width": 0,
     "height": 0,
     "rotation": 0,
     "visible": true,
     "properties": [
      {
       "name": "prop",
       "type": "string",
       "value": "park-wall-side"
      },
      {
       "name": "blocks",
       "type": "bool",
       "value": false
      },
      {
       "name": "flat",
       "type": "bool",
       "value": false
      },
      {
       "name": "z",
       "type": "int",
       "value": 0
      }
     ]
    },
    {
     "id": 308,
     "name": "park-wall-side-309",
     "type": "prop",
     "x": 16,
     "y": 320,
     "width": 0,
     "height": 0,
     "rotation": 0,
     "visible": true,
     "properties": [
      {
       "name": "prop",
       "type": "string",
       "value": "park-wall-side"
      },
      {
       "name": "blocks",
       "type": "bool",
       "value": false
      },
      {
       "name": "flat",
       "type": "bool",
       "value": false
      },
      {
       "name": "z",
       "type": "int",
       "value": 0
      }
     ]
    },
    {
     "id": 309,
     "name": "park-wall-side-310",
     "type": "prop",
     "x": 1520,
     "y": 320,
     "width": 0,
     "height": 0,
     "rotation": 0,
     "visible": true,
     "properties": [
      {
       "name": "prop",
       "type": "string",
       "value": "park-wall-side"
      },
      {
       "name": "blocks",
       "type": "bool",
       "value": false
      },
      {
       "name": "flat",
       "type": "bool",
       "value": false
      },
      {
       "name": "z",
       "type": "int",
       "value": 0
      }
     ]
    },
    {
     "id": 310,
     "name": "park-wall-side-311",
     "type": "prop",
     "x": 16,
     "y": 336,
     "width": 0,
     "height": 0,
     "rotation": 0,
     "visible": true,
     "properties": [
      {
       "name": "prop",
       "type": "string",
       "value": "park-wall-side"
      },
      {
       "name": "blocks",
       "type": "bool",
       "value": false
      },
      {
       "name": "flat",
       "type": "bool",
       "value": false
      },
      {
       "name": "z",
       "type": "int",
       "value": 0
      }
     ]
    },
    {
     "id": 311,
     "name": "park-wall-side-312",
     "type": "prop",
     "x": 1520,
     "y": 336,
     "width": 0,
     "height": 0,
     "rotation": 0,
     "visible": true,
     "properties": [
      {
       "name": "prop",
       "type": "string",
       "value": "park-wall-side"
      },
      {
       "name": "blocks",
       "type": "bool",
       "value": false
      },
      {
       "name": "flat",
       "type": "bool",
       "value": false
      },
      {
       "name": "z",
       "type": "int",
       "value": 0
      }
     ]
    },
    {
     "id": 312,
     "name": "park-wall-side-313",
     "type": "prop",
     "x": 16,
     "y": 352,
     "width": 0,
     "height": 0,
     "rotation": 0,
     "visible": true,
     "properties": [
      {
       "name": "prop",
       "type": "string",
       "value": "park-wall-side"
      },
      {
       "name": "blocks",
       "type": "bool",
       "value": false
      },
      {
       "name": "flat",
       "type": "bool",
       "value": false
      },
      {
       "name": "z",
       "type": "int",
       "value": 0
      }
     ]
    },
    {
     "id": 313,
     "name": "park-wall-side-314",
     "type": "prop",
     "x": 1520,
     "y": 352,
     "width": 0,
     "height": 0,
     "rotation": 0,
     "visible": true,
     "properties": [
      {
       "name": "prop",
       "type": "string",
       "value": "park-wall-side"
      },
      {
       "name": "blocks",
       "type": "bool",
       "value": false
      },
      {
       "name": "flat",
       "type": "bool",
       "value": false
      },
      {
       "name": "z",
       "type": "int",
       "value": 0
      }
     ]
    },
    {
     "id": 314,
     "name": "park-wall-side-315",
     "type": "prop",
     "x": 16,
     "y": 368,
     "width": 0,
     "height": 0,
     "rotation": 0,
     "visible": true,
     "properties": [
      {
       "name": "prop",
       "type": "string",
       "value": "park-wall-side"
      },
      {
       "name": "blocks",
       "type": "bool",
       "value": false
      },
      {
       "name": "flat",
       "type": "bool",
       "value": false
      },
      {
       "name": "z",
       "type": "int",
       "value": 0
      }
     ]
    },
    {
     "id": 315,
     "name": "park-wall-side-316",
     "type": "prop",
     "x": 1520,
     "y": 368,
     "width": 0,
     "height": 0,
     "rotation": 0,
     "visible": true,
     "properties": [
      {
       "name": "prop",
       "type": "string",
       "value": "park-wall-side"
      },
      {
       "name": "blocks",
       "type": "bool",
       "value": false
      },
      {
       "name": "flat",
       "type": "bool",
       "value": false
      },
      {
       "name": "z",
       "type": "int",
       "value": 0
      }
     ]
    },
    {
     "id": 316,
     "name": "park-wall-side-317",
     "type": "prop",
     "x": 16,
     "y": 384,
     "width": 0,
     "height": 0,
     "rotation": 0,
     "visible": true,
     "properties": [
      {
       "name": "prop",
       "type": "string",
       "value": "park-wall-side"
      },
      {
       "name": "blocks",
       "type": "bool",
       "value": false
      },
      {
       "name": "flat",
       "type": "bool",
       "value": false
      },
      {
       "name": "z",
       "type": "int",
       "value": 0
      }
     ]
    },
    {
     "id": 317,
     "name": "park-wall-side-318",
     "type": "prop",
     "x": 1520,
     "y": 384,
     "width": 0,
     "height": 0,
     "rotation": 0,
     "visible": true,
     "properties": [
      {
       "name": "prop",
       "type": "string",
       "value": "park-wall-side"
      },
      {
       "name": "blocks",
       "type": "bool",
       "value": false
      },
      {
       "name": "flat",
       "type": "bool",
       "value": false
      },
      {
       "name": "z",
       "type": "int",
       "value": 0
      }
     ]
    },
    {
     "id": 318,
     "name": "park-wall-side-319",
     "type": "prop",
     "x": 16,
     "y": 400,
     "width": 0,
     "height": 0,
     "rotation": 0,
     "visible": true,
     "properties": [
      {
       "name": "prop",
       "type": "string",
       "value": "park-wall-side"
      },
      {
       "name": "blocks",
       "type": "bool",
       "value": false
      },
      {
       "name": "flat",
       "type": "bool",
       "value": false
      },
      {
       "name": "z",
       "type": "int",
       "value": 0
      }
     ]
    },
    {
     "id": 319,
     "name": "park-wall-side-320",
     "type": "prop",
     "x": 1520,
     "y": 400,
     "width": 0,
     "height": 0,
     "rotation": 0,
     "visible": true,
     "properties": [
      {
       "name": "prop",
       "type": "string",
       "value": "park-wall-side"
      },
      {
       "name": "blocks",
       "type": "bool",
       "value": false
      },
      {
       "name": "flat",
       "type": "bool",
       "value": false
      },
      {
       "name": "z",
       "type": "int",
       "value": 0
      }
     ]
    },
    {
     "id": 320,
     "name": "park-wall-side-321",
     "type": "prop",
     "x": 16,
     "y": 416,
     "width": 0,
     "height": 0,
     "rotation": 0,
     "visible": true,
     "properties": [
      {
       "name": "prop",
       "type": "string",
       "value": "park-wall-side"
      },
      {
       "name": "blocks",
       "type": "bool",
       "value": false
      },
      {
       "name": "flat",
       "type": "bool",
       "value": false
      },
      {
       "name": "z",
       "type": "int",
       "value": 0
      }
     ]
    },
    {
     "id": 321,
     "name": "park-wall-side-322",
     "type": "prop",
     "x": 1520,
     "y": 416,
     "width": 0,
     "height": 0,
     "rotation": 0,
     "visible": true,
     "properties": [
      {
       "name": "prop",
       "type": "string",
       "value": "park-wall-side"
      },
      {
       "name": "blocks",
       "type": "bool",
       "value": false
      },
      {
       "name": "flat",
       "type": "bool",
       "value": false
      },
      {
       "name": "z",
       "type": "int",
       "value": 0
      }
     ]
    },
    {
     "id": 322,
     "name": "park-wall-side-323",
     "type": "prop",
     "x": 16,
     "y": 432,
     "width": 0,
     "height": 0,
     "rotation": 0,
     "visible": true,
     "properties": [
      {
       "name": "prop",
       "type": "string",
       "value": "park-wall-side"
      },
      {
       "name": "blocks",
       "type": "bool",
       "value": false
      },
      {
       "name": "flat",
       "type": "bool",
       "value": false
      },
      {
       "name": "z",
       "type": "int",
       "value": 0
      }
     ]
    },
    {
     "id": 323,
     "name": "park-wall-side-324",
     "type": "prop",
     "x": 1520,
     "y": 432,
     "width": 0,
     "height": 0,
     "rotation": 0,
     "visible": true,
     "properties": [
      {
       "name": "prop",
       "type": "string",
       "value": "park-wall-side"
      },
      {
       "name": "blocks",
       "type": "bool",
       "value": false
      },
      {
       "name": "flat",
       "type": "bool",
       "value": false
      },
      {
       "name": "z",
       "type": "int",
       "value": 0
      }
     ]
    },
    {
     "id": 324,
     "name": "park-wall-side-325",
     "type": "prop",
     "x": 16,
     "y": 448,
     "width": 0,
     "height": 0,
     "rotation": 0,
     "visible": true,
     "properties": [
      {
       "name": "prop",
       "type": "string",
       "value": "park-wall-side"
      },
      {
       "name": "blocks",
       "type": "bool",
       "value": false
      },
      {
       "name": "flat",
       "type": "bool",
       "value": false
      },
      {
       "name": "z",
       "type": "int",
       "value": 0
      }
     ]
    },
    {
     "id": 325,
     "name": "park-wall-side-326",
     "type": "prop",
     "x": 1520,
     "y": 448,
     "width": 0,
     "height": 0,
     "rotation": 0,
     "visible": true,
     "properties": [
      {
       "name": "prop",
       "type": "string",
       "value": "park-wall-side"
      },
      {
       "name": "blocks",
       "type": "bool",
       "value": false
      },
      {
       "name": "flat",
       "type": "bool",
       "value": false
      },
      {
       "name": "z",
       "type": "int",
       "value": 0
      }
     ]
    },
    {
     "id": 326,
     "name": "park-wall-side-327",
     "type": "prop",
     "x": 16,
     "y": 464,
     "width": 0,
     "height": 0,
     "rotation": 0,
     "visible": true,
     "properties": [
      {
       "name": "prop",
       "type": "string",
       "value": "park-wall-side"
      },
      {
       "name": "blocks",
       "type": "bool",
       "value": false
      },
      {
       "name": "flat",
       "type": "bool",
       "value": false
      },
      {
       "name": "z",
       "type": "int",
       "value": 0
      }
     ]
    },
    {
     "id": 327,
     "name": "park-wall-side-328",
     "type": "prop",
     "x": 1520,
     "y": 464,
     "width": 0,
     "height": 0,
     "rotation": 0,
     "visible": true,
     "properties": [
      {
       "name": "prop",
       "type": "string",
       "value": "park-wall-side"
      },
      {
       "name": "blocks",
       "type": "bool",
       "value": false
      },
      {
       "name": "flat",
       "type": "bool",
       "value": false
      },
      {
       "name": "z",
       "type": "int",
       "value": 0
      }
     ]
    },
    {
     "id": 328,
     "name": "park-wall-side-329",
     "type": "prop",
     "x": 16,
     "y": 480,
     "width": 0,
     "height": 0,
     "rotation": 0,
     "visible": true,
     "properties": [
      {
       "name": "prop",
       "type": "string",
       "value": "park-wall-side"
      },
      {
       "name": "blocks",
       "type": "bool",
       "value": false
      },
      {
       "name": "flat",
       "type": "bool",
       "value": false
      },
      {
       "name": "z",
       "type": "int",
       "value": 0
      }
     ]
    },
    {
     "id": 329,
     "name": "park-wall-side-330",
     "type": "prop",
     "x": 1520,
     "y": 480,
     "width": 0,
     "height": 0,
     "rotation": 0,
     "visible": true,
     "properties": [
      {
       "name": "prop",
       "type": "string",
       "value": "park-wall-side"
      },
      {
       "name": "blocks",
       "type": "bool",
       "value": false
      },
      {
       "name": "flat",
       "type": "bool",
       "value": false
      },
      {
       "name": "z",
       "type": "int",
       "value": 0
      }
     ]
    },
    {
     "id": 330,
     "name": "park-wall-side-331",
     "type": "prop",
     "x": 16,
     "y": 496,
     "width": 0,
     "height": 0,
     "rotation": 0,
     "visible": true,
     "properties": [
      {
       "name": "prop",
       "type": "string",
       "value": "park-wall-side"
      },
      {
       "name": "blocks",
       "type": "bool",
       "value": false
      },
      {
       "name": "flat",
       "type": "bool",
       "value": false
      },
      {
       "name": "z",
       "type": "int",
       "value": 0
      }
     ]
    },
    {
     "id": 331,
     "name": "park-wall-side-332",
     "type": "prop",
     "x": 1520,
     "y": 496,
     "width": 0,
     "height": 0,
     "rotation": 0,
     "visible": true,
     "properties": [
      {
       "name": "prop",
       "type": "string",
       "value": "park-wall-side"
      },
      {
       "name": "blocks",
       "type": "bool",
       "value": false
      },
      {
       "name": "flat",
       "type": "bool",
       "value": false
      },
      {
       "name": "z",
       "type": "int",
       "value": 0
      }
     ]
    },
    {
     "id": 332,
     "name": "park-wall-side-333",
     "type": "prop",
     "x": 16,
     "y": 512,
     "width": 0,
     "height": 0,
     "rotation": 0,
     "visible": true,
     "properties": [
      {
       "name": "prop",
       "type": "string",
       "value": "park-wall-side"
      },
      {
       "name": "blocks",
       "type": "bool",
       "value": false
      },
      {
       "name": "flat",
       "type": "bool",
       "value": false
      },
      {
       "name": "z",
       "type": "int",
       "value": 0
      }
     ]
    },
    {
     "id": 333,
     "name": "park-wall-side-334",
     "type": "prop",
     "x": 1520,
     "y": 512,
     "width": 0,
     "height": 0,
     "rotation": 0,
     "visible": true,
     "properties": [
      {
       "name": "prop",
       "type": "string",
       "value": "park-wall-side"
      },
      {
       "name": "blocks",
       "type": "bool",
       "value": false
      },
      {
       "name": "flat",
       "type": "bool",
       "value": false
      },
      {
       "name": "z",
       "type": "int",
       "value": 0
      }
     ]
    },
    {
     "id": 334,
     "name": "park-wall-side-335",
     "type": "prop",
     "x": 16,
     "y": 528,
     "width": 0,
     "height": 0,
     "rotation": 0,
     "visible": true,
     "properties": [
      {
       "name": "prop",
       "type": "string",
       "value": "park-wall-side"
      },
      {
       "name": "blocks",
       "type": "bool",
       "value": false
      },
      {
       "name": "flat",
       "type": "bool",
       "value": false
      },
      {
       "name": "z",
       "type": "int",
       "value": 0
      }
     ]
    },
    {
     "id": 335,
     "name": "park-wall-side-336",
     "type": "prop",
     "x": 1520,
     "y": 528,
     "width": 0,
     "height": 0,
     "rotation": 0,
     "visible": true,
     "properties": [
      {
       "name": "prop",
       "type": "string",
       "value": "park-wall-side"
      },
      {
       "name": "blocks",
       "type": "bool",
       "value": false
      },
      {
       "name": "flat",
       "type": "bool",
       "value": false
      },
      {
       "name": "z",
       "type": "int",
       "value": 0
      }
     ]
    },
    {
     "id": 336,
     "name": "park-wall-side-337",
     "type": "prop",
     "x": 16,
     "y": 544,
     "width": 0,
     "height": 0,
     "rotation": 0,
     "visible": true,
     "properties": [
      {
       "name": "prop",
       "type": "string",
       "value": "park-wall-side"
      },
      {
       "name": "blocks",
       "type": "bool",
       "value": false
      },
      {
       "name": "flat",
       "type": "bool",
       "value": false
      },
      {
       "name": "z",
       "type": "int",
       "value": 0
      }
     ]
    },
    {
     "id": 337,
     "name": "park-wall-side-338",
     "type": "prop",
     "x": 1520,
     "y": 544,
     "width": 0,
     "height": 0,
     "rotation": 0,
     "visible": true,
     "properties": [
      {
       "name": "prop",
       "type": "string",
       "value": "park-wall-side"
      },
      {
       "name": "blocks",
       "type": "bool",
       "value": false
      },
      {
       "name": "flat",
       "type": "bool",
       "value": false
      },
      {
       "name": "z",
       "type": "int",
       "value": 0
      }
     ]
    },
    {
     "id": 338,
     "name": "park-wall-side-339",
     "type": "prop",
     "x": 16,
     "y": 560,
     "width": 0,
     "height": 0,
     "rotation": 0,
     "visible": true,
     "properties": [
      {
       "name": "prop",
       "type": "string",
       "value": "park-wall-side"
      },
      {
       "name": "blocks",
       "type": "bool",
       "value": false
      },
      {
       "name": "flat",
       "type": "bool",
       "value": false
      },
      {
       "name": "z",
       "type": "int",
       "value": 0
      }
     ]
    },
    {
     "id": 339,
     "name": "park-wall-side-340",
     "type": "prop",
     "x": 1520,
     "y": 560,
     "width": 0,
     "height": 0,
     "rotation": 0,
     "visible": true,
     "properties": [
      {
       "name": "prop",
       "type": "string",
       "value": "park-wall-side"
      },
      {
       "name": "blocks",
       "type": "bool",
       "value": false
      },
      {
       "name": "flat",
       "type": "bool",
       "value": false
      },
      {
       "name": "z",
       "type": "int",
       "value": 0
      }
     ]
    },
    {
     "id": 340,
     "name": "park-wall-side-341",
     "type": "prop",
     "x": 16,
     "y": 576,
     "width": 0,
     "height": 0,
     "rotation": 0,
     "visible": true,
     "properties": [
      {
       "name": "prop",
       "type": "string",
       "value": "park-wall-side"
      },
      {
       "name": "blocks",
       "type": "bool",
       "value": false
      },
      {
       "name": "flat",
       "type": "bool",
       "value": false
      },
      {
       "name": "z",
       "type": "int",
       "value": 0
      }
     ]
    },
    {
     "id": 341,
     "name": "park-wall-side-342",
     "type": "prop",
     "x": 1520,
     "y": 576,
     "width": 0,
     "height": 0,
     "rotation": 0,
     "visible": true,
     "properties": [
      {
       "name": "prop",
       "type": "string",
       "value": "park-wall-side"
      },
      {
       "name": "blocks",
       "type": "bool",
       "value": false
      },
      {
       "name": "flat",
       "type": "bool",
       "value": false
      },
      {
       "name": "z",
       "type": "int",
       "value": 0
      }
     ]
    },
    {
     "id": 342,
     "name": "park-wall-side-343",
     "type": "prop",
     "x": 16,
     "y": 592,
     "width": 0,
     "height": 0,
     "rotation": 0,
     "visible": true,
     "properties": [
      {
       "name": "prop",
       "type": "string",
       "value": "park-wall-side"
      },
      {
       "name": "blocks",
       "type": "bool",
       "value": false
      },
      {
       "name": "flat",
       "type": "bool",
       "value": false
      },
      {
       "name": "z",
       "type": "int",
       "value": 0
      }
     ]
    },
    {
     "id": 343,
     "name": "park-wall-side-344",
     "type": "prop",
     "x": 1520,
     "y": 592,
     "width": 0,
     "height": 0,
     "rotation": 0,
     "visible": true,
     "properties": [
      {
       "name": "prop",
       "type": "string",
       "value": "park-wall-side"
      },
      {
       "name": "blocks",
       "type": "bool",
       "value": false
      },
      {
       "name": "flat",
       "type": "bool",
       "value": false
      },
      {
       "name": "z",
       "type": "int",
       "value": 0
      }
     ]
    },
    {
     "id": 344,
     "name": "park-wall-side-345",
     "type": "prop",
     "x": 16,
     "y": 608,
     "width": 0,
     "height": 0,
     "rotation": 0,
     "visible": true,
     "properties": [
      {
       "name": "prop",
       "type": "string",
       "value": "park-wall-side"
      },
      {
       "name": "blocks",
       "type": "bool",
       "value": false
      },
      {
       "name": "flat",
       "type": "bool",
       "value": false
      },
      {
       "name": "z",
       "type": "int",
       "value": 0
      }
     ]
    },
    {
     "id": 345,
     "name": "park-wall-side-346",
     "type": "prop",
     "x": 1520,
     "y": 608,
     "width": 0,
     "height": 0,
     "rotation": 0,
     "visible": true,
     "properties": [
      {
       "name": "prop",
       "type": "string",
       "value": "park-wall-side"
      },
      {
       "name": "blocks",
       "type": "bool",
       "value": false
      },
      {
       "name": "flat",
       "type": "bool",
       "value": false
      },
      {
       "name": "z",
       "type": "int",
       "value": 0
      }
     ]
    },
    {
     "id": 346,
     "name": "park-wall-side-347",
     "type": "prop",
     "x": 16,
     "y": 624,
     "width": 0,
     "height": 0,
     "rotation": 0,
     "visible": true,
     "properties": [
      {
       "name": "prop",
       "type": "string",
       "value": "park-wall-side"
      },
      {
       "name": "blocks",
       "type": "bool",
       "value": false
      },
      {
       "name": "flat",
       "type": "bool",
       "value": false
      },
      {
       "name": "z",
       "type": "int",
       "value": 0
      }
     ]
    },
    {
     "id": 347,
     "name": "park-wall-side-348",
     "type": "prop",
     "x": 1520,
     "y": 624,
     "width": 0,
     "height": 0,
     "rotation": 0,
     "visible": true,
     "properties": [
      {
       "name": "prop",
       "type": "string",
       "value": "park-wall-side"
      },
      {
       "name": "blocks",
       "type": "bool",
       "value": false
      },
      {
       "name": "flat",
       "type": "bool",
       "value": false
      },
      {
       "name": "z",
       "type": "int",
       "value": 0
      }
     ]
    },
    {
     "id": 348,
     "name": "park-wall-side-349",
     "type": "prop",
     "x": 16,
     "y": 640,
     "width": 0,
     "height": 0,
     "rotation": 0,
     "visible": true,
     "properties": [
      {
       "name": "prop",
       "type": "string",
       "value": "park-wall-side"
      },
      {
       "name": "blocks",
       "type": "bool",
       "value": false
      },
      {
       "name": "flat",
       "type": "bool",
       "value": false
      },
      {
       "name": "z",
       "type": "int",
       "value": 0
      }
     ]
    },
    {
     "id": 349,
     "name": "park-wall-side-350",
     "type": "prop",
     "x": 1520,
     "y": 640,
     "width": 0,
     "height": 0,
     "rotation": 0,
     "visible": true,
     "properties": [
      {
       "name": "prop",
       "type": "string",
       "value": "park-wall-side"
      },
      {
       "name": "blocks",
       "type": "bool",
       "value": false
      },
      {
       "name": "flat",
       "type": "bool",
       "value": false
      },
      {
       "name": "z",
       "type": "int",
       "value": 0
      }
     ]
    },
    {
     "id": 350,
     "name": "park-wall-side-351",
     "type": "prop",
     "x": 16,
     "y": 656,
     "width": 0,
     "height": 0,
     "rotation": 0,
     "visible": true,
     "properties": [
      {
       "name": "prop",
       "type": "string",
       "value": "park-wall-side"
      },
      {
       "name": "blocks",
       "type": "bool",
       "value": false
      },
      {
       "name": "flat",
       "type": "bool",
       "value": false
      },
      {
       "name": "z",
       "type": "int",
       "value": 0
      }
     ]
    },
    {
     "id": 351,
     "name": "park-wall-side-352",
     "type": "prop",
     "x": 1520,
     "y": 656,
     "width": 0,
     "height": 0,
     "rotation": 0,
     "visible": true,
     "properties": [
      {
       "name": "prop",
       "type": "string",
       "value": "park-wall-side"
      },
      {
       "name": "blocks",
       "type": "bool",
       "value": false
      },
      {
       "name": "flat",
       "type": "bool",
       "value": false
      },
      {
       "name": "z",
       "type": "int",
       "value": 0
      }
     ]
    },
    {
     "id": 352,
     "name": "park-wall-side-353",
     "type": "prop",
     "x": 16,
     "y": 672,
     "width": 0,
     "height": 0,
     "rotation": 0,
     "visible": true,
     "properties": [
      {
       "name": "prop",
       "type": "string",
       "value": "park-wall-side"
      },
      {
       "name": "blocks",
       "type": "bool",
       "value": false
      },
      {
       "name": "flat",
       "type": "bool",
       "value": false
      },
      {
       "name": "z",
       "type": "int",
       "value": 0
      }
     ]
    },
    {
     "id": 353,
     "name": "park-wall-side-354",
     "type": "prop",
     "x": 1520,
     "y": 672,
     "width": 0,
     "height": 0,
     "rotation": 0,
     "visible": true,
     "properties": [
      {
       "name": "prop",
       "type": "string",
       "value": "park-wall-side"
      },
      {
       "name": "blocks",
       "type": "bool",
       "value": false
      },
      {
       "name": "flat",
       "type": "bool",
       "value": false
      },
      {
       "name": "z",
       "type": "int",
       "value": 0
      }
     ]
    },
    {
     "id": 354,
     "name": "park-wall-side-355",
     "type": "prop",
     "x": 16,
     "y": 688,
     "width": 0,
     "height": 0,
     "rotation": 0,
     "visible": true,
     "properties": [
      {
       "name": "prop",
       "type": "string",
       "value": "park-wall-side"
      },
      {
       "name": "blocks",
       "type": "bool",
       "value": false
      },
      {
       "name": "flat",
       "type": "bool",
       "value": false
      },
      {
       "name": "z",
       "type": "int",
       "value": 0
      }
     ]
    },
    {
     "id": 355,
     "name": "park-wall-side-356",
     "type": "prop",
     "x": 1520,
     "y": 688,
     "width": 0,
     "height": 0,
     "rotation": 0,
     "visible": true,
     "properties": [
      {
       "name": "prop",
       "type": "string",
       "value": "park-wall-side"
      },
      {
       "name": "blocks",
       "type": "bool",
       "value": false
      },
      {
       "name": "flat",
       "type": "bool",
       "value": false
      },
      {
       "name": "z",
       "type": "int",
       "value": 0
      }
     ]
    },
    {
     "id": 356,
     "name": "park-wall-side-357",
     "type": "prop",
     "x": 16,
     "y": 704,
     "width": 0,
     "height": 0,
     "rotation": 0,
     "visible": true,
     "properties": [
      {
       "name": "prop",
       "type": "string",
       "value": "park-wall-side"
      },
      {
       "name": "blocks",
       "type": "bool",
       "value": false
      },
      {
       "name": "flat",
       "type": "bool",
       "value": false
      },
      {
       "name": "z",
       "type": "int",
       "value": 0
      }
     ]
    },
    {
     "id": 357,
     "name": "park-wall-side-358",
     "type": "prop",
     "x": 1520,
     "y": 704,
     "width": 0,
     "height": 0,
     "rotation": 0,
     "visible": true,
     "properties": [
      {
       "name": "prop",
       "type": "string",
       "value": "park-wall-side"
      },
      {
       "name": "blocks",
       "type": "bool",
       "value": false
      },
      {
       "name": "flat",
       "type": "bool",
       "value": false
      },
      {
       "name": "z",
       "type": "int",
       "value": 0
      }
     ]
    },
    {
     "id": 358,
     "name": "park-wall-side-359",
     "type": "prop",
     "x": 16,
     "y": 720,
     "width": 0,
     "height": 0,
     "rotation": 0,
     "visible": true,
     "properties": [
      {
       "name": "prop",
       "type": "string",
       "value": "park-wall-side"
      },
      {
       "name": "blocks",
       "type": "bool",
       "value": false
      },
      {
       "name": "flat",
       "type": "bool",
       "value": false
      },
      {
       "name": "z",
       "type": "int",
       "value": 0
      }
     ]
    },
    {
     "id": 359,
     "name": "park-wall-side-360",
     "type": "prop",
     "x": 1520,
     "y": 720,
     "width": 0,
     "height": 0,
     "rotation": 0,
     "visible": true,
     "properties": [
      {
       "name": "prop",
       "type": "string",
       "value": "park-wall-side"
      },
      {
       "name": "blocks",
       "type": "bool",
       "value": false
      },
      {
       "name": "flat",
       "type": "bool",
       "value": false
      },
      {
       "name": "z",
       "type": "int",
       "value": 0
      }
     ]
    },
    {
     "id": 360,
     "name": "park-wall-side-361",
     "type": "prop",
     "x": 16,
     "y": 736,
     "width": 0,
     "height": 0,
     "rotation": 0,
     "visible": true,
     "properties": [
      {
       "name": "prop",
       "type": "string",
       "value": "park-wall-side"
      },
      {
       "name": "blocks",
       "type": "bool",
       "value": false
      },
      {
       "name": "flat",
       "type": "bool",
       "value": false
      },
      {
       "name": "z",
       "type": "int",
       "value": 0
      }
     ]
    },
    {
     "id": 361,
     "name": "park-wall-side-362",
     "type": "prop",
     "x": 1520,
     "y": 736,
     "width": 0,
     "height": 0,
     "rotation": 0,
     "visible": true,
     "properties": [
      {
       "name": "prop",
       "type": "string",
       "value": "park-wall-side"
      },
      {
       "name": "blocks",
       "type": "bool",
       "value": false
      },
      {
       "name": "flat",
       "type": "bool",
       "value": false
      },
      {
       "name": "z",
       "type": "int",
       "value": 0
      }
     ]
    },
    {
     "id": 362,
     "name": "park-wall-side-363",
     "type": "prop",
     "x": 16,
     "y": 752,
     "width": 0,
     "height": 0,
     "rotation": 0,
     "visible": true,
     "properties": [
      {
       "name": "prop",
       "type": "string",
       "value": "park-wall-side"
      },
      {
       "name": "blocks",
       "type": "bool",
       "value": false
      },
      {
       "name": "flat",
       "type": "bool",
       "value": false
      },
      {
       "name": "z",
       "type": "int",
       "value": 0
      }
     ]
    },
    {
     "id": 363,
     "name": "park-wall-side-364",
     "type": "prop",
     "x": 1520,
     "y": 752,
     "width": 0,
     "height": 0,
     "rotation": 0,
     "visible": true,
     "properties": [
      {
       "name": "prop",
       "type": "string",
       "value": "park-wall-side"
      },
      {
       "name": "blocks",
       "type": "bool",
       "value": false
      },
      {
       "name": "flat",
       "type": "bool",
       "value": false
      },
      {
       "name": "z",
       "type": "int",
       "value": 0
      }
     ]
    },
    {
     "id": 364,
     "name": "park-wall-side-365",
     "type": "prop",
     "x": 16,
     "y": 768,
     "width": 0,
     "height": 0,
     "rotation": 0,
     "visible": true,
     "properties": [
      {
       "name": "prop",
       "type": "string",
       "value": "park-wall-side"
      },
      {
       "name": "blocks",
       "type": "bool",
       "value": false
      },
      {
       "name": "flat",
       "type": "bool",
       "value": false
      },
      {
       "name": "z",
       "type": "int",
       "value": 0
      }
     ]
    },
    {
     "id": 365,
     "name": "park-wall-side-366",
     "type": "prop",
     "x": 1520,
     "y": 768,
     "width": 0,
     "height": 0,
     "rotation": 0,
     "visible": true,
     "properties": [
      {
       "name": "prop",
       "type": "string",
       "value": "park-wall-side"
      },
      {
       "name": "blocks",
       "type": "bool",
       "value": false
      },
      {
       "name": "flat",
       "type": "bool",
       "value": false
      },
      {
       "name": "z",
       "type": "int",
       "value": 0
      }
     ]
    },
    {
     "id": 366,
     "name": "park-wall-side-367",
     "type": "prop",
     "x": 16,
     "y": 784,
     "width": 0,
     "height": 0,
     "rotation": 0,
     "visible": true,
     "properties": [
      {
       "name": "prop",
       "type": "string",
       "value": "park-wall-side"
      },
      {
       "name": "blocks",
       "type": "bool",
       "value": false
      },
      {
       "name": "flat",
       "type": "bool",
       "value": false
      },
      {
       "name": "z",
       "type": "int",
       "value": 0
      }
     ]
    },
    {
     "id": 367,
     "name": "park-wall-side-368",
     "type": "prop",
     "x": 1520,
     "y": 784,
     "width": 0,
     "height": 0,
     "rotation": 0,
     "visible": true,
     "properties": [
      {
       "name": "prop",
       "type": "string",
       "value": "park-wall-side"
      },
      {
       "name": "blocks",
       "type": "bool",
       "value": false
      },
      {
       "name": "flat",
       "type": "bool",
       "value": false
      },
      {
       "name": "z",
       "type": "int",
       "value": 0
      }
     ]
    },
    {
     "id": 368,
     "name": "park-wall-side-369",
     "type": "prop",
     "x": 16,
     "y": 800,
     "width": 0,
     "height": 0,
     "rotation": 0,
     "visible": true,
     "properties": [
      {
       "name": "prop",
       "type": "string",
       "value": "park-wall-side"
      },
      {
       "name": "blocks",
       "type": "bool",
       "value": false
      },
      {
       "name": "flat",
       "type": "bool",
       "value": false
      },
      {
       "name": "z",
       "type": "int",
       "value": 0
      }
     ]
    },
    {
     "id": 369,
     "name": "park-wall-side-370",
     "type": "prop",
     "x": 1520,
     "y": 800,
     "width": 0,
     "height": 0,
     "rotation": 0,
     "visible": true,
     "properties": [
      {
       "name": "prop",
       "type": "string",
       "value": "park-wall-side"
      },
      {
       "name": "blocks",
       "type": "bool",
       "value": false
      },
      {
       "name": "flat",
       "type": "bool",
       "value": false
      },
      {
       "name": "z",
       "type": "int",
       "value": 0
      }
     ]
    },
    {
     "id": 370,
     "name": "park-wall-side-371",
     "type": "prop",
     "x": 16,
     "y": 816,
     "width": 0,
     "height": 0,
     "rotation": 0,
     "visible": true,
     "properties": [
      {
       "name": "prop",
       "type": "string",
       "value": "park-wall-side"
      },
      {
       "name": "blocks",
       "type": "bool",
       "value": false
      },
      {
       "name": "flat",
       "type": "bool",
       "value": false
      },
      {
       "name": "z",
       "type": "int",
       "value": 0
      }
     ]
    },
    {
     "id": 371,
     "name": "park-wall-side-372",
     "type": "prop",
     "x": 1520,
     "y": 816,
     "width": 0,
     "height": 0,
     "rotation": 0,
     "visible": true,
     "properties": [
      {
       "name": "prop",
       "type": "string",
       "value": "park-wall-side"
      },
      {
       "name": "blocks",
       "type": "bool",
       "value": false
      },
      {
       "name": "flat",
       "type": "bool",
       "value": false
      },
      {
       "name": "z",
       "type": "int",
       "value": 0
      }
     ]
    },
    {
     "id": 372,
     "name": "park-wall-side-373",
     "type": "prop",
     "x": 16,
     "y": 832,
     "width": 0,
     "height": 0,
     "rotation": 0,
     "visible": true,
     "properties": [
      {
       "name": "prop",
       "type": "string",
       "value": "park-wall-side"
      },
      {
       "name": "blocks",
       "type": "bool",
       "value": false
      },
      {
       "name": "flat",
       "type": "bool",
       "value": false
      },
      {
       "name": "z",
       "type": "int",
       "value": 0
      }
     ]
    },
    {
     "id": 373,
     "name": "park-wall-side-374",
     "type": "prop",
     "x": 1520,
     "y": 832,
     "width": 0,
     "height": 0,
     "rotation": 0,
     "visible": true,
     "properties": [
      {
       "name": "prop",
       "type": "string",
       "value": "park-wall-side"
      },
      {
       "name": "blocks",
       "type": "bool",
       "value": false
      },
      {
       "name": "flat",
       "type": "bool",
       "value": false
      },
      {
       "name": "z",
       "type": "int",
       "value": 0
      }
     ]
    },
    {
     "id": 374,
     "name": "park-wall-side-375",
     "type": "prop",
     "x": 16,
     "y": 848,
     "width": 0,
     "height": 0,
     "rotation": 0,
     "visible": true,
     "properties": [
      {
       "name": "prop",
       "type": "string",
       "value": "park-wall-side"
      },
      {
       "name": "blocks",
       "type": "bool",
       "value": false
      },
      {
       "name": "flat",
       "type": "bool",
       "value": false
      },
      {
       "name": "z",
       "type": "int",
       "value": 0
      }
     ]
    },
    {
     "id": 375,
     "name": "park-wall-side-376",
     "type": "prop",
     "x": 1520,
     "y": 848,
     "width": 0,
     "height": 0,
     "rotation": 0,
     "visible": true,
     "properties": [
      {
       "name": "prop",
       "type": "string",
       "value": "park-wall-side"
      },
      {
       "name": "blocks",
       "type": "bool",
       "value": false
      },
      {
       "name": "flat",
       "type": "bool",
       "value": false
      },
      {
       "name": "z",
       "type": "int",
       "value": 0
      }
     ]
    },
    {
     "id": 376,
     "name": "park-wall-side-377",
     "type": "prop",
     "x": 16,
     "y": 864,
     "width": 0,
     "height": 0,
     "rotation": 0,
     "visible": true,
     "properties": [
      {
       "name": "prop",
       "type": "string",
       "value": "park-wall-side"
      },
      {
       "name": "blocks",
       "type": "bool",
       "value": false
      },
      {
       "name": "flat",
       "type": "bool",
       "value": false
      },
      {
       "name": "z",
       "type": "int",
       "value": 0
      }
     ]
    },
    {
     "id": 377,
     "name": "park-wall-side-378",
     "type": "prop",
     "x": 1520,
     "y": 864,
     "width": 0,
     "height": 0,
     "rotation": 0,
     "visible": true,
     "properties": [
      {
       "name": "prop",
       "type": "string",
       "value": "park-wall-side"
      },
      {
       "name": "blocks",
       "type": "bool",
       "value": false
      },
      {
       "name": "flat",
       "type": "bool",
       "value": false
      },
      {
       "name": "z",
       "type": "int",
       "value": 0
      }
     ]
    },
    {
     "id": 378,
     "name": "park-wall-side-379",
     "type": "prop",
     "x": 16,
     "y": 880,
     "width": 0,
     "height": 0,
     "rotation": 0,
     "visible": true,
     "properties": [
      {
       "name": "prop",
       "type": "string",
       "value": "park-wall-side"
      },
      {
       "name": "blocks",
       "type": "bool",
       "value": false
      },
      {
       "name": "flat",
       "type": "bool",
       "value": false
      },
      {
       "name": "z",
       "type": "int",
       "value": 0
      }
     ]
    },
    {
     "id": 379,
     "name": "park-wall-side-380",
     "type": "prop",
     "x": 1520,
     "y": 880,
     "width": 0,
     "height": 0,
     "rotation": 0,
     "visible": true,
     "properties": [
      {
       "name": "prop",
       "type": "string",
       "value": "park-wall-side"
      },
      {
       "name": "blocks",
       "type": "bool",
       "value": false
      },
      {
       "name": "flat",
       "type": "bool",
       "value": false
      },
      {
       "name": "z",
       "type": "int",
       "value": 0
      }
     ]
    },
    {
     "id": 380,
     "name": "park-wall-side-381",
     "type": "prop",
     "x": 16,
     "y": 896,
     "width": 0,
     "height": 0,
     "rotation": 0,
     "visible": true,
     "properties": [
      {
       "name": "prop",
       "type": "string",
       "value": "park-wall-side"
      },
      {
       "name": "blocks",
       "type": "bool",
       "value": false
      },
      {
       "name": "flat",
       "type": "bool",
       "value": false
      },
      {
       "name": "z",
       "type": "int",
       "value": 0
      }
     ]
    },
    {
     "id": 381,
     "name": "park-wall-side-382",
     "type": "prop",
     "x": 1520,
     "y": 896,
     "width": 0,
     "height": 0,
     "rotation": 0,
     "visible": true,
     "properties": [
      {
       "name": "prop",
       "type": "string",
       "value": "park-wall-side"
      },
      {
       "name": "blocks",
       "type": "bool",
       "value": false
      },
      {
       "name": "flat",
       "type": "bool",
       "value": false
      },
      {
       "name": "z",
       "type": "int",
       "value": 0
      }
     ]
    },
    {
     "id": 382,
     "name": "park-wall-side-383",
     "type": "prop",
     "x": 16,
     "y": 912,
     "width": 0,
     "height": 0,
     "rotation": 0,
     "visible": true,
     "properties": [
      {
       "name": "prop",
       "type": "string",
       "value": "park-wall-side"
      },
      {
       "name": "blocks",
       "type": "bool",
       "value": false
      },
      {
       "name": "flat",
       "type": "bool",
       "value": false
      },
      {
       "name": "z",
       "type": "int",
       "value": 0
      }
     ]
    },
    {
     "id": 383,
     "name": "park-wall-side-384",
     "type": "prop",
     "x": 1520,
     "y": 912,
     "width": 0,
     "height": 0,
     "rotation": 0,
     "visible": true,
     "properties": [
      {
       "name": "prop",
       "type": "string",
       "value": "park-wall-side"
      },
      {
       "name": "blocks",
       "type": "bool",
       "value": false
      },
      {
       "name": "flat",
       "type": "bool",
       "value": false
      },
      {
       "name": "z",
       "type": "int",
       "value": 0
      }
     ]
    },
    {
     "id": 384,
     "name": "park-gate-385",
     "type": "prop",
     "x": 768,
     "y": 960,
     "width": 0,
     "height": 0,
     "rotation": 0,
     "visible": true,
     "properties": [
      {
       "name": "prop",
       "type": "string",
       "value": "park-gate"
      },
      {
       "name": "blocks",
       "type": "bool",
       "value": false
      },
      {
       "name": "flat",
       "type": "bool",
       "value": false
      },
      {
       "name": "z",
       "type": "int",
       "value": 0
      }
     ]
    },
    {
     "id": 385,
     "name": "inicio",
     "type": "punto",
     "point": true,
     "x": 760,
     "y": 808,
     "width": 0,
     "height": 0,
     "rotation": 0,
     "visible": true
    }
   ]
  }
 ],
 "tilesets": [
  {
   "firstgid": 1,
   "name": "placeholder",
   "image": "../tiles/placeholder.png",
   "imagewidth": 80,
   "imageheight": 16,
   "tilewidth": 16,
   "tileheight": 16,
   "tilecount": 5,
   "columns": 5,
   "margin": 0,
   "spacing": 0,
   "tiles": [
    {
     "id": 1,
     "properties": [
      {
       "name": "walkable",
       "type": "bool",
       "value": true
      }
     ]
    },
    {
     "id": 3,
     "properties": [
      {
       "name": "walkable",
       "type": "bool",
       "value": true
      }
     ]
    }
   ]
  }
 ]
}
